;FLAVOR:Marlin
;TIME:2268
;Filament used: 2.01734m
;Layer height: 0.28
;MINX:93.205
;MINY:93.206
;MINZ:0.28
;MAXX:126.795
;MAXY:126.794
;MAXZ:29.96
;Generated with Cura_SteamEngine 4.8.0
M140 S60
M105
M190 S60
M104 S200
M105
M109 S200
M82 ;absolute extrusion mode
; Ender 3 Custom Start G-code
G92 E0 ; Reset Extruder
G28 ; Home all axes
G1 Z2.0 F3000 ; Move Z Axis up little to prevent scratching of Heat Bed
G1 X0.1 Y20 Z0.3 F5000.0 ; Move to start position
G1 X0.1 Y200.0 Z0.3 F1500.0 E15 ; Draw the first line
G1 X0.4 Y200.0 Z0.3 F5000.0 ; Move to side a little
G1 X0.4 Y20 Z0.3 F1500.0 E30 ; Draw the second line
G92 E0 ; Reset Extruder
G1 Z2.0 F3000 ; Move Z Axis up little to prevent scratching of Heat Bed
G1 X5 Y20 Z0.3 F5000.0 ; Move over to prevent blob squish
G92 E0
G92 E0
G1 F1500 E-6.5
;LAYER_COUNT:107
;LAYER:0
M107
G0 F6000 X96.53 Y96.791 Z0.28
;TYPE:SKIRT
G1 F1500 E0
G1 F1200 X96.845 Y96.478 E0.02068
G1 X97.507 Y95.891 E0.06188
G1 X97.855 Y95.616 E0.08253
G1 X98.532 Y95.137 E0.12115
G1 X98.908 Y94.9 E0.14184
G1 X99.692 Y94.467 E0.18355
G1 X100.09 Y94.276 E0.2041
G1 X100.859 Y93.956 E0.24289
G1 X101.285 Y93.805 E0.26393
G1 X102.155 Y93.553 E0.30611
G1 X102.58 Y93.456 E0.32641
G1 X103.415 Y93.312 E0.36586
G1 X103.862 Y93.26 E0.38682
G1 X104.745 Y93.208 E0.428
G1 X105.183 Y93.207 E0.4484
G1 X105.999 Y93.248 E0.48644
G1 X106.446 Y93.294 E0.50737
G1 X107.349 Y93.441 E0.54997
G1 X107.783 Y93.538 E0.57068
G1 X108.565 Y93.756 E0.60848
G1 X108.967 Y93.891 E0.62822
G1 X109.802 Y94.226 E0.67012
G1 X109.999 Y94.319 E0.68026
G1 X110.222 Y94.215 E0.69172
G1 X111.067 Y93.88 E0.73404
G1 X111.513 Y93.733 E0.75591
G1 X112.273 Y93.525 E0.7926
G1 X112.685 Y93.434 E0.81225
G1 X113.603 Y93.288 E0.85553
G1 X114.06 Y93.243 E0.87691
G1 X114.913 Y93.206 E0.91667
G1 X115.352 Y93.211 E0.93711
G1 X116.216 Y93.268 E0.97743
G1 X116.663 Y93.323 E0.9984
G1 X117.52 Y93.478 E1.03896
G1 X117.956 Y93.582 E1.05983
G1 X118.785 Y93.829 E1.10011
G1 X119.191 Y93.975 E1.1202
G1 X119.964 Y94.301 E1.15926
G1 X120.371 Y94.499 E1.18034
G1 X121.171 Y94.948 E1.22305
G1 X121.542 Y95.186 E1.24358
G1 X122.2 Y95.658 E1.28129
G1 X122.544 Y95.933 E1.30179
G1 X123.207 Y96.528 E1.34327
G1 X123.522 Y96.845 E1.36408
G1 X124.109 Y97.507 E1.40528
G1 X124.384 Y97.855 E1.42593
G1 X124.86 Y98.529 E1.46436
G1 X125.096 Y98.903 E1.48495
G1 X125.529 Y99.683 E1.52649
G1 X125.72 Y100.08 E1.547
G1 X126.049 Y100.872 E1.58694
G1 X126.2 Y101.301 E1.60812
G1 X126.44 Y102.127 E1.64817
G1 X126.538 Y102.549 E1.66834
G1 X126.688 Y103.414 E1.70922
G1 X126.74 Y103.862 E1.73022
G1 X126.792 Y104.725 E1.77048
G1 X126.794 Y105.16 E1.79073
G1 X126.752 Y106 E1.8299
G1 X126.706 Y106.444 E1.85068
G1 X126.563 Y107.328 E1.89238
G1 X126.465 Y107.77 E1.91346
G1 X126.244 Y108.565 E1.95188
G1 X126.109 Y108.967 E1.97163
G1 X125.774 Y109.802 E2.01352
G1 X125.682 Y109.999 E2.02365
G1 X125.785 Y110.221 E2.03504
G1 X126.116 Y111.055 E2.07682
G1 X126.265 Y111.505 E2.0989
G1 X126.482 Y112.302 E2.13736
G1 X126.573 Y112.721 E2.15733
G1 X126.713 Y113.603 E2.19891
G1 X126.757 Y114.045 E2.21959
G1 X126.795 Y114.906 E2.25972
G1 X126.79 Y115.351 E2.28045
G1 X126.733 Y116.207 E2.32039
G1 X126.679 Y116.65 E2.34117
G1 X126.523 Y117.517 E2.38219
G1 X126.418 Y117.957 E2.40326
G1 X126.174 Y118.778 E2.44314
G1 X126.031 Y119.177 E2.46287
G1 X125.705 Y119.952 E2.50202
G1 X125.504 Y120.366 E2.52345
G1 X125.052 Y121.171 E2.56644
G1 X124.814 Y121.542 E2.58697
G1 X124.34 Y122.203 E2.62484
G1 X124.064 Y122.548 E2.64541
G1 X123.471 Y123.208 E2.68673
G1 X123.155 Y123.522 E2.70747
G1 X122.493 Y124.109 E2.74867
G1 X122.145 Y124.384 E2.76932
G1 X121.468 Y124.863 E2.80794
G1 X121.092 Y125.1 E2.82864
G1 X120.314 Y125.53 E2.87003
G1 X119.919 Y125.72 E2.89044
G1 X119.143 Y126.043 E2.92958
G1 X118.714 Y126.195 E2.95077
G1 X117.845 Y126.447 E2.9929
G1 X117.42 Y126.544 E3.0132
G1 X116.585 Y126.688 E3.05266
G1 X116.138 Y126.74 E3.07361
G1 X115.255 Y126.792 E3.1148
G1 X114.817 Y126.793 E3.13519
G1 X114.001 Y126.752 E3.17324
G1 X113.554 Y126.706 E3.19416
G1 X112.651 Y126.559 E3.23676
G1 X112.217 Y126.462 E3.25747
G1 X111.435 Y126.244 E3.29527
G1 X111.033 Y126.109 E3.31502
G1 X110.197 Y125.774 E3.35695
G1 X110 Y125.682 E3.36708
G1 X109.778 Y125.785 E3.37847
G1 X108.933 Y126.12 E3.4208
G1 X108.487 Y126.267 E3.44267
G1 X107.727 Y126.475 E3.47936
G1 X107.315 Y126.566 E3.499
G1 X106.397 Y126.712 E3.54229
G1 X105.94 Y126.757 E3.56367
G1 X105.087 Y126.794 E3.60343
G1 X104.648 Y126.789 E3.62387
G1 X103.784 Y126.732 E3.66419
G1 X103.337 Y126.677 E3.68516
G1 X102.48 Y126.522 E3.72571
G1 X102.044 Y126.418 E3.74658
G1 X101.215 Y126.171 E3.78686
G1 X100.809 Y126.025 E3.80695
G1 X100.035 Y125.699 E3.84606
G1 X99.626 Y125.5 E3.86724
G1 X98.824 Y125.049 E3.91008
G1 X98.455 Y124.812 E3.9305
G1 X97.795 Y124.338 E3.96834
G1 X97.449 Y124.061 E3.98898
G1 X96.791 Y123.47 E4.03016
G1 X96.476 Y123.153 E4.05097
G1 X95.887 Y122.489 E4.0923
G1 X95.613 Y122.142 E4.11289
G1 X95.131 Y121.459 E4.15182
G1 X94.894 Y121.082 E4.17255
G1 X94.466 Y120.305 E4.21386
G1 X94.276 Y119.909 E4.23431
G1 X93.956 Y119.141 E4.27305
G1 X93.805 Y118.715 E4.2941
G1 X93.553 Y117.845 E4.33627
G1 X93.456 Y117.42 E4.35657
G1 X93.313 Y116.589 E4.39583
G1 X93.261 Y116.144 E4.4167
G1 X93.208 Y115.257 E4.45807
G1 X93.207 Y114.817 E4.47856
G1 X93.248 Y114.001 E4.51661
G1 X93.294 Y113.554 E4.53753
G1 X93.441 Y112.651 E4.58013
G1 X93.538 Y112.217 E4.60084
G1 X93.756 Y111.435 E4.63864
G1 X93.891 Y111.033 E4.65839
G1 X94.226 Y110.198 E4.70028
G1 X94.319 Y110.001 E4.71042
G1 X94.217 Y109.783 E4.72163
G1 X93.879 Y108.931 E4.76431
G1 X93.732 Y108.485 E4.78618
G1 X93.521 Y107.715 E4.82335
G1 X93.431 Y107.305 E4.8429
G1 X93.288 Y106.401 E4.88552
G1 X93.243 Y105.946 E4.90681
G1 X93.205 Y105.09 E4.9467
G1 X93.21 Y104.648 E4.96729
G1 X93.269 Y103.781 E5.00775
G1 X93.324 Y103.335 E5.02868
G1 X93.478 Y102.48 E5.06913
G1 X93.582 Y102.044 E5.09
G1 X93.826 Y101.222 E5.12993
G1 X93.969 Y100.823 E5.14966
G1 X94.295 Y100.048 E5.18881
G1 X94.496 Y99.634 E5.21024
G1 X94.948 Y98.829 E5.25323
G1 X95.186 Y98.458 E5.27376
G1 X95.662 Y97.795 E5.31176
G1 X95.939 Y97.449 E5.3324
G1 X96.53 Y96.791 E5.37358
G0 F6000 X96.812 Y97.075
G1 F1200 X97.127 Y96.762 E5.39426
G1 X97.755 Y96.205 E5.43335
G1 X98.103 Y95.93 E5.454
G1 X98.745 Y95.476 E5.49062
G1 X99.121 Y95.239 E5.51131
G1 X99.865 Y94.827 E5.55091
G1 X100.263 Y94.636 E5.57147
G1 X100.993 Y94.333 E5.60827
G1 X101.419 Y94.182 E5.62932
G1 X102.244 Y93.943 E5.66931
G1 X102.669 Y93.846 E5.68961
G1 X103.461 Y93.71 E5.72703
G1 X103.908 Y93.658 E5.74798
G1 X104.746 Y93.608 E5.78707
G1 X105.184 Y93.607 E5.80747
G1 X105.959 Y93.646 E5.8436
G1 X106.406 Y93.692 E5.86453
G1 X107.262 Y93.831 E5.90491
G1 X107.696 Y93.928 E5.92562
G1 X108.438 Y94.135 E5.96149
G1 X108.84 Y94.27 E5.98123
G1 X109.632 Y94.588 E6.02097
G1 X109.998 Y94.76 E6.0398
G1 X110.39 Y94.577 E6.05995
G1 X111.193 Y94.26 E6.10015
G1 X111.639 Y94.113 E6.12201
G1 X112.359 Y93.915 E6.15678
G1 X112.771 Y93.824 E6.17643
G1 X113.642 Y93.686 E6.21749
G1 X114.099 Y93.641 E6.23888
G1 X114.908 Y93.605 E6.27658
G1 X115.347 Y93.61 E6.29703
G1 X116.167 Y93.665 E6.3353
G1 X116.614 Y93.72 E6.35627
G1 X117.427 Y93.867 E6.39474
G1 X117.863 Y93.971 E6.41561
G1 X118.65 Y94.206 E6.45385
G1 X119.056 Y94.352 E6.47394
G1 X119.789 Y94.661 E6.51098
G1 X120.196 Y94.859 E6.53206
G1 X120.955 Y95.284 E6.57256
G1 X121.326 Y95.522 E6.59309
G1 X121.951 Y95.971 E6.62892
G1 X122.295 Y96.246 E6.64943
G1 X122.923 Y96.81 E6.68873
G1 X123.238 Y97.127 E6.70954
G1 X123.795 Y97.755 E6.74863
G1 X124.07 Y98.103 E6.76928
G1 X124.522 Y98.742 E6.80573
G1 X124.758 Y99.116 E6.82632
G1 X125.168 Y99.857 E6.86576
G1 X125.359 Y100.254 E6.88627
G1 X125.671 Y101.005 E6.92414
G1 X125.822 Y101.434 E6.94532
G1 X126.05 Y102.217 E6.98329
G1 X126.148 Y102.639 E7.00346
G1 X126.291 Y103.46 E7.04227
G1 X126.343 Y103.908 E7.06327
G1 X126.392 Y104.727 E7.10147
G1 X126.394 Y105.162 E7.12173
G1 X126.355 Y105.959 E7.15888
G1 X126.309 Y106.403 E7.17967
G1 X126.173 Y107.242 E7.21925
G1 X126.075 Y107.684 E7.24033
G1 X125.865 Y108.438 E7.27677
G1 X125.73 Y108.84 E7.29652
G1 X125.412 Y109.632 E7.33626
G1 X125.24 Y109.998 E7.35509
G1 X125.422 Y110.389 E7.37517
G1 X125.736 Y111.181 E7.41484
G1 X125.885 Y111.631 E7.43692
G1 X126.091 Y112.386 E7.47336
G1 X126.182 Y112.805 E7.49332
G1 X126.315 Y113.643 E7.53283
G1 X126.359 Y114.085 E7.55352
G1 X126.395 Y114.901 E7.59155
G1 X126.39 Y115.346 E7.61227
G1 X126.336 Y116.158 E7.65016
G1 X126.282 Y116.601 E7.67095
G1 X126.134 Y117.424 E7.70988
G1 X126.029 Y117.864 E7.73095
G1 X125.797 Y118.643 E7.76879
G1 X125.654 Y119.042 E7.78853
G1 X125.345 Y119.777 E7.82566
G1 X125.144 Y120.191 E7.84709
G1 X124.716 Y120.955 E7.88786
G1 X124.478 Y121.326 E7.90839
G1 X124.027 Y121.953 E7.94435
G1 X123.751 Y122.298 E7.96492
G1 X123.189 Y122.924 E8.0041
G1 X122.873 Y123.238 E8.02484
G1 X122.245 Y123.795 E8.06393
G1 X121.897 Y124.07 E8.08458
G1 X121.255 Y124.524 E8.12119
G1 X120.879 Y124.761 E8.14189
G1 X120.141 Y125.17 E8.18118
G1 X119.746 Y125.36 E8.20159
G1 X119.009 Y125.666 E8.23875
G1 X118.58 Y125.818 E8.25994
G1 X117.756 Y126.057 E8.29989
G1 X117.331 Y126.154 E8.32019
G1 X116.539 Y126.29 E8.35761
G1 X116.092 Y126.342 E8.37856
G1 X115.254 Y126.392 E8.41765
G1 X114.816 Y126.393 E8.43805
G1 X114.041 Y126.354 E8.47418
G1 X113.594 Y126.308 E8.4951
G1 X112.738 Y126.169 E8.53549
G1 X112.304 Y126.072 E8.55619
G1 X111.562 Y125.865 E8.59206
G1 X111.16 Y125.73 E8.61181
G1 X110.367 Y125.412 E8.65159
G1 X110.002 Y125.24 E8.67038
G1 X109.61 Y125.423 E8.69053
G1 X108.807 Y125.74 E8.73072
G1 X108.361 Y125.887 E8.75259
G1 X107.641 Y126.085 E8.78736
G1 X107.229 Y126.176 E8.80701
G1 X106.358 Y126.314 E8.84807
G1 X105.901 Y126.359 E8.86945
G1 X105.092 Y126.395 E8.90716
G1 X104.653 Y126.39 E8.92761
G1 X103.833 Y126.335 E8.96587
G1 X103.386 Y126.28 E8.98685
G1 X102.573 Y126.133 E9.02532
G1 X102.137 Y126.029 E9.04619
G1 X101.35 Y125.794 E9.08443
G1 X100.944 Y125.648 E9.10452
G1 X100.21 Y125.339 E9.14161
G1 X99.801 Y125.14 E9.16279
G1 X99.04 Y124.712 E9.20344
G1 X98.671 Y124.475 E9.22386
G1 X98.045 Y124.026 E9.25973
G1 X97.699 Y123.749 E9.28037
G1 X97.075 Y123.188 E9.31944
G1 X96.76 Y122.871 E9.34025
G1 X96.201 Y122.241 E9.37947
G1 X95.927 Y121.894 E9.40006
G1 X95.47 Y121.246 E9.43698
G1 X95.233 Y120.869 E9.45772
G1 X94.826 Y120.132 E9.49692
G1 X94.636 Y119.736 E9.51737
G1 X94.333 Y119.007 E9.55413
G1 X94.182 Y118.581 E9.57518
G1 X93.943 Y117.756 E9.61517
G1 X93.846 Y117.331 E9.63547
G1 X93.71 Y116.543 E9.67271
G1 X93.658 Y116.098 E9.69357
G1 X93.608 Y115.256 E9.73285
G1 X93.607 Y114.816 E9.75333
G1 X93.646 Y114.041 E9.78947
G1 X93.692 Y113.594 E9.81039
G1 X93.831 Y112.738 E9.85077
G1 X93.928 Y112.304 E9.87148
G1 X94.135 Y111.562 E9.90735
G1 X94.27 Y111.16 E9.9271
G1 X94.588 Y110.368 E9.96684
G1 X94.76 Y110.002 E9.98567
G1 X94.579 Y109.615 E10.00556
G1 X94.259 Y108.805 E10.04611
G1 X94.112 Y108.359 E10.06798
G1 X93.912 Y107.63 E10.10318
G1 X93.822 Y107.22 E10.12273
G1 X93.686 Y106.361 E10.16322
G1 X93.641 Y105.906 E10.18451
G1 X93.605 Y105.094 E10.22236
G1 X93.61 Y104.652 E10.24294
G1 X93.666 Y103.83 E10.28131
G1 X93.721 Y103.384 E10.30223
G1 X93.867 Y102.573 E10.3406
G1 X93.971 Y102.137 E10.36147
G1 X94.203 Y101.357 E10.39937
G1 X94.346 Y100.958 E10.4191
G1 X94.655 Y100.223 E10.45623
G1 X94.856 Y99.809 E10.47766
G1 X95.284 Y99.045 E10.51844
G1 X95.522 Y98.674 E10.53896
G1 X95.974 Y98.045 E10.57503
G1 X96.251 Y97.699 E10.59567
G1 X96.812 Y97.075 E10.63474
G0 F6000 X97.094 Y97.359
G1 F1200 X97.409 Y97.046 E10.65542
G1 X98.003 Y96.519 E10.69239
G1 X98.351 Y96.244 E10.71304
G1 X98.958 Y95.814 E10.74768
G1 X99.334 Y95.577 E10.76838
G1 X100.038 Y95.188 E10.80583
G1 X100.436 Y94.997 E10.82639
G1 X101.126 Y94.71 E10.86118
G1 X101.552 Y94.559 E10.88223
G1 X102.333 Y94.332 E10.9201
G1 X102.758 Y94.235 E10.9404
G1 X103.507 Y94.107 E10.97578
G1 X103.954 Y94.055 E10.99674
G1 X104.747 Y94.008 E11.03373
G1 X105.185 Y94.007 E11.05412
G1 X105.918 Y94.044 E11.0883
G1 X106.365 Y94.09 E11.10922
G1 X107.175 Y94.222 E11.14744
G1 X107.609 Y94.319 E11.16814
G1 X108.31 Y94.514 E11.20202
G1 X108.712 Y94.649 E11.22177
G1 X109.462 Y94.95 E11.2594
G1 X109.879 Y95.146 E11.28086
G1 X110 Y95.212 E11.28727
G1 X110.176 Y95.118 E11.29657
G1 X110.559 Y94.94 E11.31623
G1 X111.318 Y94.64 E11.35423
G1 X111.764 Y94.493 E11.3761
G1 X112.445 Y94.306 E11.40898
G1 X112.857 Y94.215 E11.42863
G1 X113.681 Y94.084 E11.46748
G1 X114.138 Y94.039 E11.48887
G1 X114.904 Y94.005 E11.52457
G1 X115.343 Y94.01 E11.54501
G1 X116.118 Y94.062 E11.58118
G1 X116.565 Y94.117 E11.60215
G1 X117.334 Y94.256 E11.63854
G1 X117.77 Y94.36 E11.65941
G1 X118.515 Y94.582 E11.69561
G1 X118.921 Y94.728 E11.7157
G1 X119.614 Y95.02 E11.75072
G1 X120.021 Y95.218 E11.77179
G1 X120.739 Y95.621 E11.81013
G1 X121.11 Y95.859 E11.83065
G1 X121.701 Y96.283 E11.86452
G1 X122.045 Y96.558 E11.88503
G1 X122.639 Y97.092 E11.92222
G1 X122.954 Y97.409 E11.94303
G1 X123.481 Y98.003 E11.98001
G1 X123.756 Y98.351 E12.00066
G1 X124.184 Y98.955 E12.03513
G1 X124.42 Y99.329 E12.05572
G1 X124.808 Y100.03 E12.09303
G1 X124.999 Y100.427 E12.11355
G1 X125.294 Y101.138 E12.14939
G1 X125.445 Y101.567 E12.17057
G1 X125.661 Y102.308 E12.20651
G1 X125.759 Y102.73 E12.22668
G1 X125.893 Y103.506 E12.26335
G1 X125.945 Y103.954 E12.28435
G1 X125.992 Y104.729 E12.3205
G1 X125.994 Y105.164 E12.34076
G1 X125.957 Y105.917 E12.37586
G1 X125.911 Y106.361 E12.39665
G1 X125.782 Y107.155 E12.43411
G1 X125.684 Y107.597 E12.45519
G1 X125.486 Y108.31 E12.48964
G1 X125.351 Y108.712 E12.50939
G1 X125.05 Y109.462 E12.54702
G1 X124.854 Y109.879 E12.56848
G1 X124.788 Y110.001 E12.57493
G1 X124.882 Y110.177 E12.58423
G1 X125.059 Y110.558 E12.60379
G1 X125.356 Y111.307 E12.64131
G1 X125.505 Y111.757 E12.66338
G1 X125.701 Y112.471 E12.69786
G1 X125.792 Y112.89 E12.71782
G1 X125.917 Y113.683 E12.7552
G1 X125.961 Y114.125 E12.77589
G1 X125.995 Y114.897 E12.81187
G1 X125.99 Y115.342 E12.83259
G1 X125.939 Y116.11 E12.86843
G1 X125.885 Y116.553 E12.88921
G1 X125.745 Y117.331 E12.92602
G1 X125.64 Y117.771 E12.94708
G1 X125.421 Y118.508 E12.98288
G1 X125.278 Y118.907 E13.00262
G1 X124.985 Y119.602 E13.03774
G1 X124.784 Y120.016 E13.05917
G1 X124.379 Y120.739 E13.09776
G1 X124.141 Y121.11 E13.11828
G1 X123.715 Y121.703 E13.15228
G1 X123.439 Y122.048 E13.17285
G1 X122.907 Y122.64 E13.20992
G1 X122.591 Y122.954 E13.23066
G1 X121.997 Y123.481 E13.26763
G1 X121.649 Y123.756 E13.28829
G1 X121.042 Y124.186 E13.32293
G1 X120.666 Y124.423 E13.34362
G1 X119.967 Y124.809 E13.3808
G1 X119.572 Y124.999 E13.40121
G1 X118.876 Y125.289 E13.43632
G1 X118.447 Y125.441 E13.45752
G1 X117.667 Y125.668 E13.49534
G1 X117.242 Y125.765 E13.51564
G1 X116.493 Y125.893 E13.55102
G1 X116.046 Y125.945 E13.57198
G1 X115.253 Y125.992 E13.60897
G1 X114.815 Y125.993 E13.62936
G1 X114.082 Y125.956 E13.66354
G1 X113.635 Y125.91 E13.68446
G1 X112.825 Y125.778 E13.72268
G1 X112.391 Y125.681 E13.74338
G1 X111.69 Y125.486 E13.77727
G1 X111.288 Y125.351 E13.79701
G1 X110.538 Y125.05 E13.83464
G1 X110.119 Y124.853 E13.8562
G1 X110 Y124.788 E13.86252
G1 X109.824 Y124.882 E13.87181
G1 X109.441 Y125.06 E13.89147
G1 X108.682 Y125.36 E13.92947
G1 X108.236 Y125.507 E13.95134
G1 X107.555 Y125.694 E13.98423
G1 X107.143 Y125.785 E14.00387
G1 X106.319 Y125.916 E14.04272
G1 X105.862 Y125.961 E14.06411
G1 X105.096 Y125.995 E14.09981
G1 X104.657 Y125.99 E14.12025
G1 X103.882 Y125.938 E14.15642
G1 X103.435 Y125.883 E14.17739
G1 X102.666 Y125.744 E14.21378
G1 X102.23 Y125.64 E14.23465
G1 X101.485 Y125.418 E14.27085
