;FLAVOR:Marlin
;TIME:6539
;Filament used: 5.50317m
;Layer height: 0.28
;MINX:68
;MINY:65.5
;MINZ:0.28
;MAXX:151.52
;MAXY:154.499
;MAXZ:21.84
;Generated with Cura_SteamEngine 4.8.0
M140 S60
M105
M190 S60
M104 S200
M105
M109 S200
M82 ;absolute extrusion mode
; Ender 3 Custom Start G-code
G92 E0 ; Reset Extruder
G28 ; Home all axes
G1 Z2.0 F3000 ; Move Z Axis up little to prevent scratching of Heat Bed
G1 X0.1 Y20 Z0.3 F5000.0 ; Move to start position
G1 X0.1 Y200.0 Z0.3 F1500.0 E15 ; Draw the first line
G1 X0.4 Y200.0 Z0.3 F5000.0 ; Move to side a little
G1 X0.4 Y20 Z0.3 F1500.0 E30 ; Draw the second line
G92 E0 ; Reset Extruder
G1 Z2.0 F3000 ; Move Z Axis up little to prevent scratching of Heat Bed
G1 X5 Y20 Z0.3 F5000.0 ; Move over to prevent blob squish
G92 E0
G92 E0
G1 F1500 E-6.5
;LAYER_COUNT:78
;LAYER:0
M107
G0 F6000 X85.154 Y72.022 Z0.28
;TYPE:SKIRT
G1 F1500 E0
G1 F1200 X85.801 Y71.289 E0.04553
G1 X86.283 Y70.79 E0.07783
G1 X86.512 Y70.56 E0.09294
G1 X86.637 Y70.438 E0.10108
G1 X87.407 Y69.754 E0.14904
G1 X87.881 Y69.371 E0.17741
G1 X88.148 Y69.162 E0.1932
G1 X88.33 Y69.024 E0.20384
G1 X89.129 Y68.471 E0.24908
G1 X89.682 Y68.124 E0.27948
G1 X89.983 Y67.942 E0.29586
G1 X90.156 Y67.841 E0.30519
G1 X91.023 Y67.386 E0.35078
G1 X91.589 Y67.12 E0.3799
G1 X91.924 Y66.969 E0.39701
G1 X92.145 Y66.874 E0.40821
G1 X93.04 Y66.535 E0.45278
G1 X93.567 Y66.361 E0.47862
G1 X93.917 Y66.252 E0.49569
G1 X94.152 Y66.183 E0.50709
G1 X95.07 Y65.955 E0.55114
G1 X95.762 Y65.815 E0.58401
G1 X96.145 Y65.745 E0.60214
G1 X96.308 Y65.718 E0.60984
G1 X97.252 Y65.603 E0.65412
G1 X97.817 Y65.559 E0.68051
G1 X98.174 Y65.537 E0.69716
G1 X98.395 Y65.527 E0.70746
G1 X98.706 Y65.518 E0.72195
G1 X99.84 Y65.5 E0.77476
G1 X101.741 Y65.5 E0.86328
G1 X102.605 Y65.511 E0.90351
G1 X105.627 Y65.505 E1.04423
G1 X106 Y65.5 E1.0616
G1 X139.853 Y65.501 E2.63794
G1 X140.554 Y65.511 E2.67058
G1 X141.49 Y65.564 E2.71424
G1 X142.419 Y65.697 E2.75794
G1 X143.332 Y65.909 E2.80158
G1 X144.225 Y66.197 E2.84527
G1 X145.089 Y66.561 E2.88893
G1 X145.92 Y66.997 E2.93263
G1 X146.71 Y67.502 E2.97628
G1 X147.454 Y68.072 E3.01993
G1 X148.141 Y68.697 E3.06317
G1 X148.254 Y68.809 E3.07058
G1 X148.891 Y69.497 E3.11424
G1 X149.467 Y70.237 E3.15791
G1 X149.979 Y71.023 E3.20159
G1 X150.421 Y71.85 E3.24525
G1 X150.792 Y72.712 E3.28895
G1 X151.087 Y73.602 E3.33261
G1 X151.306 Y74.514 E3.37628
G1 X151.446 Y75.441 E3.41994
G1 X151.502 Y76.212 E3.45593
G1 X151.514 Y76.614 E3.47466
G1 X151.52 Y77.146 E3.49943
G1 X151.518 Y82.335 E3.74105
G1 X151.508 Y83.03 E3.77342
G1 X151.454 Y83.967 E3.81712
G1 X151.321 Y84.895 E3.86078
G1 X151.11 Y85.809 E3.90445
G1 X150.821 Y86.701 E3.94812
G1 X150.457 Y87.566 E3.99181
G1 X150.021 Y88.396 E4.03547
G1 X149.516 Y89.186 E4.07913
G1 X148.946 Y89.93 E4.12277
G1 X148.256 Y90.681 E4.17026
G1 X148.13 Y90.806 E4.17852
G1 X147.437 Y91.438 E4.2222
G1 X146.853 Y91.893 E4.25667
G1 X146.468 Y92.173 E4.27884
G1 X144.43 Y93.701 E4.39745
G1 X142.472 Y95.26 E4.51399
G1 X140.533 Y96.894 E4.63206
G1 X138.656 Y98.568 E4.74917
G1 X136.815 Y100.306 E4.86706
G1 X135.043 Y102.077 E4.98372
G1 X133.311 Y103.908 E5.10108
G1 X131.653 Y105.765 E5.217
G1 X130.016 Y107.706 E5.33523
G1 X128.44 Y109.684 E5.453
G1 X126.936 Y111.685 E5.56956
G1 X125.495 Y113.722 E5.68574
G1 X124.079 Y115.845 E5.80457
G1 X122.741 Y117.983 E5.92201
G1 X121.478 Y120.133 E6.03812
G1 X120.253 Y122.358 E6.15639
G1 X119.111 Y124.583 E6.27284
G1 X118.024 Y126.853 E6.39004
G1 X117 Y129.161 E6.50761
G1 X116.043 Y131.487 E6.62473
G1 X115.138 Y133.878 E6.74377
G1 X114.342 Y136.184 E6.85737
G1 X113.573 Y138.624 E6.97649
G1 X112.889 Y141.04 E7.09341
G1 X112.26 Y143.513 E7.21223
G1 X111.812 Y145.493 E7.30676
G1 X111.736 Y145.841 E7.32335
G1 X111.496 Y146.748 E7.36703
G1 X111.181 Y147.631 E7.41069
G1 X110.791 Y148.484 E7.45436
G1 X110.33 Y149.301 E7.49804
G1 X109.801 Y150.076 E7.54174
G1 X109.208 Y150.802 E7.58538
G1 X108.555 Y151.476 E7.62908
G1 X107.847 Y152.091 E7.67275
G1 X107.09 Y152.644 E7.7164
G1 X106.288 Y153.13 E7.76007
G1 X105.447 Y153.546 E7.80376
G1 X104.575 Y153.89 E7.84741
G1 X103.676 Y154.157 E7.89108
G1 X102.757 Y154.347 E7.93477
G1 X101.826 Y154.458 E7.97843
G1 X101.345 Y154.484 E8.00086
G1 X101.066 Y154.493 E8.01386
G1 X100.711 Y154.499 E8.03039
G1 X99.51 Y154.498 E8.08632
G1 X98.972 Y154.491 E8.11137
G1 X98.618 Y154.481 E8.12786
G1 X97.999 Y154.453 E8.15671
G1 X97.67 Y154.433 E8.17206
G1 X97.378 Y154.411 E8.1857
G1 X96.423 Y154.297 E8.23048
G1 X95.844 Y154.202 E8.2578
G1 X95.468 Y154.133 E8.2756
G1 X95.278 Y154.095 E8.28463
G1 X94.35 Y153.868 E8.32911
G1 X93.638 Y153.66 E8.36365
G1 X93.342 Y153.569 E8.37807
G1 X93.181 Y153.517 E8.38595
G1 X92.222 Y153.157 E8.43365
G1 X91.705 Y152.935 E8.45985
G1 X91.403 Y152.8 E8.47525
G1 X91.186 Y152.699 E8.48639
G1 X90.298 Y152.235 E8.53305
G1 X89.703 Y151.889 E8.5651
G1 X89.403 Y151.708 E8.58141
G1 X89.243 Y151.608 E8.5902
G1 X88.449 Y151.062 E8.63507
G1 X87.973 Y150.703 E8.66283
G1 X87.676 Y150.471 E8.68038
G1 X87.508 Y150.335 E8.69044
G1 X86.787 Y149.697 E8.73527
G1 X86.29 Y149.217 E8.76745
G1 X86.031 Y148.959 E8.78447
G1 X85.907 Y148.831 E8.79277
G1 X85.256 Y148.095 E8.83852
G1 X84.875 Y147.624 E8.86673
G1 X84.662 Y147.352 E8.88282
G1 X84.524 Y147.17 E8.89345
G1 X83.976 Y146.378 E8.9383
G1 X82.934 Y144.72 E9.02948
G1 X82.133 Y143.431 E9.10015
G1 X80.764 Y141.363 E9.21563
G1 X79.299 Y139.28 E9.33421
G1 X77.798 Y137.27 E9.45102
G1 X76.246 Y135.309 E9.56747
G1 X74.613 Y133.363 E9.68576
G1 X72.942 Y131.48 E9.80299
G1 X71.084 Y129.51 E9.92908
G1 X70.47 Y128.801 E9.97276
G1 X69.919 Y128.042 E10.01643
G1 X69.434 Y127.239 E10.06011
G1 X69.02 Y126.398 E10.10376
G1 X68.706 Y125.602 E10.14361
G1 X68.624 Y125.368 E10.15515
G1 X68.352 Y124.47 E10.19884
G1 X68.157 Y123.553 E10.2425
G1 X68.041 Y122.622 E10.28618
G1 X68.006 Y121.864 E10.32152
G1 X68 Y121.321 E10.3468
G1 X68.001 Y115.168 E10.63331
G1 X68.011 Y114.464 E10.6661
G1 X68.064 Y113.527 E10.7098
G1 X68.197 Y112.599 E10.75345
G1 X68.409 Y111.685 E10.79714
G1 X68.697 Y110.793 E10.84078
G1 X69.061 Y109.928 E10.88448
G1 X69.643 Y108.853 E10.94141
G1 X70.058 Y108.18 E10.97822
G1 X71.382 Y105.959 E11.09862
G1 X72.613 Y103.752 E11.2163
G1 X73.772 Y101.532 E11.33291
G1 X74.882 Y99.25 E11.45107
G1 X75.915 Y96.964 E11.56788
G1 X76.889 Y94.636 E11.68539
G1 X77.793 Y92.288 E11.80254
G1 X78.634 Y89.906 E11.92017
G1 X79.4 Y87.523 E12.03672
G1 X80.103 Y85.107 E12.15389
G1 X80.737 Y82.674 E12.27096
G1 X81.308 Y80.196 E12.38937
G1 X81.386 Y79.826 E12.40698
G1 X81.451 Y79.541 E12.42059
G1 X81.617 Y78.905 E12.4512
G1 X81.84 Y78.141 E12.48826
G1 X81.925 Y77.863 E12.50179
G1 X81.976 Y77.704 E12.50957
G1 X82.343 Y76.721 E12.55843
G1 X82.566 Y76.202 E12.58473
G1 X82.699 Y75.906 E12.59984
G1 X82.799 Y75.691 E12.61088
G1 X83.263 Y74.802 E12.65758
G1 X83.61 Y74.205 E12.68973
G1 X83.792 Y73.903 E12.70615
G1 X83.892 Y73.743 E12.71493
G1 X84.438 Y72.949 E12.7598
G1 X84.797 Y72.473 E12.78757
G1 X85.02 Y72.188 E12.80442
G1 X85.154 Y72.022 E12.81435
G0 F6000 X85.465 Y72.273
G1 F1200 X86.089 Y71.567 E12.85822
G1 X86.571 Y71.068 E12.89053
G1 X86.791 Y70.846 E12.90508
G1 X86.916 Y70.724 E12.91322
G1 X87.658 Y70.065 E12.95943
G1 X88.132 Y69.682 E12.9878
G1 X88.39 Y69.481 E13.00303
G1 X88.572 Y69.343 E13.01367
G1 X89.342 Y68.81 E13.05727
G1 X89.895 Y68.463 E13.08767
G1 X90.185 Y68.288 E13.10344
G1 X90.358 Y68.187 E13.11277
G1 X91.193 Y67.748 E13.1567
G1 X91.759 Y67.482 E13.18582
G1 X92.082 Y67.337 E13.20231
G1 X92.303 Y67.242 E13.21351
G1 X93.166 Y66.914 E13.2565
G1 X93.693 Y66.74 E13.28234
G1 X94.03 Y66.635 E13.29878
G1 X94.265 Y66.566 E13.31018
G1 X95.149 Y66.347 E13.35259
G1 X95.841 Y66.207 E13.38546
G1 X96.211 Y66.139 E13.40298
G1 X96.374 Y66.112 E13.41067
G1 X97.283 Y66.002 E13.45331
G1 X97.848 Y65.958 E13.4797
G1 X98.192 Y65.937 E13.49575
G1 X98.413 Y65.927 E13.50605
G1 X98.713 Y65.918 E13.52002
G1 X99.84 Y65.9 E13.57251
G1 X101.741 Y65.9 E13.66103
G1 X102.599 Y65.911 E13.70098
G1 X105.636 Y65.905 E13.8424
G1 X106 Y65.9 E13.85935
G1 X139.847 Y65.901 E15.43541
G1 X140.548 Y65.911 E15.46805
G1 X141.467 Y65.964 E15.51091
G1 X142.378 Y66.097 E15.55378
G1 X143.274 Y66.308 E15.59665
G1 X144.149 Y66.596 E15.63954
G1 X144.995 Y66.959 E15.68241
G1 X145.806 Y67.394 E15.72526
G1 X146.577 Y67.898 E15.76815
G1 X147.301 Y68.467 E15.81103
G1 X147.859 Y68.981 E15.84635
G1 X147.972 Y69.093 E15.85376
G1 X148.597 Y69.769 E15.89663
G1 X149.161 Y70.497 E15.93951
G1 X149.66 Y71.271 E15.9824
G1 X150.09 Y72.085 E16.02526
G1 X150.447 Y72.933 E16.06811
G1 X150.73 Y73.809 E16.11097
G1 X150.936 Y74.707 E16.15387
G1 X151.062 Y75.619 E16.19674
G1 X151.103 Y76.227 E16.22512
G1 X151.114 Y76.619 E16.24338
G1 X151.12 Y77.146 E16.26792
G1 X151.118 Y82.33 E16.50931
G1 X151.108 Y83.025 E16.54167
G1 X151.055 Y83.944 E16.58454
G1 X150.922 Y84.855 E16.62741
G1 X150.711 Y85.751 E16.67027
G1 X150.422 Y86.625 E16.71313
G1 X150.059 Y87.471 E16.756
G1 X149.624 Y88.282 E16.79885
G1 X149.12 Y89.053 E16.84174
G1 X148.552 Y89.777 E16.88459
G1 X147.974 Y90.397 E16.92406
G1 X147.848 Y90.522 E16.93233
G1 X147.167 Y91.142 E16.97521
G1 X146.618 Y91.57 E17.00762
G1 X146.2 Y91.874 E17.03169
G1 X144.187 Y93.384 E17.14887
G1 X142.237 Y94.935 E17.26489
G1 X140.275 Y96.588 E17.38435
G1 X138.379 Y98.279 E17.50264
G1 X136.523 Y100.032 E17.62152
G1 X134.752 Y101.802 E17.73811
G1 X133.039 Y103.613 E17.85419
G1 X131.332 Y105.525 E17.97354
G1 X129.698 Y107.461 E18.0915
G1 X128.136 Y109.423 E18.20828
G1 X126.617 Y111.445 E18.32604
G1 X125.151 Y113.515 E18.44415
G1 X123.75 Y115.617 E18.56178
G1 X122.4 Y117.774 E18.68027
G1 X121.125 Y119.945 E18.7975
G1 X119.897 Y122.176 E18.91608
G1 X118.752 Y124.406 E19.03281
G1 X117.662 Y126.683 E19.15036
G1 X116.635 Y128.996 E19.2682
G1 X115.672 Y131.338 E19.38611
G1 X114.762 Y133.742 E19.5058
G1 X113.958 Y136.071 E19.62053
G1 X113.193 Y138.501 E19.73916
G1 X112.499 Y140.947 E19.85755
G1 X111.877 Y143.396 E19.97521
G1 X111.422 Y145.405 E20.07112
G1 X111.345 Y145.756 E20.08786
G1 X111.109 Y146.646 E20.13073
G1 X110.797 Y147.512 E20.17359
G1 X110.411 Y148.348 E20.21647
G1 X109.954 Y149.147 E20.25933
G1 X109.43 Y149.904 E20.3022
G1 X108.841 Y150.612 E20.34508
G1 X108.194 Y151.266 E20.38792
G1 X107.492 Y151.862 E20.4308
G1 X106.741 Y152.394 E20.47366
G1 X105.946 Y152.86 E20.51657
G1 X105.115 Y153.255 E20.55941
G1 X104.252 Y153.576 E20.60228
G1 X103.364 Y153.821 E20.64518
G1 X102.459 Y153.988 E20.68803
G1 X101.332 Y154.084 E20.7407
G1 X101.053 Y154.093 E20.7537
G1 X100.711 Y154.099 E20.76962
G1 X99.515 Y154.098 E20.82531
G1 X98.977 Y154.091 E20.85037
G1 X98.636 Y154.081 E20.86625
G1 X98.017 Y154.053 E20.89511
G1 X97.7 Y154.034 E20.90989
G1 X97.408 Y154.012 E20.92353
G1 X96.488 Y153.902 E20.96667
G1 X95.909 Y153.807 E20.99399
G1 X95.546 Y153.741 E21.01117
G1 X95.356 Y153.703 E21.0202
G1 X94.463 Y153.484 E21.06301
G1 X93.751 Y153.276 E21.09755
G1 X93.465 Y153.188 E21.11148
G1 X93.304 Y153.136 E21.11936
G1 X92.38 Y152.789 E21.16532
G1 X91.863 Y152.567 E21.19152
G1 X91.572 Y152.437 E21.20636
G1 X91.355 Y152.336 E21.21751
G1 X90.499 Y151.889 E21.26247
G1 X89.904 Y151.543 E21.29452
G1 X89.615 Y151.369 E21.31023
G1 X89.455 Y151.269 E21.31901
G1 X88.69 Y150.743 E21.36224
G1 X88.214 Y150.384 E21.39001
G1 X87.927 Y150.16 E21.40696
G1 X87.759 Y150.024 E21.41702
G1 X87.065 Y149.41 E21.46017
G1 X86.568 Y148.93 E21.49234
G1 X86.319 Y148.68 E21.50877
G1 X86.195 Y148.552 E21.51707
G1 X85.567 Y147.843 E21.56118
G1 X85.186 Y147.372 E21.58938
G1 X84.981 Y147.11 E21.60487
G1 X84.843 Y146.928 E21.61551
G1 X84.315 Y146.165 E21.65872
G1 X83.274 Y144.509 E21.7498
G1 X82.489 Y143.246 E21.81904
G1 X81.081 Y141.119 E21.93782
G1 X79.614 Y139.034 E22.05653
G1 X78.134 Y137.051 E22.17175
G1 X76.533 Y135.028 E22.29187
G1 X74.918 Y133.104 E22.40884
G1 X73.25 Y131.225 E22.52584
G1 X71.375 Y129.236 E22.65312
G1 X70.773 Y128.539 E22.696
G1 X70.234 Y127.793 E22.73886
G1 X69.761 Y127.003 E22.78173
G1 X69.359 Y126.175 E22.82459
G1 X69.083 Y125.47 E22.85985
G1 X69.001 Y125.236 E22.87139
G1 X68.735 Y124.354 E22.91429
G1 X68.546 Y123.453 E22.95716
G1 X68.436 Y122.539 E23.00002
G1 X68.406 Y121.86 E23.03167
G1 X68.4 Y121.321 E23.05677
G1 X68.401 Y115.173 E23.34305
G1 X68.411 Y114.469 E23.37583
G1 X68.464 Y113.55 E23.41869
G1 X68.597 Y112.639 E23.46156
G1 X68.808 Y111.743 E23.50443
G1 X69.096 Y110.869 E23.54728
G1 X69.459 Y110.023 E23.59014
G1 X69.984 Y109.063 E23.64109
G1 X70.399 Y108.389 E23.67795
G1 X71.717 Y106.179 E23.79777
G1 X72.974 Y103.925 E23.91794
G1 X74.129 Y101.714 E24.03409
G1 X75.249 Y99.411 E24.15334
G1 X76.272 Y97.147 E24.26903
G1 X77.26 Y94.786 E24.3882
G1 X78.179 Y92.398 E24.50735
G1 X79.006 Y90.057 E24.62295
G1 X79.779 Y87.651 E24.74063
G1 X80.491 Y85.205 E24.85925
G1 X81.128 Y82.759 E24.97695
G1 X81.698 Y80.287 E25.09507
G1 X81.776 Y79.915 E25.11277
G1 X81.841 Y79.63 E25.12638
G1 X82.001 Y79.017 E25.15588
G1 X82.224 Y78.253 E25.19294
G1 X82.357 Y77.826 E25.21377
G1 X82.711 Y76.879 E25.26084
G1 X82.934 Y76.36 E25.28715
G1 X83.062 Y76.075 E25.3017
G1 X83.162 Y75.86 E25.31274
G1 X83.609 Y75.003 E25.35774
G1 X83.956 Y74.406 E25.3899
G1 X84.131 Y74.115 E25.40571
G1 X84.231 Y73.955 E25.4145
G1 X84.757 Y73.19 E25.45773
G1 X85.116 Y72.714 E25.48549
G1 X85.331 Y72.439 E25.50174
G1 X85.465 Y72.273 E25.51167
G0 F6000 X85.776 Y72.524
G1 F1200 X86.377 Y71.845 E25.5539
G1 X86.859 Y71.346 E25.5862
G1 X87.071 Y71.132 E25.60023
G1 X87.196 Y71.01 E25.60836
G1 X87.909 Y70.376 E25.65279
G1 X88.383 Y69.993 E25.68117
G1 X88.631 Y69.799 E25.69583
G1 X88.813 Y69.661 E25.70646
G1 X89.555 Y69.149 E25.74844
G1 X90.108 Y68.802 E25.77884
G1 X90.386 Y68.633 E25.79399
G1 X90.559 Y68.532 E25.80332
G1 X91.364 Y68.11 E25.84564
G1 X91.93 Y67.844 E25.87476
G1 X92.24 Y67.704 E25.8906
G1 X92.461 Y67.609 E25.9018
G1 X93.291 Y67.294 E25.94314
G1 X93.818 Y67.12 E25.96898
G1 X94.142 Y67.019 E25.98478
G1 X94.377 Y66.95 E25.99619
G1 X95.228 Y66.74 E26.037
G1 X95.92 Y66.6 E26.06988
G1 X96.276 Y66.534 E26.08674
G1 X96.439 Y66.507 E26.09443
G1 X97.314 Y66.401 E26.13547
G1 X97.879 Y66.357 E26.16186
G1 X98.21 Y66.336 E26.1773
G1 X98.431 Y66.326 E26.18761
G1 X98.72 Y66.317 E26.20107
G1 X99.668 Y66.301 E26.24522
G1 X101.741 Y66.3 E26.34175
G1 X102.595 Y66.311 E26.38152
G1 X105.643 Y66.305 E26.52344
G1 X106 Y66.3 E26.54007
G1 X139.841 Y66.301 E28.11585
G1 X140.542 Y66.311 E28.14849
G1 X141.444 Y66.364 E28.19057
G1 X142.337 Y66.496 E28.2326
G1 X143.216 Y66.707 E28.27469
G1 X144.072 Y66.995 E28.31675
G1 X144.899 Y67.357 E28.35878
G1 X145.691 Y67.791 E28.40084
G1 X146.441 Y68.294 E28.44289
G1 X147.144 Y68.861 E28.48494
G1 X147.577 Y69.266 E28.51255
G1 X147.69 Y69.378 E28.51996
G1 X148.303 Y70.041 E28.562
G1 X148.855 Y70.756 E28.60406
G1 X149.341 Y71.517 E28.64611
G1 X149.758 Y72.318 E28.68816
G1 X150.102 Y73.153 E28.73021
G1 X150.371 Y74.015 E28.77226
G1 X150.563 Y74.898 E28.81433
G1 X150.703 Y76.242 E28.87725
G1 X150.714 Y76.625 E28.8951
G1 X150.72 Y77.146 E28.91936
G1 X150.718 Y82.324 E29.16047
G1 X150.708 Y83.019 E29.19283
G1 X150.655 Y83.92 E29.23486
G1 X150.522 Y84.814 E29.27694
G1 X150.312 Y85.692 E29.31898
G1 X150.024 Y86.548 E29.36104
G1 X149.661 Y87.375 E29.40309
G1 X149.227 Y88.167 E29.44514
G1 X148.725 Y88.917 E29.48717
G1 X148.158 Y89.62 E29.52922
G1 X147.693 Y90.113 E29.56078
G1 X147.567 Y90.238 E29.56904
G1 X146.898 Y90.845 E29.61111
G1 X146.382 Y91.246 E29.64154
G1 X146.008 Y91.518 E29.66307
G1 X143.943 Y93.066 E29.78324
G1 X141.967 Y94.639 E29.90085
G1 X139.996 Y96.3 E30.02087
G1 X138.121 Y97.973 E30.13788
G1 X136.266 Y99.724 E30.25666
G1 X134.479 Y101.51 E30.3743
