;FLAVOR:Marlin
;TIME:4731
;Filament used: 4.7651m
;Layer height: 0.28
;MINX:67.33
;MINY:80.036
;MINZ:0.28
;MAXX:153.205
;MAXY:140.258
;MAXZ:14.84
;Generated with Cura_SteamEngine 4.8.0
M140 S60
M105
M190 S60
M104 S200
M105
M109 S200
M82 ;absolute extrusion mode
; Ender 3 Custom Start G-code
G92 E0 ; Reset Extruder
G28 ; Home all axes
G1 Z2.0 F3000 ; Move Z Axis up little to prevent scratching of Heat Bed
G1 X0.1 Y20 Z0.3 F5000.0 ; Move to start position
G1 X0.1 Y200.0 Z0.3 F1500.0 E15 ; Draw the first line
G1 X0.4 Y200.0 Z0.3 F5000.0 ; Move to side a little
G1 X0.4 Y20 Z0.3 F1500.0 E30 ; Draw the second line
G92 E0 ; Reset Extruder
G1 Z2.0 F3000 ; Move Z Axis up little to prevent scratching of Heat Bed
G1 X5 Y20 Z0.3 F5000.0 ; Move over to prevent blob squish
G92 E0
G92 E0
G1 F1500 E-6.5
;LAYER_COUNT:53
;LAYER:0
M107
G0 F6000 X91.673 Y87.696 Z0.28
;TYPE:SKIRT
G1 F1500 E0
G1 F1200 X92.578 Y86.811 E0.05894
G1 X92.989 Y86.437 E0.08482
G1 X93.978 Y85.599 E0.14518
G1 X94.442 Y85.235 E0.17264
G1 X95.489 Y84.476 E0.23285
G1 X95.966 Y84.156 E0.2596
G1 X97.071 Y83.473 E0.32009
G1 X97.576 Y83.187 E0.34711
G1 X98.698 Y82.604 E0.40599
G1 X99.206 Y82.362 E0.43219
G1 X100.41 Y81.843 E0.49324
G1 X100.951 Y81.633 E0.52026
G1 X102.135 Y81.224 E0.57859
G1 X102.697 Y81.054 E0.60593
G1 X103.974 Y80.718 E0.66742
G1 X104.526 Y80.594 E0.69376
G1 X105.783 Y80.359 E0.75331
G1 X106.347 Y80.275 E0.77986
G1 X107.596 Y80.135 E0.83838
G1 X108.174 Y80.091 E0.86537
G1 X109.515 Y80.041 E0.92786
G1 X109.806 Y80.036 E0.94141
G1 X145.288 Y80.037 E2.5936
G1 X146.077 Y80.077 E2.63039
G1 X146.857 Y80.197 E2.66714
G1 X147.622 Y80.394 E2.70392
G1 X148.363 Y80.669 E2.74072
G1 X149.072 Y81.016 E2.77748
G1 X149.742 Y81.434 E2.81425
G1 X150.367 Y81.917 E2.85103
G1 X150.803 Y82.322 E2.87874
G1 X150.92 Y82.439 E2.88645
G1 X151.45 Y83.025 E2.92324
G1 X151.917 Y83.661 E2.95998
G1 X152.318 Y84.341 E2.99674
G1 X152.648 Y85.059 E3.03353
G1 X152.903 Y85.806 E3.07029
G1 X153.082 Y86.575 E3.10705
G1 X153.182 Y87.359 E3.14386
G1 X153.205 Y87.954 E3.17158
G1 X153.205 Y88.595 E3.20143
G1 X153.185 Y88.992 E3.21994
G1 X153.205 Y89.512 E3.24417
G1 X153.205 Y100.852 E3.77221
G1 X153.184 Y101.262 E3.79132
G1 X153.195 Y101.366 E3.79619
G1 X153.195 Y102.156 E3.83298
G1 X153.116 Y102.941 E3.86972
G1 X152.958 Y103.715 E3.9065
G1 X152.723 Y104.469 E3.94328
G1 X152.412 Y105.195 E3.98005
G1 X152.179 Y105.634 E4.0032
G1 X152.062 Y105.839 E4.01419
G1 X151.637 Y106.504 E4.05094
G1 X151.146 Y107.123 E4.08772
G1 X150.595 Y107.689 E4.12451
G1 X149.99 Y108.196 E4.16126
G1 X149.337 Y108.64 E4.19803
G1 X148.642 Y109.015 E4.2348
G1 X147.913 Y109.318 E4.27156
G1 X147.156 Y109.546 E4.30838
G1 X146.381 Y109.696 E4.34513
G1 X145.288 Y109.773 E4.39616
G1 X124.679 Y109.773 E5.3558
G1 X123.918 Y109.799 E5.39125
G1 X123.258 Y109.866 E5.42214
G1 X122.684 Y109.962 E5.44924
G1 X122.019 Y110.121 E5.48108
G1 X121.45 Y110.297 E5.50881
G1 X120.798 Y110.549 E5.54136
G1 X120.269 Y110.794 E5.56851
G1 X119.718 Y111.1 E5.59786
G1 X119.154 Y111.46 E5.62901
G1 X118.647 Y111.834 E5.65835
G1 X117.866 Y112.494 E5.70596
G1 X117.128 Y113.099 E5.7504
G1 X116.504 Y113.561 E5.78655
G1 X115.67 Y114.116 E5.8332
G1 X114.972 Y114.53 E5.87099
G1 X114.114 Y114.98 E5.9161
G1 X113.427 Y115.299 E5.95137
G1 X112.526 Y115.665 E5.99665
G1 X111.747 Y115.934 E6.03503
G1 X111.191 Y116.094 E6.06197
G1 X110.758 Y116.221 E6.08298
G1 X109.809 Y116.484 E6.12884
G1 X109.166 Y116.714 E6.16063
G1 X108.566 Y116.979 E6.19118
G1 X107.906 Y117.331 E6.22601
G1 X107.348 Y117.681 E6.25668
G1 X106.784 Y118.094 E6.28923
G1 X106.267 Y118.535 E6.32087
G1 X105.774 Y119.021 E6.35311
G1 X105.326 Y119.533 E6.38478
G1 X104.817 Y120.208 E6.42415
G1 X93.098 Y136.941 E7.37539
G1 X92.613 Y137.565 E7.41219
G1 X92.067 Y138.135 E7.44895
G1 X91.467 Y138.648 E7.4857
G1 X90.817 Y139.097 E7.52249
G1 X90.126 Y139.479 E7.55926
G1 X89.399 Y139.788 E7.59604
G1 X88.645 Y140.023 E7.63281
G1 X87.871 Y140.18 E7.66959
G1 X87.085 Y140.258 E7.70637
G1 X86.021 Y140.237 E7.75592
G1 X85.784 Y140.216 E7.767
G1 X85.001 Y140.106 E7.80382
G1 X84.235 Y139.918 E7.84055
G1 X83.49 Y139.654 E7.87735
G1 X82.777 Y139.315 E7.91411
G1 X82.101 Y138.906 E7.9509
G1 X81.672 Y138.583 E7.97591
G1 X81.247 Y138.309 E7.99945
G1 X71.96 Y131.806 E8.52737
G1 X71.639 Y131.556 E8.54632
G1 X71.542 Y131.502 E8.55149
G1 X71.209 Y131.282 E8.57007
G1 X70.686 Y130.916 E8.59979
G1 X70.063 Y130.431 E8.63656
G1 X69.492 Y129.885 E8.67335
G1 X68.979 Y129.285 E8.7101
G1 X68.529 Y128.636 E8.74688
G1 X68.147 Y127.944 E8.78368
G1 X67.838 Y127.218 E8.82042
G1 X67.603 Y126.464 E8.8572
G1 X67.482 Y125.912 E8.88351
G1 X67.452 Y125.746 E8.89137
G1 X67.351 Y124.963 E8.92813
G1 X67.33 Y124.174 E8.96488
G1 X67.389 Y123.386 E9.00168
G1 X67.527 Y122.609 E9.03842
G1 X67.743 Y121.849 E9.07521
G1 X68.035 Y121.115 E9.112
G1 X68.399 Y120.414 E9.14878
G1 X68.739 Y119.885 E9.17806
G1 X89.113 Y90.791 E10.83195
G1 X89.276 Y90.567 E10.84485
G1 X90.048 Y89.544 E10.90452
G1 X90.43 Y89.076 E10.93265
G1 X90.811 Y88.645 E10.95944
G1 X91.257 Y88.135 E10.99099
G1 X91.673 Y87.696 E11.01915
G0 F6000 X91.952 Y87.982
G1 F1200 X92.857 Y87.097 E11.07809
G1 X93.247 Y86.742 E11.10265
G1 X94.236 Y85.904 E11.16301
G1 X94.677 Y85.559 E11.18908
G1 X95.724 Y84.8 E11.24929
G1 X96.176 Y84.496 E11.27466
G1 X97.281 Y83.813 E11.33515
G1 X97.76 Y83.542 E11.36077
G1 X98.882 Y82.959 E11.41965
G1 X99.365 Y82.729 E11.44456
G1 X100.569 Y82.21 E11.50561
G1 X101.082 Y82.012 E11.53122
G1 X102.266 Y81.603 E11.58955
G1 X102.799 Y81.441 E11.61548
G1 X104.076 Y81.105 E11.67697
G1 X104.599 Y80.987 E11.70194
G1 X105.856 Y80.752 E11.76148
G1 X106.392 Y80.672 E11.78672
G1 X107.641 Y80.532 E11.84524
G1 X108.189 Y80.491 E11.87083
G1 X109.53 Y80.441 E11.93331
G1 X109.806 Y80.436 E11.94617
G1 X145.288 Y80.437 E13.59836
G1 X146.056 Y80.477 E13.63417
G1 X146.816 Y80.597 E13.67
G1 X147.559 Y80.794 E13.70579
G1 X148.278 Y81.068 E13.74162
G1 X148.965 Y81.415 E13.77745
G1 X149.611 Y81.831 E13.81323
G1 X150.211 Y82.313 E13.84907
G1 X150.521 Y82.604 E13.86887
G1 X150.638 Y82.721 E13.87657
G1 X151.152 Y83.293 E13.91238
G1 X151.605 Y83.915 E13.94821
G1 X151.991 Y84.58 E13.98401
G1 X152.306 Y85.282 E14.01984
G1 X152.546 Y86.013 E14.05567
G1 X152.709 Y86.764 E14.09145
G1 X152.793 Y87.529 E14.12729
G1 X152.805 Y87.954 E14.14709
G1 X152.805 Y88.595 E14.17693
G1 X152.784 Y89.003 E14.19596
G1 X152.793 Y89.087 E14.19989
G1 X152.805 Y89.512 E14.21969
G1 X152.805 Y100.852 E14.74773
G1 X152.781 Y101.311 E14.76913
G1 X152.805 Y101.686 E14.78663
G1 X152.773 Y102.455 E14.82246
G1 X152.662 Y103.216 E14.85828
G1 X152.472 Y103.961 E14.89408
G1 X152.207 Y104.683 E14.92989
G1 X151.832 Y105.436 E14.96906
G1 X151.715 Y105.641 E14.98005
G1 X151.299 Y106.288 E15.01587
G1 X150.819 Y106.889 E15.05168
G1 X150.279 Y107.437 E15.08751
G1 X149.685 Y107.925 E15.1233
G1 X149.043 Y108.349 E15.15913
G1 X148.361 Y108.705 E15.19495
G1 X147.646 Y108.987 E15.23074
G1 X146.905 Y109.194 E15.26656
G1 X146.147 Y109.323 E15.30237
G1 X145.288 Y109.373 E15.34243
G1 X124.694 Y109.373 E16.30138
G1 X123.88 Y109.401 E16.3393
G1 X123.21 Y109.469 E16.37066
G1 X122.6 Y109.571 E16.39946
G1 X121.916 Y109.734 E16.4322
G1 X121.313 Y109.921 E16.4616
G1 X120.645 Y110.18 E16.49496
G1 X120.078 Y110.442 E16.52404
G1 X119.526 Y110.749 E16.55346
G1 X118.927 Y111.131 E16.58654
G1 X118.403 Y111.517 E16.61684
G1 X117.612 Y112.185 E16.66505
G1 X116.874 Y112.79 E16.70949
G1 X116.283 Y113.228 E16.74374
G1 X115.449 Y113.783 E16.79039
G1 X114.786 Y114.175 E16.82625
G1 X113.928 Y114.625 E16.87137
G1 X113.276 Y114.928 E16.90484
G1 X112.375 Y115.294 E16.95013
G1 X111.636 Y115.549 E16.98653
G1 X111.135 Y115.694 E17.01082
G1 X110.777 Y115.8 E17.0282
G1 X109.689 Y116.101 E17.08077
G1 X109.025 Y116.339 E17.11361
G1 X108.39 Y116.62 E17.14594
G1 X107.707 Y116.983 E17.18196
G1 X107.114 Y117.355 E17.21456
G1 X106.542 Y117.775 E17.2476
G1 X105.995 Y118.241 E17.28106
G1 X105.481 Y118.748 E17.31468
G1 X105.02 Y119.274 E17.34725
G1 X104.489 Y119.978 E17.38831
G1 X92.77 Y136.712 E18.33959
G1 X92.297 Y137.318 E18.37538
G1 X91.763 Y137.872 E18.41121
G1 X91.175 Y138.367 E18.447
G1 X90.538 Y138.799 E18.48284
G1 X89.86 Y139.162 E18.51865
G1 X89.148 Y139.453 E18.55447
G1 X88.41 Y139.669 E18.59027
G1 X87.653 Y139.807 E18.6261
G1 X86.886 Y139.865 E18.66192
G1 X86.056 Y139.838 E18.70059
G1 X85.819 Y139.817 E18.71167
G1 X85.057 Y139.71 E18.7475
G1 X84.311 Y139.523 E18.78331
G1 X83.588 Y139.261 E18.81912
G1 X82.896 Y138.925 E18.85494
G1 X82.243 Y138.519 E18.89074
G1 X81.902 Y138.253 E18.91088
G1 X81.835 Y138.217 E18.91442
G1 X81.476 Y137.982 E18.9344
G1 X72.189 Y131.479 E19.46232
G1 X71.818 Y131.188 E19.48428
G1 X71.438 Y130.954 E19.50506
G1 X70.915 Y130.588 E19.53478
G1 X70.309 Y130.115 E19.57058
G1 X69.755 Y129.581 E19.6064
G1 X69.259 Y128.993 E19.64222
G1 X68.827 Y128.357 E19.67803
G1 X68.464 Y127.679 E19.71384
G1 X68.172 Y126.967 E19.74967
G1 X67.957 Y126.229 E19.78546
G1 X67.876 Y125.841 E19.80392
G1 X67.846 Y125.675 E19.81177
G1 X67.749 Y124.912 E19.84759
G1 X67.731 Y124.143 E19.88341
G1 X67.794 Y123.376 E19.91924
G1 X67.935 Y122.62 E19.95505
G1 X68.154 Y121.883 E19.99085
G1 X68.449 Y121.173 E20.02665
G1 X68.816 Y120.497 E20.06247
G1 X69.066 Y120.114 E20.08377
G1 X89.44 Y91.02 E21.73765
G1 X89.595 Y90.807 E21.74992
G1 X90.367 Y89.784 E21.8096
G1 X90.73 Y89.341 E21.83627
G1 X91.111 Y88.91 E21.86305
G1 X91.558 Y88.399 E21.89467
G1 X91.952 Y87.982 E21.92138
G0 F6000 X92.232 Y88.268
G1 F1200 X93.137 Y87.383 E21.98032
G1 X93.506 Y87.047 E22.00356
G1 X94.495 Y86.209 E22.06392
G1 X94.911 Y85.883 E22.08853
G1 X95.958 Y85.124 E22.14874
G1 X96.387 Y84.837 E22.17278
G1 X97.492 Y84.154 E22.23327
G1 X97.944 Y83.896 E22.2575
G1 X99.066 Y83.313 E22.31638
G1 X99.523 Y83.097 E22.33992
G1 X100.727 Y82.578 E22.40097
G1 X101.212 Y82.39 E22.42519
G1 X102.396 Y81.981 E22.48352
G1 X102.901 Y81.827 E22.5081
G1 X104.178 Y81.491 E22.56959
G1 X104.673 Y81.38 E22.59321
G1 X105.93 Y81.145 E22.65275
G1 X106.436 Y81.07 E22.67657
G1 X107.685 Y80.93 E22.73509
G1 X108.204 Y80.891 E22.75933
G1 X109.545 Y80.841 E22.82182
G1 X109.806 Y80.836 E22.83397
G1 X145.288 Y80.837 E24.48616
G1 X146.035 Y80.877 E24.52099
G1 X146.774 Y80.996 E24.55585
G1 X147.495 Y81.194 E24.59066
G1 X148.191 Y81.468 E24.62549
G1 X148.855 Y81.814 E24.66036
G1 X149.477 Y82.229 E24.69518
G1 X150.238 Y82.887 E24.74202
G1 X150.355 Y83.004 E24.74973
G1 X150.855 Y83.561 E24.78458
G1 X151.292 Y84.167 E24.81937
G1 X151.663 Y84.817 E24.85422
G1 X151.962 Y85.503 E24.88906
G1 X152.186 Y86.217 E24.92391
G1 X152.333 Y86.95 E24.95872
G1 X152.405 Y87.954 E25.00559
G1 X152.405 Y88.595 E25.03544
G1 X152.377 Y89.12 E25.05992
G1 X152.405 Y89.512 E25.07822
G1 X152.405 Y100.852 E25.60626
G1 X152.384 Y101.237 E25.62421
G1 X152.386 Y101.25 E25.62482
G1 X152.401 Y101.998 E25.65966
G1 X152.337 Y102.744 E25.69452
G1 X152.193 Y103.478 E25.72935
G1 X151.972 Y104.192 E25.76416
G1 X151.676 Y104.879 E25.79899
G1 X151.485 Y105.238 E25.81792
G1 X151.368 Y105.443 E25.82892
G1 X150.963 Y106.072 E25.86375
G1 X150.493 Y106.654 E25.89858
G1 X149.964 Y107.183 E25.93342
G1 X149.381 Y107.652 E25.96826
G1 X148.752 Y108.056 E26.00307
G1 X148.083 Y108.391 E26.03791
G1 X147.382 Y108.653 E26.07276
G1 X146.657 Y108.838 E26.1076
G1 X145.917 Y108.945 E26.14241
G1 X145.288 Y108.973 E26.17173
G1 X124.68 Y108.973 E27.13133
G1 X123.855 Y109.001 E27.16976
G1 X123.151 Y109.073 E27.20272
G1 X122.528 Y109.177 E27.23213
G1 X121.808 Y109.349 E27.2666
G1 X121.185 Y109.542 E27.29697
G1 X120.486 Y109.812 E27.33186
G1 X119.905 Y110.081 E27.36167
G1 X119.315 Y110.409 E27.3931
G1 X118.692 Y110.807 E27.42753
G1 X118.166 Y111.194 E27.45793
G1 X117.443 Y111.806 E27.50204
G1 X116.621 Y112.48 E27.55154
G1 X116.061 Y112.895 E27.584
G1 X115.227 Y113.45 E27.63064
G1 X114.6 Y113.821 E27.66457
G1 X113.742 Y114.271 E27.70968
G1 X113.125 Y114.557 E27.74135
G1 X112.224 Y114.923 E27.78663
G1 X111.526 Y115.165 E27.82103
G1 X110.97 Y115.325 E27.84797
G1 X110.545 Y115.45 E27.8686
G1 X109.566 Y115.721 E27.9159
G1 X108.879 Y115.967 E27.94988
G1 X108.208 Y116.264 E27.98405
G1 X107.508 Y116.636 E28.02096
G1 X106.889 Y117.024 E28.05498
G1 X106.298 Y117.458 E28.08912
G1 X105.715 Y117.955 E28.12479
G1 X105.195 Y118.468 E28.1588
G1 X104.702 Y119.031 E28.19365
G1 X104.189 Y119.711 E28.23331
G1 X92.443 Y136.483 E29.18676
G1 X91.981 Y137.071 E29.22158
G1 X91.46 Y137.608 E29.25642
G1 X90.884 Y138.085 E29.29125
G1 X90.261 Y138.499 E29.32608
G1 X89.597 Y138.844 E29.36092
G1 X88.9 Y139.115 E29.39574
G1 X88.178 Y139.311 E29.43058
G1 X87.439 Y139.429 E29.46543
G1 X86.692 Y139.467 E29.50026
G1 X86.091 Y139.44 E29.52827
G1 X85.854 Y139.419 E29.53935
G1 X85.114 Y139.313 E29.57416
G1 X84.389 Y139.129 E29.60899
G1 X83.687 Y138.868 E29.64386
G1 X83.018 Y138.534 E29.67868
G1 X82.388 Y138.131 E29.7135
G1 X82.049 Y137.859 E29.73374
G1 X81.706 Y137.654 E29.75235
G1 X72.419 Y131.151 E30.28027
G1 X72.118 Y130.916 E30.29805
G1 X71.667 Y130.626 E30.32301
G1 X71.144 Y130.26 E30.35274
G1 X70.555 Y129.799 E30.38757
G1 X70.019 Y129.278 E30.42237
G1 X69.541 Y128.702 E30.45723
G1 X69.127 Y128.079 E30.49206
G1 X68.782 Y127.415 E30.5269
G1 X68.51 Y126.718 E30.56174
G1 X68.27 Y125.77 E30.60727
G1 X68.24 Y125.604 E30.61513
G1 X68.146 Y124.862 E30.64996
G1 X68.132 Y124.114 E30.68479
G1 X68.198 Y123.369 E30.71962
G1 X68.344 Y122.635 E30.75447
G1 X68.566 Y121.921 E30.78928
G1 X68.864 Y121.234 E30.82415
G1 X69.394 Y120.344 E30.87239
G1 X89.768 Y91.25 E32.52627
G1 X89.914 Y91.048 E32.53788
G1 X90.686 Y90.025 E32.59756
G1 X91.029 Y89.606 E32.62277
G1 X91.41 Y89.175 E32.64956
G1 X91.859 Y88.662 E32.6813
G1 X92.232 Y88.268 E32.70657
G0 F6000 X92.512 Y88.554
G1 F1200 X93.417 Y87.669 E32.76551
G1 X93.764 Y87.353 E32.78736
G1 X94.753 Y86.515 E32.84772
G1 X95.146 Y86.206 E32.871
G1 X96.193 Y85.447 E32.93121
G1 X96.597 Y85.177 E32.95384
G1 X97.702 Y84.494 E33.01433
G1 X98.129 Y84.251 E33.03721
G1 X99.251 Y83.668 E33.09608
G1 X99.681 Y83.464 E33.11825
G1 X100.885 Y82.945 E33.1793
G1 X101.343 Y82.768 E33.20216
G1 X102.527 Y82.359 E33.26049
G1 X103.003 Y82.214 E33.28366
G1 X104.28 Y81.878 E33.34514
G1 X104.746 Y81.773 E33.36739
G1 X106.003 Y81.538 E33.42693
G1 X106.481 Y81.467 E33.44943
G1 X107.73 Y81.327 E33.50796
G1 X108.219 Y81.291 E33.53079
G1 X109.56 Y81.241 E33.59328
G1 X109.806 Y81.236 E33.60473
G1 X145.288 Y81.237 E35.25692
G1 X146.013 Y81.277 E35.29073
G1 X146.73 Y81.396 E35.32458
G1 X147.429 Y81.594 E35.35841
G1 X148.102 Y81.867 E35.39222
G1 X148.741 Y82.212 E35.42604
G1 X149.338 Y82.626 E35.45987
G1 X149.955 Y83.17 E35.49817
G1 X150.072 Y83.287 E35.50587
G1 X150.556 Y83.828 E35.53967
G1 X150.979 Y84.419 E35.57352
G1 X151.333 Y85.053 E35.60733
G1 X151.616 Y85.722 E35.64115
G1 X151.824 Y86.418 E35.67498
G1 X151.954 Y87.133 E35.70882
G1 X152.005 Y87.954 E35.74712
G1 X152.005 Y88.595 E35.77697
G1 X151.978 Y89.081 E35.79963
G1 X152.005 Y89.512 E35.81974
G1 X152.005 Y100.852 E36.34778
G1 X151.98 Y101.31 E36.36914
G1 X152.002 Y101.575 E36.38152
G1 X151.983 Y102.301 E36.41534
G1 X151.885 Y103.02 E36.44913
G1 X151.708 Y103.725 E36.48297
G1 X151.455 Y104.406 E36.5168
G1 X151.137 Y105.04 E36.54983
G1 X151.02 Y105.245 E36.56082
G1 X150.626 Y105.855 E36.59463
G1 X150.167 Y106.418 E36.62846
G1 X149.649 Y106.927 E36.66227
G1 X149.078 Y107.376 E36.6961
G1 X148.462 Y107.76 E36.7299
G1 X147.806 Y108.074 E36.76376
G1 X147.121 Y108.313 E36.79754
G1 X146.413 Y108.476 E36.83137
G1 X145.692 Y108.561 E36.86518
G1 X145.288 Y108.573 E36.884
G1 X124.667 Y108.573 E37.8442
G1 X123.831 Y108.602 E37.88315
G1 X123.105 Y108.675 E37.91713
G1 X122.441 Y108.787 E37.94848
