;FLAVOR:Marlin
;TIME:9513
;Filament used: 7.94527m
;Layer height: 0.28
;MINX:84.2
;MINY:78.186
;MINZ:0.28
;MAXX:135.799
;MAXY:141.815
;MAXZ:60.48
;Generated with Cura_SteamEngine 4.8.0
M140 S60
M105
M190 S60
M104 S200
M105
M109 S200
M82 ;absolute extrusion mode
; Ender 3 Custom Start G-code
G92 E0 ; Reset Extruder
G28 ; Home all axes
G1 Z2.0 F3000 ; Move Z Axis up little to prevent scratching of Heat Bed
G1 X0.1 Y20 Z0.3 F5000.0 ; Move to start position
G1 X0.1 Y200.0 Z0.3 F1500.0 E15 ; Draw the first line
G1 X0.4 Y200.0 Z0.3 F5000.0 ; Move to side a little
G1 X0.4 Y20 Z0.3 F1500.0 E30 ; Draw the second line
G92 E0 ; Reset Extruder
G1 Z2.0 F3000 ; Move Z Axis up little to prevent scratching of Heat Bed
G1 X5 Y20 Z0.3 F5000.0 ; Move over to prevent blob squish
G92 E0
G92 E0
G1 F1500 E-6.5
;LAYER_COUNT:216
;LAYER:0
M107
G0 F6000 X87.535 Y80.7 Z0.28
;TYPE:SKIRT
G1 F1500 E0
G1 F1200 X87.652 Y80.582 E0.00774
G1 X88.236 Y80.05 E0.04452
G1 X88.87 Y79.58 E0.08127
G1 X89.549 Y79.176 E0.11806
G1 X90.265 Y78.844 E0.15481
G1 X91.011 Y78.585 E0.19158
G1 X91.78 Y78.403 E0.22838
G1 X92.563 Y78.299 E0.26516
G1 X93.171 Y78.274 E0.29349
G1 X126.936 Y78.186 E1.86574
G1 X127.724 Y78.224 E1.90248
G1 X128.505 Y78.341 E1.93925
G1 X129.27 Y78.537 E1.97602
G1 X130.012 Y78.809 E2.01282
G1 X130.722 Y79.155 E2.0496
G1 X131.393 Y79.571 E2.08636
G1 X132.019 Y80.052 E2.12312
G1 X132.448 Y80.447 E2.15027
G1 X132.566 Y80.564 E2.15801
G1 X133.098 Y81.148 E2.1948
G1 X133.568 Y81.782 E2.23154
G1 X133.972 Y82.461 E2.26833
G1 X134.304 Y83.177 E2.30508
G1 X134.563 Y83.923 E2.34186
G1 X134.745 Y84.692 E2.37865
G1 X134.849 Y85.475 E2.41543
G1 X134.874 Y86.084 E2.44381
G1 X134.885 Y90.541 E2.65135
G1 X135.697 Y97.892 E2.99573
G1 X135.742 Y98.372 E3.01817
G1 X135.768 Y98.752 E3.03591
G1 X135.79 Y99.245 E3.05889
G1 X135.798 Y99.577 E3.07435
G1 X135.799 Y100.06 E3.09684
G1 X135.795 Y100.329 E3.10937
G1 X135.683 Y103.781 E3.2702
G1 X135.672 Y104.013 E3.28101
G1 X135.457 Y107.464 E3.44201
G1 X135.44 Y107.689 E3.45252
G1 X135.126 Y111.122 E3.61304
G1 X135.101 Y111.357 E3.62405
G1 X134.675 Y114.846 E3.78772
G1 X134.643 Y115.076 E3.79853
G1 X134.123 Y118.49 E3.95933
G1 X134.086 Y118.712 E3.96981
G1 X133.479 Y122.046 E4.12761
G1 X133.433 Y122.277 E4.13858
G1 X132.709 Y125.669 E4.30008
G1 X132.505 Y126.432 E4.33686
G1 X132.154 Y127.328 E4.38167
G1 X131.607 Y128.505 E4.4421
G1 X131.314 Y129.075 E4.47194
G1 X130.657 Y130.23 E4.53382
G1 X130.319 Y130.771 E4.56352
G1 X129.568 Y131.871 E4.62554
G1 X129.196 Y132.372 E4.6546
G1 X128.376 Y133.388 E4.71539
G1 X127.959 Y133.864 E4.74486
G1 X127.051 Y134.819 E4.80622
G1 X126.592 Y135.263 E4.83596
G1 X125.596 Y136.152 E4.89812
G1 X125.107 Y136.554 E4.9276
G1 X124.081 Y137.33 E4.9875
G1 X123.578 Y137.681 E5.01606
G1 X122.455 Y138.399 E5.07813
G1 X121.895 Y138.724 E5.10828
G1 X120.738 Y139.335 E5.1692
G1 X120.166 Y139.608 E5.19871
G1 X118.933 Y140.136 E5.26117
G1 X118.344 Y140.361 E5.29053
G1 X117.107 Y140.776 E5.35128
G1 X116.505 Y140.951 E5.38048
G1 X115.232 Y141.267 E5.44155
G1 X114.608 Y141.395 E5.47121
G1 X113.308 Y141.607 E5.53255
G1 X112.686 Y141.683 E5.56172
G1 X111.385 Y141.789 E5.6225
G1 X110.752 Y141.815 E5.652
G1 X109.421 Y141.815 E5.71398
G1 X108.786 Y141.789 E5.74357
G1 X107.476 Y141.682 E5.80478
G1 X106.849 Y141.605 E5.83419
G1 X105.55 Y141.392 E5.89549
G1 X104.933 Y141.265 E5.92482
G1 X103.648 Y140.946 E5.98647
G1 X103.025 Y140.764 E6.01669
G1 X101.767 Y140.338 E6.07854
G1 X101.193 Y140.118 E6.10716
G1 X99.993 Y139.603 E6.16797
G1 X99.419 Y139.329 E6.19758
G1 X98.263 Y138.717 E6.25849
G1 X97.711 Y138.395 E6.28825
G1 X96.588 Y137.677 E6.35031
G1 X96.07 Y137.315 E6.37974
G1 X95.007 Y136.507 E6.44191
G1 X94.52 Y136.105 E6.47132
G1 X93.564 Y135.248 E6.5311
G1 X93.114 Y134.81 E6.56034
G1 X92.2 Y133.847 E6.62216
G1 X91.78 Y133.367 E6.65186
G1 X90.936 Y132.318 E6.71456
G1 X90.561 Y131.811 E6.74392
G1 X89.843 Y130.754 E6.80342
G1 X89.516 Y130.228 E6.83226
G1 X88.856 Y129.068 E6.89441
G1 X88.556 Y128.486 E6.92489
G1 X88.005 Y127.295 E6.986
G1 X87.71 Y126.562 E7.02279
G1 X87.508 Y125.874 E7.05618
G1 X86.791 Y122.944 E7.19664
G1 X86.735 Y122.699 E7.20834
G1 X86.098 Y119.677 E7.35215
G1 X86.051 Y119.435 E7.36363
G1 X85.53 Y116.509 E7.50202
G1 X85.49 Y116.263 E7.51362
G1 X85.055 Y113.267 E7.65459
G1 X85.023 Y113.018 E7.66628
G1 X84.685 Y110.012 E7.80714
G1 X84.661 Y109.765 E7.81869
G1 X84.419 Y106.753 E7.9594
G1 X84.403 Y106.499 E7.97125
G1 X84.256 Y103.414 E8.11506
G1 X84.248 Y103.169 E8.12648
G1 X84.2 Y100.206 E8.26446
G1 X84.201 Y99.904 E8.27853
G1 X84.213 Y99.372 E8.3033
G1 X84.228 Y99.03 E8.31924
G1 X84.263 Y98.504 E8.34379
G1 X84.294 Y98.155 E8.36011
G1 X84.376 Y97.436 E8.3938
G1 X85.285 Y90.569 E8.71635
G1 X85.274 Y86.211 E8.91928
G1 X85.312 Y85.422 E8.95606
G1 X85.43 Y84.642 E8.99279
G1 X85.626 Y83.877 E9.02956
G1 X85.898 Y83.135 E9.06636
G1 X86.244 Y82.425 E9.10314
G1 X86.66 Y81.754 E9.1399
G1 X87.141 Y81.128 E9.17666
G1 X87.535 Y80.7 E9.20375
G0 F6000 X87.819 Y80.982
G1 F1200 X87.936 Y80.864 E9.21149
G1 X88.505 Y80.346 E9.24732
G1 X89.125 Y79.891 E9.28313
G1 X89.789 Y79.502 E9.31896
G1 X90.489 Y79.185 E9.35474
G1 X91.219 Y78.942 E9.39057
G1 X91.97 Y78.775 E9.42639
G1 X92.734 Y78.688 E9.4622
G1 X93.172 Y78.674 E9.4826
G1 X126.937 Y78.586 E11.05485
G1 X127.705 Y78.624 E11.09065
G1 X128.465 Y78.742 E11.12647
G1 X129.209 Y78.937 E11.16228
G1 X129.928 Y79.209 E11.19807
G1 X130.616 Y79.554 E11.23391
G1 X131.264 Y79.969 E11.26974
G1 X131.865 Y80.449 E11.30556
G1 X132.166 Y80.731 E11.32476
G1 X132.284 Y80.848 E11.3325
G1 X132.802 Y81.417 E11.36833
G1 X133.257 Y82.037 E11.40414
G1 X133.646 Y82.701 E11.43998
G1 X133.963 Y83.401 E11.47576
G1 X134.206 Y84.131 E11.51158
G1 X134.373 Y84.882 E11.54741
G1 X134.46 Y85.646 E11.58321
G1 X134.474 Y86.085 E11.60366
G1 X134.485 Y90.568 E11.81241
G1 X135.299 Y97.929 E12.15726
G1 X135.344 Y98.409 E12.17971
G1 X135.369 Y98.77 E12.19656
G1 X135.391 Y99.263 E12.21954
G1 X135.398 Y99.578 E12.23421
G1 X135.399 Y100.061 E12.2567
G1 X135.395 Y100.316 E12.26858
G1 X135.283 Y103.768 E12.4294
G1 X135.273 Y103.988 E12.43965
G1 X135.058 Y107.439 E12.60066
G1 X135.041 Y107.653 E12.61065
G1 X134.727 Y111.086 E12.77118
G1 X134.703 Y111.309 E12.78162
G1 X134.277 Y114.798 E12.94529
G1 X134.248 Y115.015 E12.95548
G1 X133.728 Y118.429 E13.11629
G1 X133.692 Y118.64 E13.12625
G1 X133.085 Y121.974 E13.28405
G1 X133.042 Y122.194 E13.29449
G1 X132.318 Y125.586 E13.45599
G1 X132.119 Y126.329 E13.49181
G1 X131.792 Y127.16 E13.53339
G1 X131.245 Y128.337 E13.59383
G1 X130.966 Y128.877 E13.62213
G1 X130.309 Y130.032 E13.684
G1 X129.988 Y130.545 E13.71218
G1 X129.237 Y131.645 E13.7742
G1 X128.884 Y132.121 E13.8018
G1 X128.064 Y133.137 E13.86259
G1 X127.669 Y133.588 E13.89051
G1 X126.761 Y134.543 E13.95187
G1 X126.326 Y134.965 E13.98009
G1 X125.33 Y135.854 E14.04225
G1 X124.866 Y136.235 E14.07021
G1 X123.84 Y137.011 E14.13011
G1 X123.362 Y137.344 E14.15724
G1 X122.239 Y138.062 E14.2193
G1 X121.709 Y138.371 E14.24787
G1 X120.552 Y138.982 E14.3088
G1 X120.009 Y139.241 E14.33681
G1 X118.776 Y139.769 E14.39927
G1 X118.217 Y139.982 E14.42712
G1 X116.98 Y140.397 E14.48788
G1 X116.409 Y140.563 E14.51556
G1 X115.136 Y140.879 E14.57664
G1 X114.544 Y141.001 E14.60479
G1 X113.244 Y141.213 E14.66612
G1 X112.654 Y141.285 E14.6938
G1 X111.353 Y141.391 E14.75458
G1 X110.752 Y141.415 E14.78258
G1 X109.421 Y141.415 E14.84456
G1 X108.819 Y141.39 E14.87262
G1 X107.509 Y141.283 E14.93382
G1 X106.914 Y141.21 E14.96173
G1 X105.615 Y140.997 E15.02303
G1 X105.029 Y140.877 E15.05088
G1 X103.744 Y140.558 E15.11253
G1 X103.154 Y140.385 E15.14116
G1 X101.896 Y139.959 E15.20301
G1 X101.351 Y139.75 E15.23018
G1 X100.151 Y139.235 E15.29099
G1 X99.607 Y138.975 E15.31907
G1 X98.451 Y138.363 E15.37997
G1 X97.927 Y138.058 E15.4082
G1 X96.804 Y137.34 E15.47027
G1 X96.312 Y136.996 E15.49822
G1 X95.249 Y136.188 E15.5604
G1 X94.787 Y135.807 E15.58828
G1 X93.831 Y134.95 E15.64807
G1 X93.404 Y134.534 E15.67582
G1 X92.49 Y133.571 E15.73765
G1 X92.091 Y133.116 E15.76583
G1 X91.247 Y132.067 E15.82852
G1 X90.892 Y131.586 E15.85636
G1 X90.174 Y130.529 E15.91586
G1 X89.863 Y130.03 E15.94323
G1 X89.203 Y128.87 E16.00538
G1 X88.919 Y128.318 E16.03429
G1 X88.368 Y127.127 E16.09539
G1 X88.082 Y126.413 E16.13121
G1 X87.896 Y125.779 E16.16197
G1 X87.179 Y122.849 E16.30243
G1 X87.126 Y122.616 E16.31356
G1 X86.489 Y119.594 E16.45737
G1 X86.445 Y119.365 E16.46822
G1 X85.924 Y116.439 E16.60661
G1 X85.886 Y116.205 E16.61765
G1 X85.451 Y113.209 E16.75862
G1 X85.42 Y112.973 E16.76971
G1 X85.082 Y109.967 E16.91056
G1 X85.06 Y109.733 E16.9215
G1 X84.818 Y106.721 E17.06221
G1 X84.802 Y106.48 E17.07345
G1 X84.655 Y103.395 E17.21727
G1 X84.648 Y103.163 E17.22808
G1 X84.6 Y100.2 E17.36606
G1 X84.601 Y99.913 E17.37943
G1 X84.613 Y99.381 E17.40421
G1 X84.627 Y99.057 E17.41931
G1 X84.662 Y98.531 E17.44385
G1 X84.692 Y98.199 E17.45938
G1 X84.773 Y97.488 E17.4927
G1 X85.685 Y90.598 E17.81632
G1 X85.674 Y86.21 E18.02065
G1 X85.712 Y85.442 E18.05645
G1 X85.83 Y84.682 E18.09226
G1 X86.026 Y83.938 E18.12809
G1 X86.298 Y83.219 E18.16389
G1 X86.643 Y82.531 E18.19972
G1 X87.058 Y81.884 E18.23552
G1 X87.537 Y81.282 E18.27134
G1 X87.819 Y80.982 E18.29051
G0 F6000 X88.103 Y81.263
G1 F1200 X88.22 Y81.145 E18.29825
G1 X88.775 Y80.643 E18.33309
G1 X89.379 Y80.203 E18.36789
G1 X90.028 Y79.83 E18.40275
G1 X90.712 Y79.528 E18.43756
G1 X91.425 Y79.3 E18.47242
G1 X92.158 Y79.151 E18.50725
G1 X93.173 Y79.074 E18.55465
G1 X126.938 Y78.986 E20.12689
G1 X127.685 Y79.024 E20.16172
G1 X128.424 Y79.142 E20.19657
G1 X129.146 Y79.337 E20.23139
G1 X129.843 Y79.609 E20.26623
G1 X130.507 Y79.953 E20.30105
G1 X131.13 Y80.367 E20.33588
G1 X131.885 Y81.015 E20.38221
G1 X132.003 Y81.132 E20.38995
G1 X132.505 Y81.687 E20.4248
G1 X132.945 Y82.291 E20.45959
G1 X133.318 Y82.94 E20.49445
G1 X133.62 Y83.624 E20.52926
G1 X133.848 Y84.337 E20.56412
G1 X133.997 Y85.07 E20.59895
G1 X134.074 Y86.086 E20.64639
G1 X134.085 Y90.585 E20.85589
G1 X134.889 Y97.85 E21.19624
G1 X134.945 Y98.447 E21.22416
G1 X134.969 Y98.788 E21.24008
G1 X134.991 Y99.281 E21.26306
G1 X134.998 Y99.579 E21.27694
G1 X134.999 Y100.062 E21.29943
G1 X134.995 Y100.303 E21.31065
G1 X134.883 Y103.755 E21.47148
G1 X134.873 Y103.963 E21.48117
G1 X134.658 Y107.414 E21.64218
G1 X134.643 Y107.617 E21.65166
G1 X134.329 Y111.05 E21.81218
G1 X134.306 Y111.26 E21.82202
G1 X133.88 Y114.749 E21.98568
G1 X133.852 Y114.955 E21.99537
G1 X133.332 Y118.369 E22.15617
G1 X133.299 Y118.569 E22.16561
G1 X132.692 Y121.903 E22.3234
G1 X132.651 Y122.11 E22.33323
G1 X131.927 Y125.502 E22.49473
G1 X131.732 Y126.224 E22.52956
G1 X131.429 Y126.991 E22.56796
G1 X130.882 Y128.168 E22.62839
G1 X130.618 Y128.679 E22.65518
G1 X129.961 Y129.834 E22.71705
G1 X129.658 Y130.32 E22.74372
G1 X128.907 Y131.42 E22.80574
G1 X128.573 Y131.869 E22.8318
G1 X127.753 Y132.885 E22.89259
G1 X127.379 Y133.312 E22.91902
G1 X126.471 Y134.267 E22.98038
G1 X126.059 Y134.666 E23.00709
G1 X125.063 Y135.555 E23.06925
G1 X124.625 Y135.916 E23.09568
G1 X123.599 Y136.692 E23.15558
G1 X123.147 Y137.007 E23.18124
G1 X122.024 Y137.725 E23.2433
G1 X121.522 Y138.017 E23.27035
G1 X120.365 Y138.628 E23.33127
G1 X119.852 Y138.873 E23.35774
G1 X118.619 Y139.401 E23.4202
G1 X118.089 Y139.602 E23.44659
G1 X116.852 Y140.017 E23.50735
G1 X116.312 Y140.175 E23.53355
G1 X115.039 Y140.491 E23.59462
G1 X114.48 Y140.606 E23.6212
G1 X113.18 Y140.818 E23.68253
G1 X112.621 Y140.886 E23.70875
G1 X111.32 Y140.992 E23.76953
G1 X110.752 Y141.015 E23.796
G1 X109.421 Y141.015 E23.85798
G1 X108.851 Y140.992 E23.88454
G1 X107.541 Y140.885 E23.94575
G1 X106.978 Y140.816 E23.97216
G1 X105.679 Y140.603 E24.03345
G1 X105.125 Y140.489 E24.05979
G1 X103.84 Y140.17 E24.12144
G1 X103.282 Y140.006 E24.14852
G1 X102.024 Y139.58 E24.21037
G1 X101.508 Y139.383 E24.23609
G1 X100.308 Y138.868 E24.29689
G1 X99.794 Y138.622 E24.32342
G1 X98.638 Y138.01 E24.38433
G1 X98.142 Y137.721 E24.41106
G1 X97.019 Y137.003 E24.47313
G1 X96.554 Y136.678 E24.49954
G1 X95.491 Y135.87 E24.56172
G1 X95.054 Y135.509 E24.58811
G1 X94.098 Y134.652 E24.6479
G1 X93.694 Y134.259 E24.67414
G1 X92.78 Y133.296 E24.73596
G1 X92.403 Y132.865 E24.76263
G1 X91.559 Y131.816 E24.82532
G1 X91.223 Y131.361 E24.85166
G1 X90.505 Y130.304 E24.91116
G1 X90.211 Y129.833 E24.93701
G1 X89.551 Y128.673 E24.99915
G1 X89.282 Y128.15 E25.02654
G1 X88.731 Y126.959 E25.08765
G1 X88.454 Y126.264 E25.12248
G1 X88.285 Y125.684 E25.15061
G1 X87.568 Y122.754 E25.29107
G1 X87.518 Y122.534 E25.30158
G1 X86.881 Y119.512 E25.44539
G1 X86.838 Y119.295 E25.45569
G1 X86.317 Y116.369 E25.59408
G1 X86.282 Y116.148 E25.6045
G1 X85.847 Y113.152 E25.74547
G1 X85.818 Y112.928 E25.75598
G1 X85.48 Y109.922 E25.89684
G1 X85.458 Y109.701 E25.90718
G1 X85.216 Y106.689 E26.04788
G1 X85.202 Y106.461 E26.05852
G1 X85.055 Y103.376 E26.20233
G1 X85.048 Y103.156 E26.21258
G1 X85 Y100.193 E26.35057
G1 X85.001 Y99.922 E26.36319
G1 X85.013 Y99.39 E26.38797
G1 X85.026 Y99.083 E26.40227
G1 X85.061 Y98.557 E26.42682
G1 X85.089 Y98.244 E26.44145
G1 X85.169 Y97.541 E26.4744
G1 X86.085 Y90.62 E26.79948
G1 X86.074 Y86.209 E27.00488
G1 X86.112 Y85.462 E27.03971
G1 X86.23 Y84.723 E27.07455
G1 X86.426 Y84.001 E27.10939
G1 X86.697 Y83.304 E27.14421
G1 X87.042 Y82.64 E27.17905
G1 X87.455 Y82.017 E27.21386
G1 X88.103 Y81.263 E27.26015
G0 F6000 X88.387 Y81.545
G1 F1200 X88.504 Y81.427 E27.26789
G1 X89.043 Y80.94 E27.30171
G1 X89.633 Y80.515 E27.33557
G1 X90.265 Y80.158 E27.36937
G1 X90.933 Y79.872 E27.40321
G1 X91.628 Y79.662 E27.43702
G1 X92.342 Y79.529 E27.47083
G1 X93.174 Y79.474 E27.50966
G1 X126.939 Y79.386 E29.08191
G1 X127.664 Y79.424 E29.11571
G1 X128.381 Y79.542 E29.14955
G1 X129.08 Y79.737 E29.18334
G1 X129.754 Y80.009 E29.21718
G1 X130.394 Y80.352 E29.25099
G1 X130.992 Y80.764 E29.28481
G1 X131.603 Y81.299 E29.32262
G1 X131.721 Y81.416 E29.33036
G1 X132.208 Y81.955 E29.36419
G1 X132.633 Y82.545 E29.39804
G1 X132.99 Y83.177 E29.43184
G1 X133.276 Y83.845 E29.46568
G1 X133.486 Y84.54 E29.49949
G1 X133.619 Y85.254 E29.5333
G1 X133.674 Y86.087 E29.57218
G1 X133.685 Y90.612 E29.78288
G1 X134.502 Y98.004 E30.12918
G1 X134.547 Y98.484 E30.15163
G1 X134.569 Y98.806 E30.16666
G1 X134.591 Y99.299 E30.18964
G1 X134.598 Y99.579 E30.20268
G1 X134.599 Y100.062 E30.22517
G1 X134.596 Y100.29 E30.23579
G1 X134.484 Y103.742 E30.39661
G1 X134.474 Y103.938 E30.40575
G1 X134.259 Y107.389 E30.56675
G1 X134.245 Y107.58 E30.57567
G1 X133.931 Y111.013 E30.73619
G1 X133.909 Y111.212 E30.74552
G1 X133.483 Y114.701 E30.90918
G1 X133.457 Y114.895 E30.9183
G1 X132.937 Y118.309 E31.0791
G1 X132.905 Y118.497 E31.08798
G1 X132.298 Y121.831 E31.24578
G1 X132.26 Y122.027 E31.25508
G1 X131.536 Y125.419 E31.41658
G1 X131.345 Y126.12 E31.45041
G1 X131.066 Y126.823 E31.48563
G1 X130.519 Y128 E31.54606
G1 X130.271 Y128.481 E31.57126
G1 X129.614 Y129.636 E31.63314
G1 X129.328 Y130.094 E31.65828
G1 X128.577 Y131.194 E31.7203
G1 X128.262 Y131.618 E31.7449
G1 X127.442 Y132.634 E31.80569
G1 X127.089 Y133.037 E31.83064
G1 X126.181 Y133.992 E31.892
G1 X125.793 Y134.368 E31.91716
G1 X124.797 Y135.257 E31.97932
G1 X124.383 Y135.597 E32.00427
G1 X123.357 Y136.373 E32.06417
G1 X122.931 Y136.67 E32.08835
G1 X121.808 Y137.388 E32.15041
G1 X121.335 Y137.663 E32.17589
G1 X120.178 Y138.274 E32.23682
G1 X119.694 Y138.505 E32.26179
G1 X118.461 Y139.033 E32.32425
G1 X117.962 Y139.223 E32.34911
G1 X116.725 Y139.638 E32.40986
G1 X116.216 Y139.787 E32.43456
G1 X114.943 Y140.103 E32.49563
G1 X114.415 Y140.211 E32.52073
G1 X113.115 Y140.423 E32.58206
