;FLAVOR:Marlin
;TIME:6634
;Filament used: 5.21187m
;Layer height: 0.28
;MINX:73.2
;MINY:92.2
;MINZ:0.28
;MAXX:146.8
;MAXY:127.8
;MAXZ:29.96
;Generated with Cura_SteamEngine 4.8.0
M140 S60
M105
M190 S60
M104 S200
M105
M109 S200
M82 ;absolute extrusion mode
; Ender 3 Custom Start G-code
G92 E0 ; Reset Extruder
G28 ; Home all axes
G1 Z2.0 F3000 ; Move Z Axis up little to prevent scratching of Heat Bed
G1 X0.1 Y20 Z0.3 F5000.0 ; Move to start position
G1 X0.1 Y200.0 Z0.3 F1500.0 E15 ; Draw the first line
G1 X0.4 Y200.0 Z0.3 F5000.0 ; Move to side a little
G1 X0.4 Y20 Z0.3 F1500.0 E30 ; Draw the second line
G92 E0 ; Reset Extruder
G1 Z2.0 F3000 ; Move Z Axis up little to prevent scratching of Heat Bed
G1 X5 Y20 Z0.3 F5000.0 ; Move over to prevent blob squish
G92 E0
G92 E0
G1 F1500 E-6.5
;LAYER_COUNT:107
;LAYER:0
M107
G0 F6000 X76.188 Y93.955 Z0.28
;TYPE:SKIRT
G1 F1500 E0
G1 F1200 X76.824 Y93.488 E0.03674
G1 X77.504 Y93.087 E0.0735
G1 X78.222 Y92.757 E0.1103
G1 X78.969 Y92.502 E0.14705
G1 X79.738 Y92.323 E0.18381
G1 X80.522 Y92.223 E0.22062
G1 X81.117 Y92.2 E0.24834
G1 X95.676 Y92.2 E0.92627
G1 X96.465 Y92.24 E0.96306
G1 X96.822 Y92.294 E0.97987
G1 X97.332 Y92.266 E1.00365
G1 X97.965 Y92.289 E1.03315
G1 X98.174 Y92.305 E1.04291
G1 X98.448 Y92.331 E1.05572
G1 X99.457 Y92.444 E1.103
G1 X100.237 Y92.54 E1.1396
G1 X102.992 Y92.889 E1.26891
G1 X103.672 Y92.971 E1.3008
G1 X105.813 Y93.251 E1.40134
G1 X111.99 Y94.005 E1.6911
G1 X116.149 Y94.535 E1.88633
G1 X116.148 Y94.54 E1.88657
G1 X116.881 Y94.65 E1.92108
G1 X117.188 Y94.715 E1.93569
G1 X117.951 Y94.918 E1.97246
G1 X118.525 Y95.127 E2.0009
G1 X119.036 Y95.336 E2.02661
G1 X119.751 Y95.671 E2.06338
G1 X120.428 Y96.077 E2.10013
G1 X121.321 Y96.776 E2.15294
G1 X121.695 Y97.115 E2.17644
G1 X122.474 Y97.93 E2.22894
G1 X122.606 Y98.09 E2.2386
G1 X122.873 Y98.45 E2.25947
G1 X138.883 Y98.45 E3.00496
G1 X139.672 Y98.49 E3.04175
G1 X140.452 Y98.609 E3.07849
G1 X141.217 Y98.807 E3.11528
G1 X141.957 Y99.081 E3.15203
G1 X142.666 Y99.429 E3.18881
G1 X143.337 Y99.847 E3.22562
G1 X143.961 Y100.33 E3.26236
G1 X144.398 Y100.735 E3.2901
G1 X144.515 Y100.852 E3.29781
G1 X145.045 Y101.438 E3.3346
G1 X145.512 Y102.074 E3.37134
G1 X145.913 Y102.754 E3.4081
G1 X146.243 Y103.472 E3.44489
G1 X146.498 Y104.219 E3.48165
G1 X146.677 Y104.988 E3.51841
G1 X146.777 Y105.772 E3.55522
G1 X146.8 Y106.367 E3.58294
G1 X146.8 Y113.633 E3.92128
G1 X146.76 Y114.422 E3.95806
G1 X146.641 Y115.202 E3.9948
G1 X146.443 Y115.967 E4.0316
G1 X146.169 Y116.707 E4.06834
G1 X145.821 Y117.416 E4.10512
G1 X145.403 Y118.087 E4.14193
G1 X144.92 Y118.711 E4.17868
G1 X144.515 Y119.148 E4.20642
G1 X144.398 Y119.265 E4.21412
G1 X143.812 Y119.795 E4.25091
G1 X143.176 Y120.262 E4.28766
G1 X142.496 Y120.663 E4.32441
G1 X141.778 Y120.993 E4.36121
G1 X141.031 Y121.248 E4.39796
G1 X140.262 Y121.427 E4.43473
G1 X139.478 Y121.527 E4.47153
G1 X138.883 Y121.55 E4.49926
G1 X122.878 Y121.551 E5.24452
G1 X122.586 Y121.932 E5.26687
G1 X122.238 Y122.35 E5.2922
G1 X121.703 Y122.93 E5.32894
G1 X121.112 Y123.454 E5.36572
G1 X120.471 Y123.915 E5.40248
G1 X119.471 Y124.46 E5.45551
G1 X118.945 Y124.699 E5.48242
G1 X117.955 Y125.07 E5.53164
G1 X117.601 Y125.176 E5.54885
G1 X116.834 Y125.364 E5.58562
G1 X116.343 Y125.442 E5.60877
G1 X113.167 Y125.843 E5.75783
G1 X112.804 Y125.883 E5.77484
G1 X107.114 Y126.605 E6.04191
G1 X106.851 Y126.634 E6.05424
G1 X106.601 Y126.657 E6.06593
G1 X105.115 Y126.841 E6.13565
G1 X104.686 Y126.9 E6.15581
G1 X99.135 Y127.593 E6.4163
G1 X98.459 Y127.669 E6.44797
G1 X98.157 Y127.697 E6.4621
G1 X97.911 Y127.715 E6.47358
G1 X97.122 Y127.733 E6.51033
G1 X96.809 Y127.708 E6.52495
G1 X96.271 Y127.777 E6.55021
G1 X95.676 Y127.8 E6.57793
G1 X81.117 Y127.8 E7.25586
G1 X80.328 Y127.76 E7.29265
G1 X79.548 Y127.641 E7.32939
G1 X78.783 Y127.443 E7.36618
G1 X78.043 Y127.169 E7.40293
G1 X77.334 Y126.821 E7.4397
G1 X76.663 Y126.403 E7.47651
G1 X76.039 Y125.92 E7.51326
G1 X75.602 Y125.515 E7.541
G1 X75.485 Y125.398 E7.54871
G1 X74.955 Y124.812 E7.5855
G1 X74.488 Y124.176 E7.62224
G1 X74.087 Y123.496 E7.659
G1 X73.757 Y122.778 E7.69579
G1 X73.502 Y122.031 E7.73255
G1 X73.323 Y121.262 E7.76931
G1 X73.223 Y120.478 E7.80611
G1 X73.2 Y119.883 E7.83384
G1 X73.2 Y100.117 E8.75423
G1 X73.24 Y99.328 E8.79102
G1 X73.359 Y98.548 E8.82776
G1 X73.557 Y97.783 E8.86455
G1 X73.831 Y97.043 E8.90129
G1 X74.179 Y96.334 E8.93807
G1 X74.597 Y95.663 E8.97488
G1 X75.08 Y95.039 E9.01163
G1 X75.485 Y94.602 E9.03937
G1 X75.602 Y94.485 E9.04707
G1 X76.188 Y93.955 E9.08387
G0 F6000 X76.456 Y94.253
G1 F1200 X77.078 Y93.8 E9.1197
G1 X77.743 Y93.414 E9.1555
G1 X78.445 Y93.099 E9.19133
G1 X79.176 Y92.859 E9.22715
G1 X79.927 Y92.696 E9.26294
G1 X80.692 Y92.612 E9.29877
G1 X81.117 Y92.6 E9.31857
G1 X95.676 Y92.6 E9.9965
G1 X96.444 Y92.64 E10.03231
G1 X96.802 Y92.696 E10.04918
G1 X97.025 Y92.674 E10.05962
G1 X97.935 Y92.688 E10.10199
G1 X98.144 Y92.704 E10.11175
G1 X98.403 Y92.728 E10.12387
G1 X99.408 Y92.841 E10.17096
G1 X100.187 Y92.937 E10.20751
G1 X102.914 Y93.282 E10.3355
G1 X103.62 Y93.368 E10.36862
G1 X105.761 Y93.647 E10.46915
G1 X111.939 Y94.401 E10.75896
G1 X116.098 Y94.931 E10.95419
G1 X116.097 Y94.937 E10.95447
G1 X116.798 Y95.041 E10.98747
G1 X117.105 Y95.106 E11.00208
G1 X117.848 Y95.305 E11.0379
G1 X118.373 Y95.497 E11.06393
G1 X118.884 Y95.706 E11.08964
G1 X119.58 Y96.034 E11.12546
G1 X120.238 Y96.432 E11.16127
G1 X121.053 Y97.072 E11.20952
G1 X121.427 Y97.411 E11.23303
G1 X122.165 Y98.185 E11.28283
G1 X122.297 Y98.345 E11.29248
G1 X122.671 Y98.85 E11.32175
G1 X138.883 Y98.85 E12.07664
G1 X139.651 Y98.89 E12.11245
G1 X140.411 Y99.009 E12.14827
G1 X141.154 Y99.207 E12.18408
G1 X141.873 Y99.481 E12.21991
G1 X142.559 Y99.828 E12.2557
G1 X143.206 Y100.244 E12.29152
G1 X143.806 Y100.725 E12.32733
G1 X144.116 Y101.017 E12.34716
G1 X144.233 Y101.134 E12.35486
G1 X144.747 Y101.706 E12.39067
G1 X145.2 Y102.328 E12.4265
G1 X145.586 Y102.993 E12.46231
G1 X145.901 Y103.695 E12.49813
G1 X146.141 Y104.426 E12.53396
G1 X146.304 Y105.177 E12.56974
G1 X146.388 Y105.942 E12.60558
G1 X146.4 Y106.367 E12.62538
G1 X146.4 Y113.633 E12.96371
G1 X146.36 Y114.401 E12.99952
G1 X146.241 Y115.161 E13.03534
G1 X146.043 Y115.904 E13.07115
G1 X145.769 Y116.623 E13.10697
G1 X145.422 Y117.309 E13.14277
G1 X145.006 Y117.956 E13.17859
G1 X144.525 Y118.556 E13.2144
G1 X144.233 Y118.866 E13.23423
G1 X144.116 Y118.983 E13.24193
G1 X143.544 Y119.497 E13.27774
G1 X142.922 Y119.95 E13.31357
G1 X142.257 Y120.336 E13.34937
G1 X141.555 Y120.651 E13.3852
G1 X140.824 Y120.891 E13.42103
G1 X140.073 Y121.054 E13.45681
G1 X139.308 Y121.138 E13.49265
G1 X138.883 Y121.15 E13.51245
G1 X122.672 Y121.151 E14.2673
G1 X122.615 Y121.241 E14.27226
G1 X122.279 Y121.676 E14.29785
G1 X121.931 Y122.094 E14.32318
G1 X121.409 Y122.658 E14.35896
G1 X120.831 Y123.166 E14.39479
G1 X120.203 Y123.611 E14.43063
G1 X119.305 Y124.096 E14.47816
G1 X118.779 Y124.335 E14.50506
G1 X117.841 Y124.687 E14.55171
G1 X117.487 Y124.793 E14.56892
G1 X116.739 Y124.975 E14.60476
G1 X116.293 Y125.045 E14.62579
G1 X113.123 Y125.446 E14.77457
G1 X112.711 Y125.492 E14.79387
G1 X107.064 Y126.208 E15.05893
G1 X106.814 Y126.236 E15.07064
G1 X106.549 Y126.261 E15.08304
G1 X105.089 Y126.441 E15.15153
G1 X104.637 Y126.503 E15.17278
G1 X99.087 Y127.196 E15.43322
G1 X98.415 Y127.272 E15.46471
G1 X98.128 Y127.298 E15.47813
G1 X97.882 Y127.316 E15.48961
G1 X97.113 Y127.332 E15.52543
G1 X96.826 Y127.308 E15.53884
G1 X96.101 Y127.388 E15.5728
G1 X95.676 Y127.4 E15.5926
G1 X81.117 Y127.4 E16.27053
G1 X80.349 Y127.36 E16.30634
G1 X79.589 Y127.241 E16.34216
G1 X78.846 Y127.043 E16.37796
G1 X78.127 Y126.769 E16.41379
G1 X77.441 Y126.422 E16.44959
G1 X76.794 Y126.006 E16.4854
G1 X76.194 Y125.525 E16.52121
G1 X75.884 Y125.233 E16.54104
G1 X75.767 Y125.116 E16.54875
G1 X75.253 Y124.544 E16.58456
G1 X74.8 Y123.922 E16.62039
G1 X74.414 Y123.257 E16.65619
G1 X74.099 Y122.555 E16.69202
G1 X73.859 Y121.824 E16.72784
G1 X73.696 Y121.073 E16.76363
G1 X73.612 Y120.308 E16.79946
G1 X73.6 Y119.883 E16.81926
G1 X73.6 Y100.117 E17.73965
G1 X73.64 Y99.349 E17.77546
G1 X73.759 Y98.589 E17.81128
G1 X73.957 Y97.846 E17.84708
G1 X74.231 Y97.127 E17.88291
G1 X74.578 Y96.441 E17.91871
G1 X74.994 Y95.794 E17.95452
G1 X75.475 Y95.194 E17.99033
G1 X75.767 Y94.884 E18.01016
G1 X75.884 Y94.767 E18.01787
G1 X76.456 Y94.253 E18.05368
G0 F6000 X76.724 Y94.55
G1 F1200 X77.33 Y94.113 E18.08847
G1 X77.98 Y93.742 E18.12332
G1 X78.666 Y93.443 E18.15816
G1 X79.38 Y93.219 E18.19301
G1 X80.113 Y93.072 E18.22782
G1 X81.117 Y93 E18.27469
G1 X95.676 Y93 E18.95261
G1 X96.423 Y93.04 E18.98745
G1 X96.756 Y93.094 E19.00316
G1 X97.495 Y93.067 E19.03759
G1 X97.904 Y93.086 E19.05666
G1 X98.359 Y93.126 E19.07792
G1 X99.359 Y93.238 E19.12478
G1 X100.137 Y93.333 E19.16128
G1 X102.892 Y93.683 E19.29059
G1 X103.569 Y93.765 E19.32235
G1 X105.69 Y94.041 E19.42194
G1 X111.889 Y94.798 E19.71274
G1 X116.048 Y95.328 E19.90796
G1 X116.047 Y95.333 E19.9082
G1 X116.715 Y95.433 E19.93965
G1 X117.022 Y95.498 E19.95426
G1 X117.744 Y95.692 E19.98908
G1 X118.222 Y95.867 E20.01278
G1 X118.733 Y96.076 E20.03849
G1 X119.409 Y96.396 E20.07331
G1 X120.047 Y96.786 E20.10813
G1 X120.784 Y97.369 E20.15189
G1 X121.158 Y97.708 E20.17539
G1 X121.857 Y98.439 E20.22249
G1 X121.989 Y98.599 E20.23215
G1 X122.433 Y99.201 E20.26698
G1 X122.462 Y99.25 E20.26963
G1 X138.883 Y99.25 E21.03426
G1 X139.63 Y99.29 E21.06909
G1 X140.368 Y99.409 E21.1039
G1 X141.09 Y99.607 E21.13876
G1 X141.786 Y99.88 E21.17357
G1 X142.449 Y100.227 E21.20842
G1 X143.072 Y100.642 E21.24328
G1 X143.833 Y101.3 E21.29012
G1 X143.95 Y101.417 E21.29782
G1 X144.45 Y101.974 E21.33268
G1 X144.887 Y102.58 E21.36747
G1 X145.258 Y103.23 E21.40232
G1 X145.557 Y103.916 E21.43716
G1 X145.781 Y104.63 E21.47201
G1 X145.928 Y105.363 E21.50682
G1 X146 Y106.367 E21.55369
G1 X146 Y113.633 E21.89202
G1 X145.96 Y114.38 E21.92686
G1 X145.841 Y115.118 E21.96167
G1 X145.643 Y115.84 E21.99653
G1 X145.37 Y116.536 E22.03134
G1 X145.023 Y117.199 E22.06618
G1 X144.608 Y117.822 E22.10104
G1 X143.95 Y118.583 E22.14788
G1 X143.833 Y118.7 E22.15559
G1 X143.276 Y119.2 E22.19044
G1 X142.67 Y119.637 E22.22523
G1 X142.02 Y120.008 E22.26008
G1 X141.334 Y120.307 E22.29493
G1 X140.62 Y120.531 E22.32977
G1 X139.887 Y120.678 E22.36458
G1 X138.883 Y120.75 E22.41145
G1 X122.452 Y120.751 E23.17655
G1 X122.253 Y121.058 E23.19359
G1 X121.972 Y121.42 E23.21492
G1 X121.624 Y121.838 E23.24025
G1 X121.115 Y122.386 E23.27508
G1 X120.551 Y122.877 E23.3099
G1 X119.937 Y123.305 E23.34475
G1 X119.14 Y123.732 E23.38685
G1 X118.614 Y123.971 E23.41375
G1 X117.726 Y124.304 E23.45791
G1 X117.372 Y124.41 E23.47512
G1 X116.645 Y124.586 E23.50995
G1 X116.243 Y124.649 E23.5289
G1 X113.079 Y125.048 E23.67739
G1 X112.682 Y125.092 E23.69599
G1 X107.014 Y125.811 E23.96203
G1 X106.777 Y125.837 E23.97314
G1 X106.528 Y125.86 E23.98478
G1 X105.053 Y126.043 E24.05399
G1 X104.587 Y126.106 E24.07588
G1 X99.038 Y126.799 E24.33628
G1 X98.37 Y126.874 E24.36758
G1 X98.099 Y126.899 E24.38025
G1 X97.853 Y126.917 E24.39173
G1 X97.105 Y126.932 E24.42657
G1 X96.795 Y126.905 E24.44106
G1 X96.68 Y126.928 E24.44652
G1 X95.676 Y127 E24.49339
G1 X81.117 Y127 E25.17132
G1 X80.37 Y126.96 E25.20615
G1 X79.632 Y126.841 E25.24096
G1 X78.91 Y126.643 E25.27582
G1 X78.214 Y126.37 E25.31064
G1 X77.551 Y126.023 E25.34548
G1 X76.928 Y125.608 E25.38034
G1 X76.167 Y124.95 E25.42718
G1 X76.05 Y124.833 E25.43489
G1 X75.55 Y124.276 E25.46974
G1 X75.113 Y123.67 E25.50453
G1 X74.742 Y123.02 E25.53938
G1 X74.443 Y122.334 E25.57422
G1 X74.219 Y121.62 E25.60907
G1 X74.072 Y120.887 E25.64388
G1 X74 Y119.883 E25.69075
G1 X74 Y100.117 E26.61114
G1 X74.04 Y99.37 E26.64597
G1 X74.159 Y98.632 E26.68078
G1 X74.357 Y97.91 E26.71564
G1 X74.63 Y97.214 E26.75045
G1 X74.977 Y96.551 E26.7853
G1 X75.392 Y95.928 E26.82015
G1 X76.05 Y95.167 E26.867
G1 X76.167 Y95.05 E26.8747
G1 X76.724 Y94.55 E26.90956
G0 F6000 X76.991 Y94.849
G1 F1200 X77.582 Y94.426 E26.9434
G1 X78.216 Y94.072 E26.97721
G1 X78.885 Y93.789 E27.01103
G1 X79.581 Y93.581 E27.04486
G1 X80.296 Y93.451 E27.0787
G1 X81.117 Y93.4 E27.117
G1 X95.676 Y93.4 E27.79493
G1 X96.401 Y93.44 E27.82874
G1 X96.778 Y93.503 E27.84654
G1 X97.224 Y93.468 E27.86737
G1 X97.874 Y93.485 E27.89765
G1 X98.314 Y93.523 E27.91821
G1 X99.311 Y93.635 E27.96493
G1 X100.086 Y93.73 E28.00128
G1 X102.841 Y94.079 E28.13059
G1 X103.517 Y94.161 E28.1623
G1 X105.658 Y94.44 E28.26284
G1 X111.838 Y95.195 E28.55275
G1 X115.997 Y95.725 E28.74797
G1 X115.996 Y95.73 E28.74821
G1 X116.632 Y95.824 E28.77815
G1 X116.939 Y95.889 E28.79276
G1 X117.64 Y96.078 E28.82656
G1 X118.071 Y96.237 E28.84796
G1 X118.582 Y96.446 E28.87366
G1 X119.238 Y96.758 E28.90749
G1 X119.856 Y97.14 E28.94132
G1 X120.515 Y97.665 E28.98055
G1 X120.889 Y98.004 E29.00406
G1 X121.548 Y98.694 E29.04849
G1 X121.68 Y98.854 E29.05814
G1 X122.111 Y99.439 E29.09198
G1 X122.233 Y99.65 E29.10333
G1 X138.883 Y99.65 E29.87862
G1 X139.608 Y99.69 E29.91243
G1 X140.325 Y99.809 E29.94628
G1 X141.024 Y100.007 E29.9801
G1 X141.697 Y100.28 E30.01392
G1 X142.336 Y100.625 E30.04774
G1 X142.933 Y101.039 E30.08157
G1 X143.55 Y101.583 E30.11987
G1 X143.667 Y101.7 E30.12757
G1 X144.151 Y102.241 E30.16137
G1 X144.574 Y102.832 E30.19522
G1 X144.928 Y103.466 E30.22903
G1 X145.211 Y104.135 E30.26285
G1 X145.419 Y104.831 E30.29668
G1 X145.549 Y105.546 E30.33052
G1 X145.6 Y106.367 E30.36882
G1 X145.6 Y113.633 E30.70715
G1 X145.56 Y114.358 E30.74096
G1 X145.441 Y115.075 E30.77481
G1 X145.243 Y115.774 E30.80864
G1 X144.97 Y116.447 E30.84245
G1 X144.625 Y117.086 E30.87627
G1 X144.211 Y117.683 E30.9101
G1 X143.667 Y118.3 E30.9484
G1 X143.55 Y118.417 E30.9561
G1 X143.009 Y118.901 E30.98991
G1 X142.418 Y119.324 E31.02375
G1 X141.784 Y119.678 E31.05756
G1 X141.115 Y119.961 E31.09138
G1 X140.419 Y120.169 E31.12521
G1 X139.704 Y120.299 E31.15905
G1 X138.883 Y120.35 E31.19735
G1 X122.237 Y120.351 E31.97246
G1 X121.892 Y120.874 E32.00163
G1 X121.664 Y121.164 E32.01881
G1 X121.316 Y121.582 E32.04414
G1 X120.821 Y122.114 E32.07797
G1 X120.271 Y122.588 E32.11178
G1 X119.672 Y122.999 E32.14561
G1 X118.974 Y123.368 E32.18237
G1 X118.448 Y123.607 E32.20927
G1 X117.611 Y123.921 E32.2509
G1 X117.257 Y124.027 E32.26811
G1 X116.193 Y124.252 E32.31875
G1 X113.035 Y124.651 E32.46697
G1 X112.646 Y124.694 E32.48519
G1 X106.963 Y125.415 E32.75194
G1 X106.74 Y125.439 E32.76238
G1 X106.476 Y125.463 E32.77472
G1 X104.954 Y125.652 E32.84614
G1 X104.537 Y125.709 E32.86574
G1 X98.93 Y126.409 E33.12885
G1 X98.325 Y126.477 E33.1572
G1 X98.07 Y126.5 E33.16912
G1 X97.824 Y126.518 E33.1806
G1 X97.097 Y126.531 E33.21446
G1 X96.763 Y126.501 E33.23008
G1 X96.497 Y126.549 E33.24266
G1 X95.676 Y126.6 E33.28097
G1 X81.117 Y126.6 E33.95889
G1 X80.392 Y126.56 E33.9927
G1 X79.675 Y126.441 E34.02655
G1 X78.976 Y126.243 E34.06038
G1 X78.303 Y125.97 E34.09419
G1 X77.664 Y125.625 E34.12801
G1 X77.067 Y125.211 E34.16184
G1 X76.45 Y124.667 E34.20014
G1 X76.333 Y124.55 E34.20784
G1 X75.849 Y124.009 E34.24165
G1 X75.426 Y123.418 E34.27549
G1 X75.072 Y122.784 E34.3093
G1 X74.789 Y122.115 E34.34312
G1 X74.581 Y121.419 E34.37695
G1 X74.451 Y120.704 E34.41079
G1 X74.4 Y119.883 E34.44909
G1 X74.4 Y100.117 E35.36948
G1 X74.44 Y99.392 E35.40329
G1 X74.559 Y98.675 E35.43713
G1 X74.757 Y97.976 E35.47096
G1 X75.03 Y97.303 E35.50478
G1 X75.375 Y96.664 E35.53859
G1 X75.789 Y96.067 E35.57242
G1 X76.333 Y95.45 E35.61072
G1 X76.45 Y95.333 E35.61843
G1 X76.991 Y94.849 E35.65223
G0 F6000 X77.258 Y95.147
G1 F1200 X77.833 Y94.741 E35.68501
G1 X78.451 Y94.403 E35.71781
