;FLAVOR:Marlin
;TIME:7889
;Filament used: 6.88928m
;Layer height: 0.28
;MINX:76.95
;MINY:68.7
;MINZ:0.28
;MAXX:143.05
;MAXY:151.3
;MAXZ:24.64
;Generated with Cura_SteamEngine 4.8.0
M140 S60
M105
M190 S60
M104 S200
M105
M109 S200
M82 ;absolute extrusion mode
; Ender 3 Custom Start G-code
G92 E0 ; Reset Extruder
G28 ; Home all axes
G1 Z2.0 F3000 ; Move Z Axis up little to prevent scratching of Heat Bed
G1 X0.1 Y20 Z0.3 F5000.0 ; Move to start position
G1 X0.1 Y200.0 Z0.3 F1500.0 E15 ; Draw the first line
G1 X0.4 Y200.0 Z0.3 F5000.0 ; Move to side a little
G1 X0.4 Y20 Z0.3 F1500.0 E30 ; Draw the second line
G92 E0 ; Reset Extruder
G1 Z2.0 F3000 ; Move Z Axis up little to prevent scratching of Heat Bed
G1 X5 Y20 Z0.3 F5000.0 ; Move over to prevent blob squish
G92 E0
G92 E0
G1 F1500 E-6.5
;LAYER_COUNT:88
;LAYER:0
M107
G0 F6000 X80.992 Y85.177 Z0.28
;TYPE:SKIRT
G1 F1500 E0
G1 F1200 X81.829 Y84.455 E0.05147
G1 X82.379 Y84.045 E0.08341
G1 X83.302 Y83.453 E0.13447
G1 X83.941 Y83.104 E0.16838
G1 X84.946 Y82.645 E0.21982
G1 X85.598 Y82.401 E0.25224
G1 X86.658 Y82.088 E0.3037
G1 X87.359 Y81.934 E0.33712
G1 X88.46 Y81.773 E0.38894
G1 X89.166 Y81.721 E0.4219
G1 X89.739 Y81.7 E0.4486
G1 X98.45 Y81.7 E0.85422
G1 X98.45 Y76.617 E1.09091
G1 X98.49 Y75.828 E1.12769
G1 X98.609 Y75.048 E1.16443
G1 X98.807 Y74.283 E1.20123
G1 X99.081 Y73.543 E1.23797
G1 X99.429 Y72.834 E1.27475
G1 X99.847 Y72.163 E1.31156
G1 X100.33 Y71.539 E1.3483
G1 X100.735 Y71.102 E1.37605
G1 X100.852 Y70.985 E1.38375
G1 X101.438 Y70.455 E1.42054
G1 X102.074 Y69.988 E1.45728
G1 X102.754 Y69.587 E1.49404
G1 X103.472 Y69.257 E1.53084
G1 X104.219 Y69.002 E1.56759
G1 X104.988 Y68.823 E1.60436
G1 X105.772 Y68.723 E1.64116
G1 X106.367 Y68.7 E1.66889
G1 X113.633 Y68.7 E2.00722
G1 X114.422 Y68.74 E2.04401
G1 X115.202 Y68.859 E2.08075
G1 X115.967 Y69.057 E2.11754
G1 X116.707 Y69.331 E2.15429
G1 X117.416 Y69.679 E2.19106
G1 X118.087 Y70.097 E2.22787
G1 X118.711 Y70.58 E2.26462
G1 X119.148 Y70.985 E2.29236
G1 X119.265 Y71.102 E2.30007
G1 X119.795 Y71.688 E2.33686
G1 X120.262 Y72.324 E2.3736
G1 X120.663 Y73.004 E2.41036
G1 X120.993 Y73.722 E2.44715
G1 X121.248 Y74.469 E2.48391
G1 X121.427 Y75.238 E2.52067
G1 X121.527 Y76.022 E2.55747
G1 X121.55 Y76.616 E2.58515
G1 X121.55 Y81.7 E2.82189
G1 X130.268 Y81.7 E3.22783
G1 X130.851 Y81.722 E3.255
G1 X131.558 Y81.775 E3.28801
G1 X132.659 Y81.937 E3.33983
G1 X133.351 Y82.09 E3.37283
G1 X134.418 Y82.407 E3.42466
G1 X135.084 Y82.658 E3.4578
G1 X136.084 Y83.118 E3.50906
G1 X136.713 Y83.463 E3.54246
G1 X137.63 Y84.053 E3.59324
G1 X138.191 Y84.472 E3.62584
G1 X139.049 Y85.216 E3.67872
G1 X139.567 Y85.736 E3.7129
G1 X140.295 Y86.579 E3.76476
G1 X140.705 Y87.129 E3.79671
G1 X141.297 Y88.052 E3.84777
G1 X141.646 Y88.691 E3.88167
G1 X142.105 Y89.696 E3.93312
G1 X142.349 Y90.348 E3.96553
G1 X142.662 Y91.408 E4.017
G1 X142.816 Y92.109 E4.05042
G1 X142.977 Y93.209 E4.10218
G1 X143.029 Y93.914 E4.1351
G1 X143.05 Y94.488 E4.16185
G1 X143.05 Y138.519 E6.21211
G1 X143.028 Y139.103 E6.23933
G1 X142.975 Y139.809 E6.27229
G1 X142.813 Y140.911 E6.32416
G1 X142.66 Y141.602 E6.35711
G1 X142.344 Y142.663 E6.40866
G1 X142.093 Y143.33 E6.44185
G1 X141.632 Y144.334 E6.49329
G1 X141.287 Y144.963 E6.5267
G1 X140.696 Y145.881 E6.57754
G1 X140.276 Y146.443 E6.6102
G1 X139.533 Y147.3 E6.66302
G1 X139.014 Y147.817 E6.69713
G1 X138.171 Y148.545 E6.749
G1 X137.621 Y148.955 E6.78094
G1 X136.693 Y149.549 E6.83224
G1 X136.053 Y149.898 E6.86619
G1 X135.057 Y150.354 E6.9172
G1 X134.406 Y150.598 E6.94957
G1 X133.342 Y150.912 E7.00123
G1 X132.641 Y151.066 E7.03465
G1 X131.54 Y151.227 E7.08646
G1 X130.834 Y151.279 E7.11942
G1 X130.261 Y151.3 E7.14612
G1 X106.982 Y151.3 E8.23009
G1 X106.399 Y151.278 E8.25725
G1 X105.692 Y151.225 E8.29027
G1 X104.591 Y151.063 E8.34209
G1 X103.899 Y150.91 E8.37509
G1 X102.829 Y150.591 E8.42708
G1 X102.164 Y150.34 E8.46018
G1 X101.172 Y149.884 E8.51101
G1 X100.542 Y149.539 E8.54446
G1 X99.619 Y148.946 E8.59554
G1 X99.057 Y148.526 E8.62821
G1 X98.2 Y147.783 E8.68103
G1 X97.683 Y147.264 E8.71514
G1 X96.955 Y146.421 E8.767
G1 X96.545 Y145.871 E8.79895
G1 X95.953 Y144.948 E8.85001
G1 X95.604 Y144.309 E8.88391
G1 X95.144 Y143.303 E8.93542
G1 X94.899 Y142.648 E8.96798
G1 X94.585 Y141.582 E9.01973
G1 X94.431 Y140.878 E9.05328
G1 X94.272 Y139.779 E9.10499
G1 X94.221 Y139.08 E9.13763
G1 X94.2 Y138.512 E9.16409
G1 X94.199 Y114.3 E10.2915
G1 X88.735 Y114.3 E10.54593
G1 X88.111 Y114.275 E10.57501
G1 X87.5 Y114.226 E10.60355
G1 X86.718 Y114.123 E10.64028
G1 X86.303 Y114.036 E10.66002
G1 X85.699 Y113.891 E10.68895
G1 X84.942 Y113.668 E10.7257
G1 X84.545 Y113.516 E10.74549
G1 X83.956 Y113.273 E10.77516
G1 X83.242 Y112.936 E10.81192
G1 X82.844 Y112.707 E10.8333
G1 X82.314 Y112.381 E10.86228
G1 X81.664 Y111.934 E10.89901
G1 X81.323 Y111.657 E10.91947
G1 X80.845 Y111.247 E10.94879
G1 X80.013 Y110.418 E11.00348
G1 X79.609 Y109.949 E11.03231
G1 X79.125 Y109.325 E11.06908
G1 X78.857 Y108.915 E11.09189
G1 X78.519 Y108.36 E11.12214
G1 X78.143 Y107.666 E11.1589
G1 X77.97 Y107.277 E11.17872
G1 X77.73 Y106.695 E11.20804
G1 X77.466 Y105.95 E11.24484
G1 X77.353 Y105.527 E11.26523
G1 X77.21 Y104.926 E11.29399
G1 X77.066 Y104.149 E11.33079
G1 X77.022 Y103.735 E11.35018
G1 X76.974 Y103.128 E11.37853
G1 X76.95 Y102.513 E11.40719
G1 X76.95 Y94.481 E11.78119
G1 X76.972 Y93.897 E11.8084
G1 X77.025 Y93.191 E11.84137
G1 X77.187 Y92.091 E11.89314
G1 X77.34 Y91.399 E11.92614
G1 X77.657 Y90.332 E11.97797
G1 X77.908 Y89.666 E12.01112
G1 X78.368 Y88.666 E12.06237
G1 X78.713 Y88.037 E12.09578
G1 X79.313 Y87.106 E12.14735
G1 X79.743 Y86.533 E12.18071
G1 X80.483 Y85.683 E12.23319
G1 X80.992 Y85.177 E12.26661
G0 F6000 X81.274 Y85.461
G1 F1200 X82.068 Y84.776 E12.31543
G1 X82.618 Y84.366 E12.34738
G1 X83.494 Y83.805 E12.39582
G1 X84.133 Y83.456 E12.42972
G1 X85.086 Y83.019 E12.47854
G1 X85.738 Y82.775 E12.51095
G1 X86.744 Y82.478 E12.5598
G1 X87.445 Y82.324 E12.59322
G1 X88.489 Y82.172 E12.64234
G1 X89.195 Y82.12 E12.6753
G1 X89.739 Y82.1 E12.70065
G1 X98.85 Y82.1 E13.1249
G1 X98.85 Y76.617 E13.38021
G1 X98.89 Y75.849 E13.41602
G1 X99.009 Y75.089 E13.45184
G1 X99.207 Y74.346 E13.48764
G1 X99.481 Y73.627 E13.52347
G1 X99.828 Y72.941 E13.55927
G1 X100.244 Y72.294 E13.59509
G1 X100.725 Y71.694 E13.6309
G1 X101.017 Y71.384 E13.65073
G1 X101.134 Y71.267 E13.65843
G1 X101.706 Y70.753 E13.69424
G1 X102.328 Y70.3 E13.73007
G1 X102.993 Y69.914 E13.76587
G1 X103.695 Y69.599 E13.8017
G1 X104.426 Y69.359 E13.83753
G1 X105.177 Y69.196 E13.87331
G1 X105.942 Y69.112 E13.90915
G1 X106.367 Y69.1 E13.92894
G1 X113.633 Y69.1 E14.26728
G1 X114.401 Y69.14 E14.30309
G1 X115.161 Y69.259 E14.33891
G1 X115.904 Y69.457 E14.37471
G1 X116.623 Y69.731 E14.41054
G1 X117.309 Y70.078 E14.44634
G1 X117.956 Y70.494 E14.48216
G1 X118.556 Y70.975 E14.51796
G1 X118.866 Y71.267 E14.53779
G1 X118.983 Y71.384 E14.5455
G1 X119.497 Y71.956 E14.58131
G1 X119.95 Y72.578 E14.61714
G1 X120.336 Y73.243 E14.65294
G1 X120.651 Y73.945 E14.68877
G1 X120.891 Y74.676 E14.72459
G1 X121.054 Y75.427 E14.76038
G1 X121.138 Y76.192 E14.79621
G1 X121.15 Y76.616 E14.81597
G1 X121.15 Y82.1 E15.07132
G1 X130.268 Y82.1 E15.4959
G1 X130.821 Y82.121 E15.52166
G1 X131.528 Y82.174 E15.55468
G1 X132.573 Y82.328 E15.60386
G1 X133.265 Y82.481 E15.63686
G1 X134.277 Y82.781 E15.68601
G1 X134.943 Y83.032 E15.71915
G1 X135.892 Y83.469 E15.7678
G1 X136.521 Y83.814 E15.80121
G1 X137.39 Y84.373 E15.84932
G1 X137.951 Y84.792 E15.88193
G1 X138.766 Y85.499 E15.93217
G1 X139.284 Y86.019 E15.96634
G1 X139.974 Y86.818 E16.0155
G1 X140.384 Y87.368 E16.04744
G1 X140.945 Y88.244 E16.09588
G1 X141.294 Y88.883 E16.12978
G1 X141.731 Y89.836 E16.1786
G1 X141.975 Y90.488 E16.21102
G1 X142.272 Y91.494 E16.25986
G1 X142.426 Y92.195 E16.29328
G1 X142.578 Y93.239 E16.34241
G1 X142.63 Y93.944 E16.37532
G1 X142.65 Y94.488 E16.40067
G1 X142.65 Y138.519 E18.45094
G1 X142.629 Y139.073 E18.47676
G1 X142.576 Y139.779 E18.50972
G1 X142.422 Y140.825 E18.55895
G1 X142.269 Y141.516 E18.59191
G1 X141.97 Y142.522 E18.64078
G1 X141.719 Y143.189 E18.67396
G1 X141.281 Y144.142 E18.7228
G1 X140.936 Y144.771 E18.75621
G1 X140.376 Y145.642 E18.80442
G1 X139.956 Y146.204 E18.83709
G1 X139.25 Y147.017 E18.88723
G1 X138.731 Y147.534 E18.92134
G1 X137.932 Y148.224 E18.9705
G1 X137.382 Y148.634 E19.00244
G1 X136.502 Y149.198 E19.05111
G1 X135.862 Y149.547 E19.08506
G1 X134.916 Y149.979 E19.13348
G1 X134.265 Y150.223 E19.16585
G1 X133.256 Y150.522 E19.21486
G1 X132.555 Y150.676 E19.24828
G1 X131.511 Y150.828 E19.2974
G1 X130.805 Y150.88 E19.33037
G1 X130.261 Y150.9 E19.35571
G1 X106.982 Y150.9 E20.43968
G1 X106.429 Y150.879 E20.46545
G1 X105.722 Y150.826 E20.49846
G1 X104.677 Y150.672 E20.54765
G1 X103.985 Y150.519 E20.58065
G1 X102.97 Y150.217 E20.62996
G1 X102.305 Y149.966 E20.66306
G1 X101.364 Y149.534 E20.71127
G1 X100.734 Y149.189 E20.74472
G1 X99.858 Y148.626 E20.7932
G1 X99.296 Y148.206 E20.82587
G1 X98.483 Y147.5 E20.87601
G1 X97.966 Y146.981 E20.91012
G1 X97.276 Y146.182 E20.95928
G1 X96.866 Y145.632 E20.99122
G1 X96.305 Y144.756 E21.03966
G1 X95.956 Y144.117 E21.07357
G1 X95.519 Y143.163 E21.12243
G1 X95.274 Y142.508 E21.15499
G1 X94.976 Y141.496 E21.20411
G1 X94.822 Y140.792 E21.23767
G1 X94.671 Y139.749 E21.28674
G1 X94.62 Y139.05 E21.31938
G1 X94.6 Y138.512 E21.34445
G1 X94.599 Y113.9 E22.49048
G1 X88.735 Y113.9 E22.76354
G1 X88.143 Y113.876 E22.79113
G1 X87.532 Y113.827 E22.81967
G1 X86.397 Y113.647 E22.87318
G1 X85.793 Y113.502 E22.9021
G1 X84.698 Y113.147 E22.9557
G1 X84.109 Y112.904 E22.98537
G1 X83.414 Y112.574 E23.0212
G1 X83.054 Y112.366 E23.04056
G1 X82.524 Y112.04 E23.06953
G1 X81.891 Y111.604 E23.10532
G1 X81.583 Y111.354 E23.12379
G1 X81.105 Y110.944 E23.15312
G1 X80.316 Y110.157 E23.20501
G1 X79.912 Y109.688 E23.23383
G1 X79.441 Y109.08 E23.26964
G1 X79.199 Y108.707 E23.29035
G1 X78.861 Y108.152 E23.32061
G1 X78.34 Y107.124 E23.37427
G1 X78.1 Y106.542 E23.40358
G1 X77.844 Y105.817 E23.43939
G1 X77.742 Y105.434 E23.45784
G1 X77.599 Y104.833 E23.48661
G1 X77.421 Y103.703 E23.53987
G1 X77.373 Y103.096 E23.56823
G1 X77.35 Y102.513 E23.59539
G1 X77.35 Y94.481 E23.9694
G1 X77.371 Y93.927 E23.99521
G1 X77.424 Y93.221 E24.02818
G1 X77.578 Y92.177 E24.07732
G1 X77.731 Y91.485 E24.11032
G1 X78.031 Y90.473 E24.15947
G1 X78.282 Y89.807 E24.19261
G1 X78.719 Y88.858 E24.24126
G1 X79.064 Y88.229 E24.27467
G1 X79.633 Y87.346 E24.32358
G1 X80.063 Y86.773 E24.35694
G1 X80.765 Y85.967 E24.40671
G1 X81.274 Y85.461 E24.44013
G0 F6000 X81.556 Y85.745
G1 F1200 X82.307 Y85.097 E24.48632
G1 X82.857 Y84.687 E24.51826
G1 X83.686 Y84.156 E24.5641
G1 X84.325 Y83.807 E24.598
G1 X85.227 Y83.394 E24.6442
G1 X85.879 Y83.15 E24.67661
G1 X86.83 Y82.869 E24.72279
G1 X87.531 Y82.715 E24.75621
G1 X88.519 Y82.571 E24.8027
G1 X89.225 Y82.519 E24.83566
G1 X89.739 Y82.5 E24.85961
G1 X99.25 Y82.5 E25.30249
G1 X99.25 Y76.617 E25.57642
G1 X99.29 Y75.87 E25.61126
G1 X99.409 Y75.132 E25.64606
G1 X99.607 Y74.41 E25.68093
G1 X99.88 Y73.714 E25.71574
G1 X100.227 Y73.051 E25.75058
G1 X100.642 Y72.428 E25.78544
G1 X101.3 Y71.667 E25.83228
G1 X101.417 Y71.55 E25.83999
G1 X101.974 Y71.05 E25.87484
G1 X102.58 Y70.613 E25.90963
G1 X103.23 Y70.242 E25.94448
G1 X103.916 Y69.943 E25.97933
G1 X104.63 Y69.719 E26.01417
G1 X105.363 Y69.572 E26.04898
G1 X106.367 Y69.5 E26.09585
G1 X113.633 Y69.5 E26.43419
G1 X114.38 Y69.54 E26.46902
G1 X115.118 Y69.659 E26.50383
G1 X115.84 Y69.857 E26.53869
G1 X116.536 Y70.13 E26.5735
G1 X117.199 Y70.477 E26.60835
G1 X117.822 Y70.892 E26.6432
G1 X118.583 Y71.55 E26.69005
G1 X118.7 Y71.667 E26.69775
G1 X119.2 Y72.224 E26.73261
G1 X119.637 Y72.83 E26.7674
G1 X120.008 Y73.48 E26.80225
G1 X120.307 Y74.166 E26.83709
G1 X120.531 Y74.88 E26.87194
G1 X120.678 Y75.613 E26.90675
G1 X120.75 Y76.616 E26.95357
G1 X120.75 Y82.5 E27.22755
G1 X130.268 Y82.5 E27.67075
G1 X130.791 Y82.52 E27.69512
G1 X131.498 Y82.573 E27.72814
G1 X132.486 Y82.718 E27.77464
G1 X133.178 Y82.871 E27.80764
G1 X134.136 Y83.156 E27.85418
G1 X134.802 Y83.407 E27.88732
G1 X135.699 Y83.82 E27.9333
G1 X136.328 Y84.165 E27.96671
G1 X137.151 Y84.694 E28.01226
G1 X137.712 Y85.113 E28.04487
G1 X138.482 Y85.781 E28.09233
G1 X139 Y86.301 E28.12651
G1 X139.653 Y87.057 E28.17303
G1 X140.063 Y87.607 E28.20497
G1 X140.594 Y88.436 E28.25081
G1 X140.943 Y89.075 E28.28471
G1 X141.356 Y89.977 E28.33091
G1 X141.6 Y90.629 E28.36332
G1 X141.881 Y91.58 E28.4095
G1 X142.035 Y92.281 E28.44292
G1 X142.179 Y93.268 E28.48936
G1 X142.231 Y93.973 E28.52228
G1 X142.25 Y94.488 E28.54628
G1 X142.25 Y138.519 E30.59655
G1 X142.23 Y139.043 E30.62096
G1 X142.177 Y139.749 E30.65393
G1 X142.031 Y140.738 E30.70048
G1 X141.878 Y141.429 E30.73344
G1 X141.595 Y142.381 E30.77968
G1 X141.344 Y143.048 E30.81287
G1 X140.93 Y143.949 E30.85904
G1 X140.585 Y144.578 E30.89244
G1 X140.055 Y145.402 E30.93806
G1 X139.635 Y145.964 E30.97073
G1 X138.968 Y146.733 E31.01813
G1 X138.449 Y147.25 E31.05225
G1 X137.693 Y147.903 E31.09876
G1 X137.143 Y148.313 E31.13071
G1 X136.31 Y148.847 E31.17678
G1 X135.67 Y149.196 E31.21072
G1 X134.776 Y149.605 E31.2565
G1 X134.125 Y149.849 E31.28887
G1 X133.17 Y150.131 E31.33524
G1 X132.469 Y150.285 E31.36866
G1 X131.481 Y150.429 E31.41515
G1 X130.775 Y150.481 E31.44812
G1 X130.261 Y150.5 E31.47207
G1 X106.982 Y150.5 E32.55603
G1 X106.459 Y150.48 E32.5804
G1 X105.752 Y150.427 E32.61342
G1 X104.764 Y150.282 E32.65992
G1 X104.072 Y150.129 E32.69292
G1 X103.111 Y149.843 E32.7396
G1 X102.446 Y149.592 E32.7727
G1 X101.556 Y149.183 E32.81831
G1 X100.926 Y148.838 E32.85176
G1 X100.098 Y148.305 E32.89761
G1 X99.536 Y147.885 E32.93028
G1 X98.767 Y147.218 E32.97768
G1 X98.25 Y146.699 E33.01179
G1 X97.597 Y145.943 E33.05831
G1 X97.187 Y145.393 E33.09025
G1 X96.656 Y144.564 E33.13609
G1 X96.307 Y143.925 E33.16999
G1 X95.894 Y143.022 E33.21623
G1 X95.649 Y142.367 E33.24879
G1 X95.367 Y141.411 E33.29521
G1 X95.213 Y140.707 E33.32876
G1 X95.07 Y139.72 E33.3752
G1 X95.019 Y139.021 E33.40784
G1 X95 Y138.512 E33.43155
G1 X94.999 Y113.685 E34.5876
G1 X94.988 Y113.512 E34.59567
G1 X94.79 Y113.5 E34.60491
G1 X88.735 Y113.5 E34.88686
G1 X88.175 Y113.478 E34.91295
G1 X87.564 Y113.429 E34.9415
G1 X86.49 Y113.258 E34.99214
G1 X85.886 Y113.113 E35.02106
G1 X84.85 Y112.777 E35.07177
G1 X84.261 Y112.534 E35.10144
G1 X83.264 Y112.025 E35.15357
G1 X82.734 Y111.699 E35.18254
G1 X81.844 Y111.05 E35.23383
G1 X81.366 Y110.64 E35.26316
G1 X80.619 Y109.896 E35.31225
G1 X80.215 Y109.427 E35.34107
G1 X79.758 Y108.835 E35.3759
G1 X79.54 Y108.499 E35.39455
G1 X79.202 Y107.944 E35.4248
G1 X78.71 Y106.972 E35.47553
G1 X78.47 Y106.39 E35.50485
G1 X78.131 Y105.341 E35.55618
G1 X77.988 Y104.74 E35.58495
G1 X77.82 Y103.672 E35.63529
G1 X77.772 Y103.065 E35.66364
G1 X77.75 Y102.513 E35.68936
G1 X77.75 Y94.481 E36.06337
G1 X77.77 Y93.957 E36.08779
G1 X77.823 Y93.251 E36.12075
G1 X77.968 Y92.264 E36.1672
G1 X78.121 Y91.572 E36.20021
G1 X78.406 Y90.614 E36.24675
G1 X78.657 Y89.948 E36.27989
G1 X79.07 Y89.051 E36.32587
G1 X79.415 Y88.422 E36.35927
G1 X79.953 Y87.586 E36.40557
G1 X80.383 Y87.013 E36.43893
G1 X81.047 Y86.251 E36.48599
G1 X81.556 Y85.745 E36.51941
G0 F6000 X81.838 Y86.028
G1 F1200 X82.546 Y85.417 E36.56295
G1 X83.096 Y85.007 E36.5949
G1 X83.877 Y84.507 E36.63808
G1 X84.516 Y84.158 E36.67198
G1 X85.367 Y83.769 E36.71555
G1 X86.019 Y83.525 E36.74797
G1 X86.916 Y83.26 E36.79152
G1 X87.617 Y83.106 E36.82494
G1 X88.548 Y82.97 E36.86875
G1 X89.254 Y82.918 E36.90172
G1 X89.739 Y82.9 E36.92431
G1 X99.65 Y82.9 E37.38581
G1 X99.65 Y76.617 E37.67837
