;FLAVOR:Marlin
;TIME:1795
;Filament used: 1.48175m
;Layer height: 0.28
;MINX:86.5
;MINY:82
;MINZ:0.28
;MAXX:133.5
;MAXY:137.999
;MAXZ:14.84
;Generated with Cura_SteamEngine 4.8.0
M140 S60
M105
M190 S60
M104 S200
M105
M109 S200
M82 ;absolute extrusion mode
; Ender 3 Custom Start G-code
G92 E0 ; Reset Extruder
G28 ; Home all axes
G1 Z2.0 F3000 ; Move Z Axis up little to prevent scratching of Heat Bed
G1 X0.1 Y20 Z0.3 F5000.0 ; Move to start position
G1 X0.1 Y200.0 Z0.3 F1500.0 E15 ; Draw the first line
G1 X0.4 Y200.0 Z0.3 F5000.0 ; Move to side a little
G1 X0.4 Y20 Z0.3 F1500.0 E30 ; Draw the second line
G92 E0 ; Reset Extruder
G1 Z2.0 F3000 ; Move Z Axis up little to prevent scratching of Heat Bed
G1 X5 Y20 Z0.3 F5000.0 ; Move over to prevent blob squish
G92 E0
G92 E0
G1 F1500 E-6.5
;LAYER_COUNT:53
;LAYER:0
M107
G0 F6000 X89.71 Y85.252 Z0.28
;TYPE:SKIRT
G1 F1500 E0
G1 F1200 X90.399 Y84.616 E0.04366
G1 X91.14 Y84.041 E0.08734
G1 X91.927 Y83.531 E0.131
G1 X92.755 Y83.09 E0.17469
G1 X93.617 Y82.721 E0.21835
G1 X94.508 Y82.427 E0.26204
G1 X95.42 Y82.209 E0.3057
G1 X96.347 Y82.071 E0.34934
G1 X97.201 Y82.013 E0.3892
G1 X97.521 Y82.004 E0.4041
G1 X97.83 Y82 E0.41849
G1 X102.793 Y82 E0.64959
G1 X103.655 Y82.011 E0.68973
G1 X103.958 Y82.02 E0.70385
G1 X105.15 Y82.07 E0.7594
G1 X105.335 Y82.07 E0.76802
G1 X107.046 Y82.136 E0.84775
G1 X109.536 Y82.161 E0.9637
G1 X112.052 Y82.116 E1.08087
G1 X114.044 Y82.026 E1.17372
G1 X114.73 Y82.005 E1.20568
G1 X115.052 Y82 E1.22068
G1 X121.951 Y82.001 E1.54192
G1 X122.649 Y82.011 E1.57443
G1 X123.585 Y82.065 E1.61808
G1 X124.513 Y82.197 E1.66173
G1 X125.427 Y82.409 E1.70542
G1 X126.319 Y82.698 E1.74908
G1 X127.184 Y83.061 E1.79276
G1 X128.014 Y83.497 E1.83642
G1 X128.805 Y84.002 E1.88012
G1 X129.549 Y84.573 E1.92379
G1 X130.242 Y85.205 E1.96746
G1 X130.879 Y85.893 E2.01112
G1 X131.454 Y86.634 E2.05479
G1 X131.965 Y87.42 E2.09845
G1 X132.407 Y88.248 E2.14215
G1 X132.776 Y89.11 E2.18581
G1 X133.071 Y90 E2.22947
G1 X133.289 Y90.912 E2.27313
G1 X133.429 Y91.84 E2.31684
G1 X133.487 Y92.701 E2.35702
G1 X133.496 Y93.021 E2.37192
G1 X133.5 Y93.33 E2.38631
G1 X133.499 Y123.467 E3.78962
G1 X133.493 Y123.863 E3.80806
G1 X133.481 Y124.229 E3.82511
G1 X133.446 Y124.951 E3.85877
G1 X133.32 Y126.16 E3.91537
G1 X133.303 Y126.266 E3.92037
G1 X133.187 Y126.881 E3.94951
G1 X133.128 Y127.15 E3.96234
G1 X132.889 Y128.053 E4.00583
G1 X132.862 Y128.14 E4.01007
G1 X132.721 Y128.563 E4.03084
G1 X132.624 Y128.836 E4.04433
G1 X132.247 Y129.763 E4.09092
G1 X132.205 Y129.854 E4.09559
G1 X131.995 Y130.283 E4.11783
G1 X131.861 Y130.543 E4.13145
G1 X131.429 Y131.305 E4.17224
G1 X131.375 Y131.392 E4.17701
G1 X131.073 Y131.852 E4.20263
G1 X130.911 Y132.086 E4.21588
G1 X130.311 Y132.875 E4.26204
G1 X130.225 Y132.978 E4.26829
G1 X129.942 Y133.303 E4.28835
G1 X129.773 Y133.49 E4.30009
G1 X129.13 Y134.145 E4.34283
G1 X129.036 Y134.233 E4.34882
G1 X128.611 Y134.611 E4.37531
G1 X128.4 Y134.789 E4.38816
G1 X127.71 Y135.325 E4.42885
G1 X127.622 Y135.388 E4.43389
G1 X127.163 Y135.7 E4.45973
G1 X126.931 Y135.849 E4.47257
G1 X126.19 Y136.285 E4.5126
G1 X126.095 Y136.336 E4.51762
G1 X125.591 Y136.59 E4.5439
G1 X125.337 Y136.71 E4.55699
G1 X124.562 Y137.04 E4.59621
G1 X124.452 Y137.082 E4.60169
G1 X123.865 Y137.288 E4.63066
G1 X123.598 Y137.373 E4.64371
G1 X122.722 Y137.612 E4.68599
G1 X122.6 Y137.64 E4.69181
G1 X122.084 Y137.746 E4.71634
G1 X121.828 Y137.792 E4.72846
G1 X120.824 Y137.925 E4.77561
G1 X120.661 Y137.939 E4.78323
G1 X119.919 Y137.977 E4.81783
G1 X118.615 Y137.999 E4.87856
G1 X101.039 Y137.999 E5.69697
G1 X100.634 Y137.993 E5.71583
G1 X100.273 Y137.982 E5.73265
G1 X99.56 Y137.948 E5.76588
G1 X98.276 Y137.81 E5.82602
G1 X98.168 Y137.792 E5.83112
G1 X97.607 Y137.684 E5.85772
G1 X97.344 Y137.626 E5.87026
G1 X96.51 Y137.407 E5.91041
G1 X96.418 Y137.379 E5.91489
G1 X95.964 Y137.23 E5.93714
G1 X95.686 Y137.132 E5.95086
G1 X94.609 Y136.687 E6.00512
G1 X94.249 Y136.511 E6.02378
G1 X93.983 Y136.375 E6.03769
G1 X93.1 Y135.871 E6.08504
G1 X93.018 Y135.819 E6.08956
G1 X92.632 Y135.562 E6.11115
G1 X92.396 Y135.398 E6.12453
G1 X91.639 Y134.822 E6.16883
G1 X91.538 Y134.738 E6.17494
G1 X91.213 Y134.457 E6.19495
G1 X91.023 Y134.286 E6.20685
G1 X90.303 Y133.575 E6.25397
G1 X90.218 Y133.483 E6.2598
G1 X89.878 Y133.098 E6.28372
G1 X89.693 Y132.878 E6.2971
G1 X89.138 Y132.159 E6.3394
G1 X89.082 Y132.08 E6.34391
G1 X88.812 Y131.681 E6.36634
G1 X88.663 Y131.45 E6.37914
G1 X88.171 Y130.607 E6.42459
G1 X88.12 Y130.51 E6.42969
G1 X87.905 Y130.078 E6.45216
G1 X87.775 Y129.802 E6.46637
G1 X87.402 Y128.912 E6.5113
G1 X87.37 Y128.825 E6.51562
G1 X87.212 Y128.365 E6.53827
G1 X87.127 Y128.098 E6.55131
G1 X86.869 Y127.138 E6.5976
G1 X86.842 Y127.016 E6.60342
G1 X86.763 Y126.625 E6.62199
G1 X86.716 Y126.369 E6.63411
G1 X86.575 Y125.32 E6.6834
G1 X86.562 Y125.168 E6.6905
G1 X86.524 Y124.436 E6.72463
G1 X86.502 Y123.257 E6.77954
G1 X86.5 Y123.052 E6.78909
G1 X86.501 Y93.509 E8.16473
G1 X86.511 Y92.844 E8.1957
G1 X86.565 Y91.907 E8.23941
G1 X86.699 Y90.979 E8.28307
G1 X86.911 Y90.065 E8.32676
G1 X87.2 Y89.173 E8.37042
G1 X87.565 Y88.309 E8.41409
G1 X88.001 Y87.479 E8.45775
G1 X88.507 Y86.689 E8.50143
G1 X89.078 Y85.945 E8.5451
G1 X89.71 Y85.252 E8.58877
G0 F6000 X90.102 Y85.427
G1 F1200 X90.788 Y84.813 E8.63164
G1 X91.524 Y84.261 E8.67448
G1 X92.306 Y83.774 E8.71738
G1 X93.127 Y83.358 E8.76024
G1 X93.981 Y83.014 E8.80311
G1 X94.861 Y82.745 E8.84596
G1 X95.762 Y82.554 E8.88884
G1 X96.676 Y82.442 E8.93172
G1 X97.212 Y82.413 E8.95671
G1 X97.532 Y82.404 E8.97162
G1 X97.83 Y82.4 E8.9855
G1 X102.793 Y82.4 E9.2166
G1 X103.649 Y82.411 E9.25646
G1 X103.941 Y82.419 E9.27006
G1 X105.058 Y82.466 E9.32212
G1 X105.319 Y82.47 E9.33427
G1 X107.025 Y82.536 E9.41377
G1 X109.539 Y82.561 E9.53084
G1 X112.077 Y82.516 E9.64904
G1 X114.062 Y82.426 E9.74156
G1 X114.742 Y82.405 E9.77324
G1 X115.052 Y82.4 E9.78768
G1 X121.945 Y82.401 E10.10865
G1 X122.643 Y82.411 E10.14115
G1 X123.562 Y82.464 E10.18401
G1 X124.473 Y82.597 E10.22688
G1 X125.369 Y82.808 E10.26975
G1 X126.243 Y83.096 E10.3126
G1 X127.09 Y83.459 E10.35551
G1 X127.901 Y83.894 E10.39836
G1 X128.671 Y84.398 E10.44121
G1 X129.395 Y84.967 E10.48409
G1 X130.067 Y85.597 E10.52698
G1 X130.682 Y86.282 E10.56985
G1 X131.235 Y87.018 E10.61271
G1 X131.722 Y87.799 E10.65557
G1 X132.139 Y88.62 E10.69845
G1 X132.484 Y89.474 E10.74134
G1 X132.753 Y90.354 E10.78418
G1 X132.945 Y91.255 E10.82708
G1 X133.058 Y92.168 E10.86992
G1 X133.087 Y92.712 E10.89529
G1 X133.096 Y93.032 E10.91019
G1 X133.1 Y93.33 E10.92407
G1 X133.099 Y123.461 E12.32709
G1 X133.093 Y123.857 E12.34554
G1 X133.082 Y124.209 E12.36193
G1 X133.047 Y124.931 E12.39559
G1 X132.925 Y126.097 E12.45018
G1 X132.908 Y126.203 E12.45518
G1 X132.796 Y126.795 E12.48324
G1 X132.737 Y127.064 E12.49606
G1 X132.507 Y127.935 E12.53801
G1 X132.48 Y128.022 E12.54225
G1 X132.344 Y128.429 E12.56223
G1 X132.247 Y128.702 E12.57572
G1 X131.883 Y129.595 E12.62063
G1 X131.841 Y129.686 E12.62529
G1 X131.639 Y130.1 E12.64674
G1 X131.505 Y130.36 E12.66036
G1 X131.089 Y131.094 E12.69965
G1 X131.035 Y131.181 E12.70442
G1 X130.744 Y131.625 E12.72914
G1 X130.582 Y131.859 E12.74239
G1 X130.004 Y132.619 E12.78685
G1 X129.918 Y132.722 E12.7931
G1 X129.645 Y133.035 E12.81244
G1 X129.476 Y133.222 E12.82417
G1 X128.856 Y133.853 E12.86537
G1 X128.762 Y133.941 E12.87136
G1 X128.353 Y134.305 E12.89686
G1 X128.142 Y134.483 E12.90971
G1 X127.477 Y135 E12.94893
G1 X127.389 Y135.063 E12.95397
G1 X126.947 Y135.363 E12.97885
G1 X126.715 Y135.512 E12.99168
G1 X126.001 Y135.932 E13.03026
G1 X125.906 Y135.983 E13.03528
G1 X125.42 Y136.228 E13.06062
G1 X125.166 Y136.348 E13.0737
G1 X124.419 Y136.667 E13.11152
G1 X124.309 Y136.709 E13.11701
G1 X123.744 Y136.907 E13.14488
G1 X123.477 Y136.992 E13.15793
G1 X122.632 Y137.222 E13.19871
G1 X122.51 Y137.25 E13.20454
G1 X122.014 Y137.352 E13.22812
G1 X121.758 Y137.398 E13.24023
G1 X120.79 Y137.526 E13.2857
G1 X120.627 Y137.54 E13.29331
G1 X119.912 Y137.577 E13.32665
G1 X118.615 Y137.599 E13.38705
G1 X101.045 Y137.599 E14.20519
G1 X100.64 Y137.593 E14.22405
G1 X100.292 Y137.582 E14.24026
G1 X99.579 Y137.548 E14.2735
G1 X98.341 Y137.416 E14.33147
G1 X98.233 Y137.398 E14.33657
G1 X97.693 Y137.293 E14.36218
G1 X97.43 Y137.235 E14.37473
G1 X96.627 Y137.025 E14.41337
G1 X96.535 Y136.997 E14.41785
G1 X96.097 Y136.853 E14.43932
G1 X95.819 Y136.755 E14.45305
G1 X94.781 Y136.326 E14.50535
G1 X94.432 Y136.155 E14.52344
G1 X94.166 Y136.019 E14.53735
G1 X93.314 Y135.533 E14.58303
G1 X93.232 Y135.481 E14.58755
G1 X92.86 Y135.234 E14.60834
G1 X92.624 Y135.07 E14.62172
G1 X91.895 Y134.515 E14.66439
G1 X91.794 Y134.431 E14.6705
G1 X91.481 Y134.16 E14.68978
G1 X91.291 Y133.989 E14.70168
G1 X90.596 Y133.303 E14.74716
G1 X90.511 Y133.211 E14.75299
G1 X90.184 Y132.84 E14.77602
G1 X89.999 Y132.62 E14.7894
G1 X89.464 Y131.928 E14.83013
G1 X89.408 Y131.849 E14.83464
G1 X89.148 Y131.465 E14.85623
G1 X88.999 Y131.234 E14.86903
G1 X88.525 Y130.421 E14.91285
G1 X88.474 Y130.324 E14.91796
G1 X88.266 Y129.908 E14.93961
G1 X88.136 Y129.632 E14.95382
G1 X87.778 Y128.774 E14.99711
G1 X87.746 Y128.687 E15.00143
G1 X87.593 Y128.244 E15.02325
G1 X87.508 Y127.977 E15.0363
G1 X87.259 Y127.051 E15.08095
G1 X87.232 Y126.929 E15.08677
G1 X87.156 Y126.553 E15.10463
G1 X87.109 Y126.297 E15.11675
G1 X86.974 Y125.286 E15.16424
G1 X86.961 Y125.134 E15.17135
G1 X86.924 Y124.429 E15.20422
G1 X86.902 Y123.25 E15.25913
G1 X86.9 Y123.052 E15.26835
G1 X86.901 Y93.515 E16.64371
G1 X86.911 Y92.85 E16.67468
G1 X86.965 Y91.931 E16.71755
G1 X87.098 Y91.02 E16.76042
G1 X87.31 Y90.124 E16.80329
G1 X87.599 Y89.249 E16.8462
G1 X87.963 Y88.404 E16.88904
G1 X88.398 Y87.593 E16.9319
G1 X88.903 Y86.822 E16.97481
G1 X89.472 Y86.099 E17.01765
G1 X90.102 Y85.427 E17.06054
G0 F6000 X90.493 Y85.606
G1 F1200 X91.175 Y85.014 E17.1026
G1 X91.907 Y84.485 E17.14465
G1 X92.683 Y84.023 E17.1867
G1 X93.497 Y83.632 E17.22875
G1 X94.342 Y83.313 E17.27081
G1 X95.212 Y83.071 E17.31286
G1 X96.1 Y82.907 E17.35491
G1 X97.223 Y82.813 E17.40738
G1 X97.543 Y82.804 E17.42229
G1 X97.83 Y82.8 E17.43565
G1 X102.793 Y82.8 E17.66675
G1 X103.643 Y82.811 E17.70633
G1 X103.925 Y82.819 E17.71947
G1 X105.184 Y82.872 E17.77815
G1 X105.304 Y82.87 E17.78374
G1 X107.006 Y82.935 E17.86305
G1 X109.542 Y82.961 E17.98114
G1 X112.065 Y82.916 E18.09864
G1 X114.241 Y82.819 E18.20006
G1 X114.753 Y82.804 E18.22391
G1 X115.052 Y82.8 E18.23784
G1 X121.939 Y82.801 E18.55853
G1 X122.637 Y82.811 E18.59103
G1 X123.539 Y82.864 E18.6331
G1 X124.432 Y82.996 E18.67514
G1 X125.31 Y83.207 E18.71718
G1 X126.166 Y83.495 E18.75924
G1 X126.993 Y83.857 E18.80128
G1 X127.785 Y84.292 E18.84335
G1 X128.536 Y84.794 E18.88541
G1 X129.239 Y85.361 E18.92747
G1 X129.889 Y85.988 E18.96952
G1 X130.481 Y86.67 E19.01157
G1 X131.011 Y87.401 E19.05362
G1 X131.473 Y88.177 E19.09567
G1 X131.866 Y88.99 E19.13772
G1 X132.184 Y89.835 E19.17976
G1 X132.427 Y90.705 E19.22182
G1 X132.592 Y91.593 E19.26388
G1 X132.687 Y92.723 E19.31668
G1 X132.696 Y93.043 E19.33159
G1 X132.7 Y93.33 E19.34495
G1 X132.699 Y123.455 E20.7477
G1 X132.693 Y123.851 E20.76614
G1 X132.682 Y124.19 E20.78193
G1 X132.647 Y124.912 E20.81559
G1 X132.53 Y126.033 E20.86807
G1 X132.513 Y126.139 E20.87307
G1 X132.405 Y126.709 E20.90009
G1 X132.346 Y126.978 E20.91291
G1 X132.125 Y127.816 E20.95327
G1 X132.098 Y127.903 E20.95751
G1 X131.967 Y128.295 E20.97675
G1 X131.87 Y128.568 E20.99024
G1 X131.52 Y129.427 E21.03343
G1 X131.478 Y129.518 E21.0381
G1 X131.284 Y129.917 E21.05876
G1 X131.15 Y130.177 E21.07238
G1 X130.749 Y130.883 E21.11019
G1 X130.695 Y130.97 E21.11495
G1 X130.415 Y131.397 E21.13873
G1 X130.253 Y131.631 E21.15198
G1 X129.697 Y132.362 E21.19475
G1 X129.611 Y132.465 E21.201
G1 X129.348 Y132.767 E21.21964
G1 X129.179 Y132.954 E21.23138
G1 X128.583 Y133.561 E21.27099
G1 X128.489 Y133.649 E21.27699
G1 X128.095 Y133.999 E21.30153
G1 X127.884 Y134.177 E21.31438
G1 X127.245 Y134.675 E21.35211
G1 X127.157 Y134.738 E21.35715
G1 X126.731 Y135.026 E21.38109
G1 X126.499 Y135.175 E21.39393
G1 X125.812 Y135.58 E21.43106
G1 X125.717 Y135.631 E21.43608
G1 X125.249 Y135.867 E21.46049
G1 X124.995 Y135.987 E21.47357
G1 X124.276 Y136.293 E21.50996
G1 X124.166 Y136.335 E21.51544
G1 X123.622 Y136.525 E21.54227
G1 X123.355 Y136.61 E21.55532
G1 X122.543 Y136.833 E21.59453
G1 X122.421 Y136.861 E21.60036
G1 X121.943 Y136.958 E21.62307
G1 X121.687 Y137.004 E21.63518
G1 X120.756 Y137.128 E21.67891
G1 X120.593 Y137.142 E21.68653
G1 X119.904 Y137.177 E21.71866
G1 X118.615 Y137.199 E21.77869
G1 X101.051 Y137.199 E22.59654
G1 X100.646 Y137.193 E22.6154
G1 X100.311 Y137.182 E22.63101
G1 X99.598 Y137.148 E22.66424
G1 X98.407 Y137.021 E22.72002
G1 X98.299 Y137.003 E22.72512
G1 X97.779 Y136.903 E22.74977
G1 X97.516 Y136.845 E22.76231
G1 X96.743 Y136.642 E22.79953
G1 X96.651 Y136.614 E22.80401
G1 X96.23 Y136.476 E22.82464
G1 X95.952 Y136.378 E22.83836
G1 X94.954 Y135.965 E22.88865
G1 X94.614 Y135.799 E22.90627
G1 X94.348 Y135.663 E22.92018
G1 X93.528 Y135.195 E22.96415
G1 X93.446 Y135.143 E22.96867
G1 X93.088 Y134.905 E22.98869
G1 X92.852 Y134.741 E23.00207
G1 X92.151 Y134.207 E23.0431
G1 X92.05 Y134.123 E23.04922
G1 X91.749 Y133.863 E23.06774
G1 X91.559 Y133.692 E23.07964
G1 X90.89 Y133.032 E23.1234
G1 X90.805 Y132.94 E23.12923
G1 X90.49 Y132.583 E23.1514
G1 X90.305 Y132.363 E23.16479
G1 X89.791 Y131.697 E23.20396
G1 X89.735 Y131.618 E23.20847
G1 X89.484 Y131.248 E23.22929
G1 X89.335 Y131.017 E23.24209
G1 X88.879 Y130.235 E23.28424
G1 X88.828 Y130.138 E23.28934
G1 X88.628 Y129.737 E23.31021
G1 X88.498 Y129.461 E23.32442
G1 X88.153 Y128.636 E23.36605
G1 X88.121 Y128.549 E23.37037
G1 X87.975 Y128.122 E23.39138
G1 X87.89 Y127.855 E23.40443
G1 X87.65 Y126.965 E23.44735
G1 X87.623 Y126.843 E23.45317
G1 X87.55 Y126.481 E23.47037
G1 X87.503 Y126.225 E23.48249
G1 X87.372 Y125.252 E23.5282
G1 X87.359 Y125.1 E23.53531
G1 X87.324 Y124.421 E23.56697
G1 X87.3 Y123.052 E23.63072
G1 X87.301 Y93.521 E25.00581
G1 X87.311 Y92.856 E25.03678
G1 X87.365 Y91.954 E25.07885
G1 X87.498 Y91.061 E25.12089
G1 X87.709 Y90.183 E25.16294
G1 X87.998 Y89.327 E25.20501
G1 X88.361 Y88.5 E25.24707
G1 X88.795 Y87.709 E25.28908
G1 X89.298 Y86.958 E25.33117
G1 X89.866 Y86.256 E25.37321
G1 X90.493 Y85.606 E25.41527
G1 F1500 E18.91527
;MESH:battery clip 1.5cm v2.stl
G0 F6000 X97.92 Y92.335
G0 X97.92 Y93.42
G0 X102.718 Y93.782
G0 X102.726 Y94.68
G0 X100.726 Y96.679
G0 X101.062 Y122.058
G0 X101.189 Y122.607
G0 X101.395 Y122.927
G0 X101.851 Y123.292
G0 X102.476 Y123.439
G0 X118.239 Y123.622
G0 X119.271 Y122.043
G0 X119.274 Y97.79
G0 X115.496 Y94.013
G0 X121.718 Y93.782
G0 X121.707 Y124.303
G0 X121.426 Y125.118
G0 X120.904 Y125.709
G0 X119.817 Y126.378
;TYPE:WALL-INNER
G1 F1500 E25.41527
G1 F1200 X119.485 Y126.399 E25.43076
G1 X100.519 Y126.4 E26.31389
G1 X100.176 Y126.377 E26.3299
G1 X99.873 Y126.316 E26.34429
G1 X99.578 Y126.215 E26.35881
G1 X99.298 Y126.075 E26.37339
G1 X99.034 Y125.897 E26.38822
G1 X98.804 Y125.696 E26.40244
G1 X98.592 Y125.452 E26.41749
G1 X98.419 Y125.194 E26.43195
G1 X98.284 Y124.916 E26.44635
G1 X98.181 Y124.61 E26.46138
G1 X98.122 Y124.317 E26.4753
G1 X98.1 Y123.976 E26.49121
G1 X98.1 Y93.6 E27.90564
G1 X102.9 Y93.6 E28.12915
G1 X102.9 Y94.752 E28.18279
G1 X100.9 Y96.751 E28.31446
G1 X100.901 Y122.076 E29.4937
G1 X101.038 Y122.671 E29.52213
G1 X101.273 Y123.037 E29.54238
G1 X101.772 Y123.434 E29.57208
G1 X102.143 Y123.563 E29.59037
G1 X102.467 Y123.6 E29.60555
G1 X117.576 Y123.599 E30.30909
G1 X118.171 Y123.462 E30.33752
G1 X118.537 Y123.227 E30.35777
