;FLAVOR:Marlin
;TIME:2142
;Filament used: 2.07738m
;Layer height: 0.28
;MINX:88.7
;MINY:84.2
;MINZ:0.28
;MAXX:131.3
;MAXY:135.8
;MAXZ:14.84
;Generated with Cura_SteamEngine 4.8.0
M140 S60
M105
M190 S60
M104 S200
M105
M109 S200
M82 ;absolute extrusion mode
; Ender 3 Custom Start G-code
G92 E0 ; Reset Extruder
G28 ; Home all axes
G1 Z2.0 F3000 ; Move Z Axis up little to prevent scratching of Heat Bed
G1 X0.1 Y20 Z0.3 F5000.0 ; Move to start position
G1 X0.1 Y200.0 Z0.3 F1500.0 E15 ; Draw the first line
G1 X0.4 Y200.0 Z0.3 F5000.0 ; Move to side a little
G1 X0.4 Y20 Z0.3 F1500.0 E30 ; Draw the second line
G92 E0 ; Reset Extruder
G1 Z2.0 F3000 ; Move Z Axis up little to prevent scratching of Heat Bed
G1 X5 Y20 Z0.3 F5000.0 ; Move over to prevent blob squish
G92 E0
G92 E0
G1 F1500 E-6.5
;LAYER_COUNT:53
;LAYER:0
M107
G0 F6000 X90.985 Y86.602 Z0.28
;TYPE:SKIRT
G1 F1500 E0
G1 F1200 X91.102 Y86.485 E0.0077
G1 X91.688 Y85.955 E0.0445
G1 X92.324 Y85.488 E0.08124
G1 X93.004 Y85.087 E0.118
G1 X93.722 Y84.757 E0.15479
G1 X94.469 Y84.502 E0.19155
G1 X95.238 Y84.323 E0.22831
G1 X96.022 Y84.223 E0.26511
G1 X96.617 Y84.2 E0.29284
G1 X104.383 Y84.2 E0.65446
G1 X105.172 Y84.24 E0.69124
G1 X105.952 Y84.359 E0.72798
G1 X106.717 Y84.557 E0.76478
G1 X107.457 Y84.831 E0.80152
G1 X108.166 Y85.179 E0.8383
G1 X108.837 Y85.597 E0.87511
G1 X109.461 Y86.08 E0.91185
G1 X109.898 Y86.485 E0.9396
G1 X110 Y86.587 E0.94631
G1 X110.102 Y86.485 E0.95303
G1 X110.688 Y85.955 E0.98982
G1 X111.324 Y85.488 E1.02656
G1 X112.004 Y85.087 E1.06332
G1 X112.722 Y84.757 E1.10012
G1 X113.469 Y84.502 E1.13687
G1 X114.238 Y84.323 E1.17364
G1 X115.022 Y84.223 E1.21044
G1 X115.617 Y84.2 E1.23817
G1 X123.383 Y84.2 E1.59978
G1 X124.172 Y84.24 E1.63657
G1 X124.952 Y84.359 E1.67331
G1 X125.717 Y84.557 E1.71011
G1 X126.457 Y84.831 E1.74685
G1 X127.166 Y85.179 E1.78363
G1 X127.837 Y85.597 E1.82044
G1 X128.461 Y86.08 E1.85718
G1 X128.898 Y86.485 E1.88492
G1 X129.015 Y86.602 E1.89263
G1 X129.545 Y87.188 E1.92942
G1 X130.012 Y87.824 E1.96616
G1 X130.413 Y88.504 E2.00292
G1 X130.743 Y89.222 E2.03972
G1 X130.998 Y89.969 E2.07647
G1 X131.177 Y90.738 E2.11323
G1 X131.277 Y91.522 E2.15004
G1 X131.3 Y92.117 E2.17776
G1 X131.3 Y123.007 E3.61613
G1 X131.288 Y123.443 E3.63644
G1 X131.258 Y123.979 E3.66144
G1 X131.172 Y124.778 E3.69886
G1 X131.091 Y125.283 E3.72267
G1 X130.914 Y126.102 E3.76169
G1 X130.777 Y126.604 E3.78592
G1 X130.534 Y127.344 E3.82219
G1 X130.346 Y127.834 E3.84663
G1 X130.005 Y128.598 E3.88558
G1 X129.761 Y129.074 E3.91049
G1 X129.35 Y129.782 E3.94861
G1 X129.071 Y130.209 E3.97236
G1 X128.604 Y130.85 E4.00929
G1 X128.273 Y131.259 E4.03379
G1 X127.703 Y131.889 E4.07335
G1 X127.327 Y132.262 E4.09801
G1 X126.725 Y132.801 E4.13564
G1 X126.32 Y133.127 E4.15985
G1 X125.653 Y133.608 E4.19814
G1 X125.209 Y133.894 E4.22273
G1 X124.503 Y134.298 E4.26061
G1 X124.04 Y134.532 E4.28476
G1 X123.301 Y134.859 E4.32239
G1 X122.808 Y135.047 E4.34696
G1 X122.045 Y135.294 E4.38431
G1 X121.548 Y135.427 E4.40826
G1 X120.739 Y135.598 E4.44676
G1 X120.222 Y135.679 E4.47113
G1 X119.422 Y135.762 E4.50858
G1 X118.905 Y135.789 E4.53269
G1 X118.498 Y135.8 E4.55165
G1 X101.493 Y135.8 E5.34347
G1 X101.057 Y135.788 E5.36378
G1 X100.521 Y135.758 E5.38878
G1 X99.716 Y135.671 E5.42648
G1 X99.207 Y135.589 E5.45049
G1 X98.391 Y135.412 E5.48937
G1 X97.89 Y135.275 E5.51355
G1 X97.128 Y135.024 E5.55091
G1 X96.63 Y134.831 E5.57578
G1 X95.895 Y134.502 E5.61328
G1 X95.428 Y134.263 E5.63771
G1 X94.708 Y133.844 E5.6765
G1 X94.279 Y133.563 E5.70038
G1 X93.641 Y133.097 E5.73716
G1 X93.234 Y132.767 E5.76156
G1 X92.608 Y132.201 E5.80086
G1 X92.237 Y131.827 E5.82539
G1 X91.699 Y131.225 E5.86298
G1 X91.373 Y130.82 E5.88719
G1 X90.89 Y130.15 E5.92565
G1 X90.603 Y129.704 E5.95035
G1 X90.201 Y129.001 E5.98806
G1 X89.967 Y128.538 E6.01221
G1 X89.639 Y127.796 E6.04999
G1 X89.452 Y127.305 E6.07445
G1 X89.206 Y126.545 E6.11165
G1 X89.073 Y126.048 E6.13561
G1 X88.902 Y125.239 E6.17411
G1 X88.821 Y124.722 E6.19848
G1 X88.738 Y123.923 E6.23588
G1 X88.711 Y123.407 E6.25994
G1 X88.7 Y122.999 E6.27895
G1 X88.7 Y92.117 E7.71694
G1 X88.74 Y91.328 E7.75373
G1 X88.859 Y90.548 E7.79047
G1 X89.057 Y89.783 E7.82727
G1 X89.331 Y89.043 E7.86401
G1 X89.679 Y88.334 E7.90079
G1 X90.097 Y87.663 E7.9376
G1 X90.58 Y87.039 E7.97434
G1 X90.985 Y86.602 E8.00208
G0 F6000 X91.267 Y86.884
G1 F1200 X91.384 Y86.767 E8.00979
G1 X91.956 Y86.253 E8.0456
G1 X92.578 Y85.8 E8.08143
G1 X93.243 Y85.414 E8.11723
G1 X93.945 Y85.099 E8.15306
G1 X94.676 Y84.859 E8.18888
G1 X95.427 Y84.696 E8.22467
G1 X96.192 Y84.612 E8.2605
G1 X96.617 Y84.6 E8.2803
G1 X104.383 Y84.6 E8.64192
G1 X105.151 Y84.64 E8.67773
G1 X105.911 Y84.759 E8.71355
G1 X106.654 Y84.957 E8.74935
G1 X107.373 Y85.231 E8.78518
G1 X108.059 Y85.578 E8.82098
G1 X108.706 Y85.994 E8.8568
G1 X109.306 Y86.475 E8.8926
G1 X109.616 Y86.767 E8.91243
G1 X109.733 Y86.884 E8.92014
G1 X109.994 Y87.174 E8.93831
G1 X110.267 Y86.884 E8.95685
G1 X110.384 Y86.767 E8.96456
G1 X110.956 Y86.253 E9.00036
G1 X111.578 Y85.8 E9.03619
G1 X112.243 Y85.414 E9.072
G1 X112.945 Y85.099 E9.10783
G1 X113.676 Y84.859 E9.14365
G1 X114.427 Y84.696 E9.17944
G1 X115.192 Y84.612 E9.21527
G1 X115.617 Y84.6 E9.23507
G1 X123.383 Y84.6 E9.59669
G1 X124.151 Y84.64 E9.6325
G1 X124.911 Y84.759 E9.66832
G1 X125.654 Y84.957 E9.70412
G1 X126.373 Y85.231 E9.73995
G1 X127.059 Y85.578 E9.77575
G1 X127.706 Y85.994 E9.81156
G1 X128.306 Y86.475 E9.84737
G1 X128.616 Y86.767 E9.8672
G1 X128.733 Y86.884 E9.87491
G1 X129.247 Y87.456 E9.91072
G1 X129.7 Y88.078 E9.94655
G1 X130.086 Y88.743 E9.98235
G1 X130.401 Y89.445 E10.01818
G1 X130.641 Y90.176 E10.054
G1 X130.804 Y90.927 E10.08979
G1 X130.888 Y91.692 E10.12562
G1 X130.9 Y92.117 E10.14542
G1 X130.9 Y123.007 E11.58379
G1 X130.888 Y123.421 E11.60307
G1 X130.858 Y123.957 E11.62807
G1 X130.777 Y124.715 E11.66357
G1 X130.696 Y125.22 E11.68738
G1 X130.528 Y125.996 E11.72435
G1 X130.391 Y126.498 E11.74858
G1 X130.161 Y127.201 E11.78303
G1 X129.973 Y127.691 E11.80746
G1 X129.649 Y128.416 E11.84444
G1 X129.405 Y128.892 E11.86935
G1 X129.015 Y129.564 E11.90553
G1 X128.736 Y129.991 E11.92928
G1 X128.293 Y130.598 E11.96427
G1 X127.962 Y131.007 E11.98877
G1 X127.422 Y131.606 E12.02632
G1 X127.046 Y131.979 E12.05098
G1 X126.474 Y132.49 E12.0867
G1 X126.069 Y132.816 E12.11091
G1 X125.436 Y133.272 E12.14723
G1 X124.992 Y133.558 E12.17183
G1 X124.323 Y133.941 E12.20772
G1 X123.86 Y134.175 E12.23188
G1 X123.159 Y134.485 E12.26757
G1 X122.666 Y134.673 E12.29214
G1 X121.942 Y134.907 E12.32757
G1 X121.445 Y135.04 E12.35152
G1 X120.677 Y135.203 E12.38808
G1 X120.16 Y135.284 E12.41245
G1 X119.401 Y135.363 E12.44798
G1 X118.884 Y135.39 E12.47209
G1 X118.498 Y135.4 E12.49007
G1 X101.493 Y135.4 E13.28189
G1 X101.079 Y135.388 E13.30118
G1 X100.543 Y135.358 E13.32618
G1 X99.78 Y135.276 E13.36191
G1 X99.271 Y135.194 E13.38592
G1 X98.496 Y135.026 E13.42284
G1 X97.995 Y134.889 E13.44703
G1 X97.273 Y134.651 E13.48243
G1 X96.775 Y134.458 E13.5073
G1 X96.078 Y134.145 E13.54287
G1 X95.611 Y133.906 E13.5673
G1 X94.927 Y133.509 E13.60413
G1 X94.498 Y133.228 E13.62801
G1 X93.892 Y132.786 E13.66293
G1 X93.485 Y132.456 E13.68733
G1 X92.892 Y131.919 E13.72458
G1 X92.521 Y131.545 E13.74911
G1 X92.01 Y130.974 E13.78479
G1 X91.684 Y130.569 E13.809
G1 X91.226 Y129.933 E13.8455
G1 X90.939 Y129.487 E13.87019
G1 X90.558 Y128.821 E13.90592
G1 X90.324 Y128.358 E13.93008
G1 X90.013 Y127.654 E13.96591
G1 X89.826 Y127.163 E13.99038
G1 X89.593 Y126.442 E14.02566
G1 X89.46 Y125.945 E14.04962
G1 X89.297 Y125.177 E14.08618
G1 X89.216 Y124.66 E14.11054
G1 X89.137 Y123.902 E14.14603
G1 X89.11 Y123.386 E14.17009
G1 X89.1 Y122.999 E14.18812
G1 X89.1 Y92.117 E15.62611
G1 X89.14 Y91.349 E15.66192
G1 X89.259 Y90.589 E15.69774
G1 X89.457 Y89.846 E15.73355
G1 X89.731 Y89.127 E15.76937
G1 X90.078 Y88.441 E15.80517
G1 X90.494 Y87.794 E15.84099
G1 X90.975 Y87.194 E15.8768
G1 X91.267 Y86.884 E15.89663
G0 F6000 X91.55 Y87.167
G1 F1200 X91.667 Y87.05 E15.90433
G1 X92.224 Y86.55 E15.93918
G1 X92.83 Y86.113 E15.97397
G1 X93.48 Y85.742 E16.00882
G1 X94.166 Y85.443 E16.04367
G1 X94.88 Y85.219 E16.07851
G1 X95.613 Y85.072 E16.11332
G1 X96.617 Y85 E16.1602
G1 X104.383 Y85 E16.52181
G1 X105.13 Y85.04 E16.55665
G1 X105.868 Y85.159 E16.59145
G1 X106.59 Y85.357 E16.62632
G1 X107.286 Y85.63 E16.66113
G1 X107.949 Y85.977 E16.69597
G1 X108.572 Y86.392 E16.73083
G1 X109.333 Y87.05 E16.77767
G1 X109.45 Y87.167 E16.78538
G1 X109.95 Y87.724 E16.82023
G1 X110.004 Y87.799 E16.82453
G1 X110.55 Y87.167 E16.86342
G1 X110.667 Y87.05 E16.87113
G1 X111.224 Y86.55 E16.90598
G1 X111.83 Y86.113 E16.94077
G1 X112.48 Y85.742 E16.97562
G1 X113.166 Y85.443 E17.01047
G1 X113.88 Y85.219 E17.04531
G1 X114.613 Y85.072 E17.08012
G1 X115.617 Y85 E17.12699
G1 X123.383 Y85 E17.48861
G1 X124.13 Y85.04 E17.52344
G1 X124.868 Y85.159 E17.55825
G1 X125.59 Y85.357 E17.59311
G1 X126.286 Y85.63 E17.62793
G1 X126.949 Y85.977 E17.66277
G1 X127.572 Y86.392 E17.69763
G1 X128.333 Y87.05 E17.74447
G1 X128.45 Y87.167 E17.75218
G1 X128.95 Y87.724 E17.78703
G1 X129.387 Y88.33 E17.82182
G1 X129.758 Y88.98 E17.85667
G1 X130.057 Y89.666 E17.89151
G1 X130.281 Y90.38 E17.92636
G1 X130.428 Y91.113 E17.96117
G1 X130.5 Y92.117 E18.00804
G1 X130.5 Y123.007 E19.44641
G1 X130.489 Y123.398 E19.46462
G1 X130.459 Y123.934 E19.48962
G1 X130.382 Y124.652 E19.52324
G1 X130.301 Y125.157 E19.54706
G1 X130.142 Y125.891 E19.58203
G1 X130.005 Y126.393 E19.60626
G1 X129.787 Y127.057 E19.6388
G1 X129.599 Y127.547 E19.66324
G1 X129.293 Y128.233 E19.69822
G1 X129.049 Y128.709 E19.72313
G1 X128.68 Y129.345 E19.75736
G1 X128.401 Y129.772 E19.78111
G1 X127.982 Y130.347 E19.81424
G1 X127.651 Y130.756 E19.83874
G1 X127.14 Y131.322 E19.87425
G1 X126.764 Y131.695 E19.89891
G1 X126.223 Y132.178 E19.93268
G1 X125.818 Y132.504 E19.95689
G1 X125.22 Y132.936 E19.99124
G1 X124.776 Y133.222 E20.01584
G1 X124.142 Y133.584 E20.04983
G1 X123.679 Y133.818 E20.07399
G1 X123.016 Y134.112 E20.10776
G1 X122.523 Y134.3 E20.13233
G1 X121.839 Y134.521 E20.1658
G1 X121.342 Y134.654 E20.18975
G1 X120.615 Y134.808 E20.22436
G1 X120.098 Y134.889 E20.24872
G1 X119.38 Y134.963 E20.28234
G1 X118.863 Y134.99 E20.30644
G1 X118.498 Y135 E20.32344
G1 X101.493 Y135 E21.11527
G1 X101.102 Y134.989 E21.13348
G1 X100.566 Y134.959 E21.15848
G1 X99.844 Y134.881 E21.19229
G1 X99.335 Y134.799 E21.2163
G1 X98.602 Y134.64 E21.25123
G1 X98.101 Y134.503 E21.27541
G1 X97.417 Y134.278 E21.30894
G1 X96.919 Y134.085 E21.33381
G1 X96.26 Y133.789 E21.36745
G1 X95.793 Y133.55 E21.39188
G1 X95.146 Y133.175 E21.4267
G1 X94.717 Y132.894 E21.45058
G1 X94.144 Y132.475 E21.48363
G1 X93.737 Y132.145 E21.50803
G1 X93.176 Y131.638 E21.54324
G1 X92.805 Y131.264 E21.56777
G1 X92.322 Y130.723 E21.60154
G1 X91.996 Y130.318 E21.62575
G1 X91.562 Y129.717 E21.66027
G1 X91.275 Y129.271 E21.68496
G1 X90.915 Y128.64 E21.71879
G1 X90.681 Y128.177 E21.74295
G1 X90.386 Y127.511 E21.77687
G1 X90.199 Y127.02 E21.80133
G1 X89.979 Y126.339 E21.83465
G1 X89.846 Y125.842 E21.85861
G1 X89.692 Y125.115 E21.89321
G1 X89.611 Y124.598 E21.91758
G1 X89.537 Y123.881 E21.95115
G1 X89.51 Y123.365 E21.97521
G1 X89.5 Y122.999 E21.99225
G1 X89.5 Y92.117 E23.43025
G1 X89.54 Y91.37 E23.46508
G1 X89.659 Y90.632 E23.49989
G1 X89.857 Y89.91 E23.53475
G1 X90.13 Y89.214 E23.56956
G1 X90.477 Y88.551 E23.60441
G1 X90.892 Y87.928 E23.63927
G1 X91.55 Y87.167 E23.68611
G0 F6000 X91.833 Y87.45
G1 F1200 X91.95 Y87.333 E23.69382
G1 X92.491 Y86.849 E23.72762
G1 X93.082 Y86.426 E23.76146
G1 X93.716 Y86.072 E23.79527
G1 X94.385 Y85.789 E23.82909
G1 X95.081 Y85.581 E23.86292
G1 X95.796 Y85.451 E23.89676
G1 X96.617 Y85.4 E23.93506
G1 X104.383 Y85.4 E24.29668
G1 X105.108 Y85.44 E24.33049
G1 X105.825 Y85.559 E24.36433
G1 X106.524 Y85.757 E24.39816
G1 X107.197 Y86.03 E24.43198
G1 X107.836 Y86.375 E24.46579
G1 X108.433 Y86.789 E24.49962
G1 X109.05 Y87.333 E24.53792
G1 X109.167 Y87.45 E24.54563
G1 X109.651 Y87.991 E24.57943
G1 X110.002 Y88.481 E24.6075
G1 X110.289 Y88.067 E24.63095
G1 X110.833 Y87.45 E24.66926
G1 X110.95 Y87.333 E24.67696
G1 X111.491 Y86.849 E24.71076
G1 X112.082 Y86.426 E24.7446
G1 X112.716 Y86.072 E24.77842
G1 X113.385 Y85.789 E24.81224
G1 X114.081 Y85.581 E24.84606
G1 X114.796 Y85.451 E24.8799
G1 X115.617 Y85.4 E24.91821
G1 X123.383 Y85.4 E25.27982
G1 X124.108 Y85.44 E25.31363
G1 X124.825 Y85.559 E25.34748
G1 X125.524 Y85.757 E25.38131
G1 X126.197 Y86.03 E25.41512
G1 X126.836 Y86.375 E25.44894
G1 X127.433 Y86.789 E25.48277
G1 X128.05 Y87.333 E25.52107
G1 X128.167 Y87.45 E25.52877
G1 X128.651 Y87.991 E25.56258
G1 X129.074 Y88.582 E25.59642
G1 X129.428 Y89.216 E25.63023
G1 X129.711 Y89.885 E25.66405
G1 X129.919 Y90.581 E25.69788
G1 X130.049 Y91.296 E25.73172
G1 X130.1 Y92.117 E25.77002
G1 X130.1 Y123.007 E27.20839
G1 X130.09 Y123.376 E27.22558
G1 X130.06 Y123.912 E27.25057
G1 X129.987 Y124.588 E27.28224
G1 X129.906 Y125.093 E27.30605
G1 X129.756 Y125.786 E27.33907
G1 X129.619 Y126.288 E27.3633
G1 X129.414 Y126.914 E27.39397
G1 X129.226 Y127.404 E27.41841
G1 X128.937 Y128.051 E27.4514
G1 X128.693 Y128.527 E27.47631
G1 X128.345 Y129.126 E27.50857
G1 X128.066 Y129.553 E27.53232
G1 X127.671 Y130.095 E27.56355
G1 X127.34 Y130.504 E27.58805
G1 X126.858 Y131.038 E27.62154
G1 X126.482 Y131.411 E27.64621
G1 X125.972 Y131.866 E27.67803
G1 X125.567 Y132.192 E27.70224
G1 X125.003 Y132.6 E27.73465
G1 X124.559 Y132.886 E27.75925
G1 X123.962 Y133.227 E27.79126
G1 X123.499 Y133.461 E27.81542
G1 X122.874 Y133.738 E27.84725
G1 X122.381 Y133.926 E27.87182
G1 X121.735 Y134.135 E27.90343
G1 X121.238 Y134.268 E27.92739
G1 X120.554 Y134.412 E27.95994
G1 X120.037 Y134.493 E27.98431
G1 X119.359 Y134.564 E28.01605
G1 X118.842 Y134.591 E28.04015
G1 X118.498 Y134.6 E28.05618
G1 X101.493 Y134.6 E28.848
G1 X101.124 Y134.59 E28.86519
G1 X100.588 Y134.56 E28.89019
G1 X99.907 Y134.486 E28.92209
G1 X99.398 Y134.404 E28.94609
G1 X98.707 Y134.254 E28.97902
G1 X98.206 Y134.117 E29.0032
G1 X97.562 Y133.905 E29.03477
G1 X97.064 Y133.712 E29.05964
G1 X96.442 Y133.433 E29.09139
G1 X95.975 Y133.194 E29.11581
G1 X95.366 Y132.84 E29.14861
G1 X94.937 Y132.559 E29.17249
G1 X94.396 Y132.165 E29.20366
G1 X93.989 Y131.835 E29.22806
G1 X93.46 Y131.356 E29.26129
G1 X93.089 Y130.982 E29.28582
G1 X92.634 Y130.472 E29.31764
G1 X92.308 Y130.067 E29.34185
G1 X91.899 Y129.501 E29.37437
G1 X91.612 Y129.055 E29.39906
G1 X91.272 Y128.46 E29.43097
G1 X91.038 Y127.997 E29.45513
G1 X90.76 Y127.369 E29.48711
G1 X90.573 Y126.878 E29.51157
G1 X90.365 Y126.235 E29.54304
G1 X90.232 Y125.738 E29.567
G1 X90.088 Y125.054 E29.59955
G1 X90.007 Y124.537 E29.62391
G1 X89.936 Y123.86 E29.65561
G1 X89.909 Y123.344 E29.67967
G1 X89.9 Y122.999 E29.69574
G1 X89.9 Y92.117 E31.13374
G1 X89.94 Y91.392 E31.16755
G1 X90.059 Y90.675 E31.20139
G1 X90.257 Y89.976 E31.23522
G1 X90.53 Y89.303 E31.26904
G1 X90.875 Y88.664 E31.30285
G1 X91.289 Y88.067 E31.33668
G1 X91.833 Y87.45 E31.37498
G0 F6000 X92.116 Y87.733
G1 F1200 X92.233 Y87.616 E31.38269
G1 X92.758 Y87.147 E31.41547
G1 X93.333 Y86.741 E31.44824
G1 X93.951 Y86.403 E31.48104
G1 X94.602 Y86.136 E31.51381
G1 X95.28 Y85.946 E31.54659
G1 X95.975 Y85.833 E31.57938
G1 X96.617 Y85.8 E31.60931
G1 X104.383 Y85.8 E31.97093
G1 X105.086 Y85.84 E32.00372
G1 X105.78 Y85.959 E32.03651
G1 X106.455 Y86.157 E32.06926
G1 X107.104 Y86.429 E32.10203
G1 X107.718 Y86.774 E32.13482
G1 X108.289 Y87.185 E32.16758
G1 X108.767 Y87.616 E32.19755
G1 X108.884 Y87.733 E32.20526
G1 X109.353 Y88.258 E32.23804
G1 X109.759 Y88.833 E32.27081
G1 X109.999 Y89.272 E32.29411
