;FLAVOR:Marlin
;TIME:12338
;Filament used: 10.1052m
;Layer height: 0.28
;MINX:73.2
;MINY:69.702
;MINZ:0.28
;MAXX:149.035
;MAXY:156.838
;MAXZ:29.96
;Generated with Cura_SteamEngine 4.8.0
M140 S60
M105
M190 S60
M104 S200
M105
M109 S200
M82 ;absolute extrusion mode
; Ender 3 Custom Start G-code
G92 E0 ; Reset Extruder
G28 ; Home all axes
G1 Z2.0 F3000 ; Move Z Axis up little to prevent scratching of Heat Bed
G1 X0.1 Y20 Z0.3 F5000.0 ; Move to start position
G1 X0.1 Y200.0 Z0.3 F1500.0 E15 ; Draw the first line
G1 X0.4 Y200.0 Z0.3 F5000.0 ; Move to side a little
G1 X0.4 Y20 Z0.3 F1500.0 E30 ; Draw the second line
G92 E0 ; Reset Extruder
G1 Z2.0 F3000 ; Move Z Axis up little to prevent scratching of Heat Bed
G1 X5 Y20 Z0.3 F5000.0 ; Move over to prevent blob squish
G92 E0
G92 E0
G1 F1500 E-6.5
;LAYER_COUNT:107
;LAYER:0
M107
G0 F6000 X77.837 Y83.237 Z0.28
;TYPE:SKIRT
G1 F1500 E0
G1 F1200 X78.423 Y82.707 E0.03679
G1 X79.059 Y82.24 E0.07353
G1 X79.739 Y81.839 E0.11029
G1 X80.457 Y81.509 E0.14709
G1 X81.204 Y81.254 E0.18384
G1 X81.973 Y81.075 E0.22061
G1 X82.757 Y80.975 E0.25741
G1 X83.352 Y80.952 E0.28513
G1 X99.085 Y80.952 E1.01773
G1 X99.179 Y80.801 E1.02601
G1 X99.517 Y80.35 E1.05226
G1 X99.709 Y80.112 E1.06649
G1 X99.895 Y79.89 E1.07998
G1 X100.002 Y79.767 E1.08757
G1 X100.55 Y79.198 E1.12436
G1 X101.152 Y78.687 E1.16112
G1 X101.618 Y78.358 E1.18769
G1 X101.982 Y78.12 E1.20794
G1 X102.946 Y77.583 E1.25932
G1 X103.241 Y77.445 E1.27449
G1 X103.864 Y77.186 E1.3059
G1 X104.777 Y76.852 E1.35117
G1 X105.199 Y76.684 E1.37232
G1 X116.978 Y72.267 E1.95809
G1 X119.217 Y71.43 E2.0694
G1 X119.969 Y71.191 E2.10614
G1 X120.743 Y71.03 E2.14295
G1 X120.847 Y71.019 E2.14782
G1 X121.255 Y70.827 E2.16882
G1 X122 Y70.564 E2.20561
G1 X122.452 Y70.445 E2.22737
G1 X122.865 Y70.349 E2.24712
G1 X123.094 Y70.299 E2.25803
G1 X123.696 Y70.178 E2.28662
G1 X123.955 Y70.13 E2.29889
G1 X124.563 Y70.029 E2.32759
G1 X124.791 Y69.995 E2.33832
G1 X125.402 Y69.912 E2.36703
G1 X125.678 Y69.88 E2.37997
G1 X126.45 Y69.803 E2.4161
G1 X126.757 Y69.778 E2.43044
G1 X127.54 Y69.731 E2.46696
G1 X127.854 Y69.718 E2.4816
G1 X128.619 Y69.703 E2.51723
G1 X141.118 Y69.702 E3.09923
G1 X141.907 Y69.742 E3.13602
G1 X142.687 Y69.861 E3.17276
G1 X143.452 Y70.059 E3.20955
G1 X144.192 Y70.333 E3.2463
G1 X144.901 Y70.681 E3.28307
G1 X145.572 Y71.099 E3.31989
G1 X146.196 Y71.582 E3.35663
G1 X146.633 Y71.987 E3.38437
G1 X146.75 Y72.104 E3.39208
G1 X147.28 Y72.69 E3.42887
G1 X147.747 Y73.326 E3.46561
G1 X148.148 Y74.006 E3.50237
G1 X148.478 Y74.724 E3.53916
G1 X148.733 Y75.471 E3.57592
G1 X148.912 Y76.24 E3.61268
G1 X149.012 Y77.024 E3.64949
G1 X149.035 Y77.619 E3.67721
G1 X149.035 Y107.385 E5.06324
G1 X148.995 Y108.174 E5.10003
G1 X148.876 Y108.954 E5.13677
G1 X148.678 Y109.719 E5.17356
G1 X148.404 Y110.459 E5.21031
G1 X148.056 Y111.168 E5.24708
G1 X147.638 Y111.839 E5.2839
G1 X147.155 Y112.463 E5.32064
G1 X146.75 Y112.9 E5.34838
G1 X146.633 Y113.017 E5.35609
G1 X146.047 Y113.547 E5.39288
G1 X145.411 Y114.014 E5.42962
G1 X144.731 Y114.415 E5.46638
G1 X144.013 Y114.745 E5.50317
G1 X143.266 Y115 E5.53993
G1 X142.497 Y115.179 E5.57669
G1 X141.713 Y115.279 E5.6135
G1 X141.118 Y115.302 E5.64122
G1 X128.772 Y115.302 E6.2161
G1 X127.836 Y115.284 E6.2597
G1 X127.529 Y115.272 E6.274
G1 X126.747 Y115.225 E6.31048
G1 X126.443 Y115.201 E6.32468
G1 X125.669 Y115.124 E6.3609
G1 X125.394 Y115.091 E6.3738
G1 X124.781 Y115.008 E6.4026
G1 X124.529 Y114.97 E6.41447
G1 X123.931 Y114.869 E6.44271
G1 X123.693 Y114.825 E6.45398
G1 X123.091 Y114.704 E6.48257
G1 X122.867 Y114.656 E6.49324
G1 X122.457 Y114.561 E6.51283
G1 X121.698 Y114.344 E6.54959
G1 X120.965 Y114.051 E6.58635
G1 X120.812 Y113.971 E6.59439
G1 X120.322 Y113.894 E6.61748
G1 X119.559 Y113.693 E6.65423
G1 X119.183 Y113.563 E6.67275
G1 X103.788 Y107.789 E7.43837
G1 X103.202 Y107.542 E7.46798
G1 X102.924 Y107.411 E7.48229
G1 X101.931 Y106.85 E7.5354
G1 X101.564 Y106.606 E7.55592
G1 X100.929 Y106.136 E7.5927
G1 X100.345 Y105.605 E7.62946
G1 X99.848 Y105.054 E7.66401
G1 X99.558 Y104.7 E7.68532
G1 X99.089 Y104.065 E7.72208
G1 X99.082 Y104.052 E7.72276
G1 X83.352 Y104.052 E8.45522
G1 X82.563 Y104.012 E8.49201
G1 X81.783 Y103.893 E8.52875
G1 X81.018 Y103.695 E8.56554
G1 X80.278 Y103.421 E8.60228
G1 X79.569 Y103.073 E8.63906
G1 X78.898 Y102.655 E8.67587
G1 X78.274 Y102.172 E8.71262
G1 X77.837 Y101.767 E8.74036
G1 X77.72 Y101.65 E8.74806
G1 X77.19 Y101.064 E8.78486
G1 X76.723 Y100.428 E8.8216
G1 X76.322 Y99.748 E8.85836
G1 X75.992 Y99.03 E8.89515
G1 X75.737 Y98.283 E8.9319
G1 X75.558 Y97.514 E8.96867
G1 X75.458 Y96.73 E9.00547
G1 X75.435 Y96.135 E9.0332
G1 X75.435 Y88.869 E9.37153
G1 X75.475 Y88.08 E9.40832
G1 X75.594 Y87.3 E9.44506
G1 X75.792 Y86.535 E9.48186
G1 X76.066 Y85.795 E9.5186
G1 X76.414 Y85.086 E9.55538
G1 X76.832 Y84.415 E9.59219
G1 X77.315 Y83.791 E9.62893
G1 X77.72 Y83.354 E9.65667
G1 X77.837 Y83.237 E9.66438
G0 F6000 X78.119 Y83.519
G1 F1200 X78.691 Y83.005 E9.70019
G1 X79.313 Y82.552 E9.73602
G1 X79.978 Y82.166 E9.77182
G1 X80.68 Y81.851 E9.80765
G1 X81.411 Y81.611 E9.84348
G1 X82.162 Y81.448 E9.87926
G1 X82.927 Y81.364 E9.91509
G1 X83.352 Y81.352 E9.93489
G1 X99.308 Y81.352 E10.67787
G1 X99.531 Y80.996 E10.69743
G1 X99.829 Y80.601 E10.72047
G1 X100.021 Y80.363 E10.73471
G1 X100.197 Y80.152 E10.7475
G1 X100.304 Y80.029 E10.7551
G1 X100.838 Y79.476 E10.79089
G1 X101.427 Y78.981 E10.82672
G1 X101.837 Y78.692 E10.85007
G1 X102.201 Y78.454 E10.87033
G1 X103.115 Y77.945 E10.91904
G1 X103.41 Y77.807 E10.9342
G1 X104.001 Y77.561 E10.96401
G1 X104.946 Y77.215 E11.01087
G1 X105.34 Y77.058 E11.03062
G1 X117.118 Y72.641 E11.61635
G1 X119.357 Y71.804 E11.72766
G1 X120.09 Y71.573 E11.76344
G1 X120.844 Y71.419 E11.79928
G1 X120.955 Y71.408 E11.80447
G1 X121.5 Y71.159 E11.83237
G1 X122.543 Y70.834 E11.88324
G1 X122.956 Y70.738 E11.90299
G1 X123.173 Y70.691 E11.91332
G1 X123.775 Y70.57 E11.94192
G1 X124.02 Y70.525 E11.95352
G1 X124.628 Y70.424 E11.98221
G1 X124.845 Y70.391 E11.99244
G1 X125.456 Y70.308 E12.02115
G1 X125.718 Y70.278 E12.03343
G1 X126.49 Y70.201 E12.06955
G1 X126.781 Y70.177 E12.08315
G1 X127.564 Y70.13 E12.11967
G1 X127.862 Y70.118 E12.13356
G1 X128.627 Y70.103 E12.16919
G1 X141.118 Y70.102 E12.75082
G1 X141.886 Y70.142 E12.78663
G1 X142.646 Y70.261 E12.82245
G1 X143.389 Y70.459 E12.85826
G1 X144.108 Y70.733 E12.89409
G1 X144.794 Y71.08 E12.92988
G1 X145.441 Y71.496 E12.9657
G1 X146.041 Y71.977 E13.00151
G1 X146.351 Y72.269 E13.02134
G1 X146.468 Y72.386 E13.02904
G1 X146.982 Y72.958 E13.06485
G1 X147.435 Y73.58 E13.10068
G1 X147.821 Y74.245 E13.13648
G1 X148.136 Y74.947 E13.17231
G1 X148.376 Y75.678 E13.20814
G1 X148.539 Y76.429 E13.24392
G1 X148.623 Y77.194 E13.27976
G1 X148.635 Y77.619 E13.29956
G1 X148.635 Y107.385 E14.68559
G1 X148.595 Y108.153 E14.7214
G1 X148.476 Y108.913 E14.75722
G1 X148.278 Y109.656 E14.79302
G1 X148.004 Y110.375 E14.82885
G1 X147.657 Y111.061 E14.86465
G1 X147.241 Y111.708 E14.90046
G1 X146.76 Y112.308 E14.93627
G1 X146.468 Y112.618 E14.9561
G1 X146.351 Y112.735 E14.96381
G1 X145.779 Y113.249 E14.99961
G1 X145.157 Y113.702 E15.03544
G1 X144.492 Y114.088 E15.07125
G1 X143.79 Y114.403 E15.10708
G1 X143.059 Y114.643 E15.1429
G1 X142.308 Y114.806 E15.17869
G1 X141.543 Y114.89 E15.21452
G1 X141.118 Y114.902 E15.23432
G1 X128.772 Y114.902 E15.8092
G1 X127.844 Y114.884 E15.85242
G1 X127.553 Y114.873 E15.86598
G1 X126.771 Y114.826 E15.90246
G1 X126.482 Y114.803 E15.91596
G1 X125.708 Y114.726 E15.95218
G1 X125.448 Y114.695 E15.96437
G1 X124.835 Y114.612 E15.99317
G1 X124.596 Y114.576 E16.00443
G1 X123.998 Y114.475 E16.03267
G1 X123.772 Y114.433 E16.04337
G1 X123.17 Y114.312 E16.07196
G1 X122.958 Y114.266 E16.08207
G1 X122.548 Y114.171 E16.10166
G1 X121.808 Y113.959 E16.13751
G1 X121.095 Y113.671 E16.17331
G1 X120.935 Y113.586 E16.18175
G1 X120.729 Y113.563 E16.1914
G1 X119.977 Y113.4 E16.22723
G1 X119.323 Y113.189 E16.25923
G1 X103.928 Y107.415 E17.02485
G1 X103.373 Y107.18 E17.05291
G1 X103.095 Y107.049 E17.06722
G1 X102.152 Y106.517 E17.11764
G1 X101.785 Y106.273 E17.13816
G1 X101.167 Y105.815 E17.17397
G1 X100.601 Y105.295 E17.20976
G1 X100.158 Y104.8 E17.2407
G1 X99.868 Y104.446 E17.262
G1 X99.412 Y103.827 E17.2978
G1 X99.314 Y103.652 E17.30714
G1 X83.352 Y103.652 E18.0504
G1 X82.584 Y103.612 E18.08621
G1 X81.824 Y103.493 E18.12203
G1 X81.081 Y103.295 E18.15784
G1 X80.362 Y103.021 E18.19366
G1 X79.676 Y102.674 E18.22946
G1 X79.029 Y102.258 E18.26528
G1 X78.429 Y101.777 E18.30109
G1 X78.119 Y101.485 E18.32092
G1 X78.002 Y101.368 E18.32862
G1 X77.488 Y100.796 E18.36443
G1 X77.035 Y100.174 E18.40026
G1 X76.649 Y99.509 E18.43606
G1 X76.334 Y98.807 E18.47189
G1 X76.094 Y98.076 E18.50772
G1 X75.931 Y97.325 E18.5435
G1 X75.847 Y96.56 E18.57934
G1 X75.835 Y96.135 E18.59913
G1 X75.835 Y88.869 E18.93747
G1 X75.875 Y88.101 E18.97328
G1 X75.994 Y87.341 E19.0091
G1 X76.192 Y86.598 E19.0449
G1 X76.466 Y85.879 E19.08073
G1 X76.813 Y85.193 E19.11653
G1 X77.229 Y84.546 E19.15235
G1 X77.71 Y83.946 E19.18815
G1 X78.002 Y83.636 E19.20798
G1 X78.119 Y83.519 E19.21569
G0 F6000 X78.402 Y83.802
G1 F1200 X78.959 Y83.302 E19.25054
G1 X79.565 Y82.865 E19.28533
G1 X80.215 Y82.494 E19.32018
G1 X80.901 Y82.195 E19.35503
G1 X81.615 Y81.971 E19.38987
G1 X82.348 Y81.824 E19.42468
G1 X83.352 Y81.752 E19.47155
G1 X99.528 Y81.752 E20.22478
G1 X99.882 Y81.193 E20.25559
G1 X100.14 Y80.852 E20.2755
G1 X100.332 Y80.614 E20.28974
G1 X100.499 Y80.415 E20.30183
G1 X100.606 Y80.292 E20.30942
G1 X101.126 Y79.754 E20.34426
G1 X101.701 Y79.276 E20.37908
G1 X102.056 Y79.027 E20.39927
G1 X102.42 Y78.789 E20.41952
G1 X103.285 Y78.307 E20.46563
G1 X103.58 Y78.169 E20.4808
G1 X104.139 Y77.937 E20.50898
G1 X105.091 Y77.588 E20.55619
G1 X105.48 Y77.433 E20.57569
G1 X117.258 Y73.016 E21.16142
G1 X119.497 Y72.179 E21.27273
G1 X120.211 Y71.955 E21.30757
G1 X120.944 Y71.808 E21.34238
G1 X121.058 Y71.796 E21.34772
G1 X121.742 Y71.494 E21.38254
G1 X122.633 Y71.224 E21.42589
G1 X123.046 Y71.128 E21.44563
G1 X123.252 Y71.083 E21.45545
G1 X123.854 Y70.962 E21.48404
G1 X124.086 Y70.92 E21.49502
G1 X124.694 Y70.819 E21.52372
G1 X124.899 Y70.788 E21.53337
G1 X125.51 Y70.705 E21.56209
G1 X125.757 Y70.676 E21.57367
G1 X126.529 Y70.599 E21.60979
G1 X126.805 Y70.577 E21.62269
G1 X127.588 Y70.53 E21.65921
G1 X127.87 Y70.518 E21.67235
G1 X128.635 Y70.503 E21.70798
G1 X141.118 Y70.502 E22.28924
G1 X141.865 Y70.542 E22.32408
G1 X142.603 Y70.661 E22.35888
G1 X143.325 Y70.859 E22.39375
G1 X144.021 Y71.132 E22.42856
G1 X144.684 Y71.479 E22.4634
G1 X145.307 Y71.894 E22.49826
G1 X146.068 Y72.552 E22.5451
G1 X146.185 Y72.669 E22.55281
G1 X146.685 Y73.226 E22.58766
G1 X147.122 Y73.832 E22.62245
G1 X147.493 Y74.482 E22.6573
G1 X147.792 Y75.168 E22.69215
G1 X148.016 Y75.882 E22.72699
G1 X148.163 Y76.615 E22.7618
G1 X148.235 Y77.619 E22.80867
G1 X148.235 Y107.385 E24.1947
G1 X148.195 Y108.132 E24.22954
G1 X148.076 Y108.87 E24.26434
G1 X147.878 Y109.592 E24.2992
G1 X147.605 Y110.288 E24.33402
G1 X147.258 Y110.951 E24.36886
G1 X146.843 Y111.574 E24.40372
G1 X146.185 Y112.335 E24.45056
G1 X146.068 Y112.452 E24.45827
G1 X145.511 Y112.952 E24.49312
G1 X144.905 Y113.389 E24.52791
G1 X144.255 Y113.76 E24.56276
G1 X143.569 Y114.059 E24.59761
G1 X142.855 Y114.283 E24.63245
G1 X142.122 Y114.43 E24.66726
G1 X141.118 Y114.502 E24.71413
G1 X128.628 Y114.501 E25.29572
G1 X127.853 Y114.485 E25.33181
G1 X127.577 Y114.473 E25.34468
G1 X126.795 Y114.426 E25.38116
G1 X126.522 Y114.405 E25.39391
G1 X125.748 Y114.328 E25.43012
G1 X125.502 Y114.299 E25.44166
G1 X124.889 Y114.216 E25.47046
G1 X124.662 Y114.181 E25.48116
G1 X124.064 Y114.08 E25.5094
G1 X123.851 Y114.041 E25.51948
G1 X123.249 Y113.92 E25.54807
G1 X123.048 Y113.876 E25.55765
G1 X122.638 Y113.781 E25.57725
G1 X121.919 Y113.574 E25.61209
G1 X121.227 Y113.291 E25.6469
G1 X121.068 Y113.205 E25.65532
G1 X120.37 Y113.086 E25.68829
G1 X119.464 Y112.814 E25.73234
G1 X104.069 Y107.04 E26.49796
G1 X103.543 Y106.818 E26.52454
G1 X103.265 Y106.687 E26.53885
G1 X102.373 Y106.184 E26.58653
G1 X102.006 Y105.94 E26.60706
G1 X101.407 Y105.493 E26.64186
G1 X100.858 Y104.985 E26.67669
G1 X100.467 Y104.547 E26.70403
G1 X100.177 Y104.193 E26.72533
G1 X99.735 Y103.59 E26.76015
G1 X99.547 Y103.252 E26.77816
G1 X83.352 Y103.252 E27.53226
G1 X82.605 Y103.212 E27.5671
G1 X81.867 Y103.093 E27.60191
G1 X81.145 Y102.895 E27.63677
G1 X80.449 Y102.622 E27.67158
G1 X79.786 Y102.275 E27.70642
G1 X79.163 Y101.86 E27.74128
G1 X78.402 Y101.202 E27.78813
G1 X78.285 Y101.085 E27.79583
G1 X77.785 Y100.528 E27.83068
G1 X77.348 Y99.922 E27.86547
G1 X76.977 Y99.272 E27.90032
G1 X76.678 Y98.586 E27.93517
G1 X76.454 Y97.872 E27.97001
G1 X76.307 Y97.139 E28.00482
G1 X76.235 Y96.135 E28.05169
G1 X76.235 Y88.869 E28.39003
G1 X76.275 Y88.122 E28.42486
G1 X76.394 Y87.384 E28.45967
G1 X76.592 Y86.662 E28.49453
G1 X76.865 Y85.966 E28.52934
G1 X77.212 Y85.303 E28.56419
G1 X77.627 Y84.68 E28.59905
G1 X78.285 Y83.919 E28.64589
G1 X78.402 Y83.802 E28.65359
G0 F6000 X78.685 Y84.085
G1 F1200 X79.226 Y83.601 E28.6874
G1 X79.817 Y83.178 E28.72124
G1 X80.451 Y82.824 E28.75505
G1 X81.12 Y82.541 E28.78887
G1 X81.816 Y82.333 E28.8227
G1 X82.531 Y82.203 E28.85654
G1 X83.352 Y82.152 E28.89484
G1 X99.767 Y82.152 E29.65919
G1 X99.841 Y82.002 E29.66698
G1 X100.451 Y81.103 E29.71757
G1 X100.643 Y80.865 E29.73181
G1 X100.907 Y80.554 E29.7508
G1 X101.414 Y80.033 E29.78465
G1 X101.974 Y79.571 E29.81846
G1 X102.275 Y79.362 E29.83552
G1 X102.639 Y79.124 E29.85577
G1 X103.454 Y78.67 E29.89921
G1 X103.749 Y78.532 E29.91438
G1 X104.276 Y78.313 E29.94095
G1 X105.209 Y77.971 E29.98722
G1 X105.621 Y77.807 E30.00787
G1 X117.398 Y73.391 E30.59354
G1 X119.637 Y72.554 E30.70485
G1 X120.33 Y72.337 E30.73866
G1 X121.043 Y72.198 E30.77249
G1 X121.187 Y72.186 E30.77921
G1 X121.314 Y72.115 E30.78599
G1 X121.983 Y71.832 E30.81981
G1 X122.724 Y71.613 E30.85579
G1 X123.137 Y71.517 E30.87554
G1 X123.33 Y71.475 E30.88473
G1 X123.932 Y71.354 E30.91333
G1 X124.151 Y71.314 E30.92369
G1 X124.759 Y71.213 E30.95239
G1 X124.953 Y71.184 E30.96152
G1 X125.564 Y71.101 E30.99024
G1 X125.797 Y71.074 E31.00116
G1 X126.569 Y70.997 E31.03728
G1 X126.829 Y70.976 E31.04943
G1 X127.612 Y70.929 E31.08596
G1 X127.878 Y70.918 E31.09835
G1 X128.772 Y70.902 E31.13999
G1 X141.118 Y70.902 E31.71487
G1 X141.843 Y70.942 E31.74868
G1 X142.56 Y71.061 E31.78252
G1 X143.259 Y71.259 E31.81635
G1 X143.932 Y71.532 E31.85017
G1 X144.571 Y71.877 E31.88398
G1 X145.168 Y72.291 E31.91781
G1 X145.785 Y72.835 E31.95612
G1 X145.902 Y72.952 E31.96382
G1 X146.386 Y73.493 E31.99762
G1 X146.809 Y74.084 E32.03146
G1 X147.163 Y74.718 E32.06528
G1 X147.446 Y75.387 E32.0991
G1 X147.654 Y76.083 E32.13292
G1 X147.784 Y76.798 E32.16676
G1 X147.835 Y77.619 E32.20507
G1 X147.835 Y107.385 E33.5911
G1 X147.795 Y108.11 E33.62491
G1 X147.676 Y108.827 E33.65875
G1 X147.478 Y109.526 E33.69258
G1 X147.205 Y110.199 E33.7264
G1 X146.86 Y110.838 E33.76021
G1 X146.446 Y111.435 E33.79404
G1 X145.902 Y112.052 E33.83234
G1 X145.785 Y112.169 E33.84005
G1 X145.244 Y112.653 E33.87385
G1 X144.653 Y113.076 E33.90769
G1 X144.019 Y113.43 E33.9415
G1 X143.35 Y113.713 E33.97533
G1 X142.654 Y113.921 E34.00915
G1 X141.939 Y114.051 E34.04299
G1 X141.118 Y114.102 E34.08129
G1 X128.636 Y114.101 E34.66251
G1 X127.861 Y114.085 E34.6986
G1 X127.601 Y114.074 E34.71072
G1 X126.819 Y114.027 E34.7472
G1 X126.562 Y114.007 E34.7592
G1 X125.788 Y113.93 E34.79542
G1 X125.555 Y113.902 E34.80635
G1 X124.942 Y113.819 E34.83515
G1 X124.729 Y113.787 E34.84518
G1 X124.131 Y113.686 E34.87342
