;FLAVOR:Marlin
;TIME:15558
;Filament used: 15.6356m
;Layer height: 0.28
;MINX:54.997
;MINY:57.943
;MINZ:0.28
;MAXX:162.916
;MAXY:151.207
;MAXZ:35
;Generated with Cura_SteamEngine 4.8.0
M140 S60
M105
M190 S60
M104 S200
M105
M109 S200
M82 ;absolute extrusion mode
; Ender 3 Custom Start G-code
G92 E0 ; Reset Extruder
G28 ; Home all axes
G1 Z2.0 F3000 ; Move Z Axis up little to prevent scratching of Heat Bed
G1 X0.1 Y20 Z0.3 F5000.0 ; Move to start position
G1 X0.1 Y200.0 Z0.3 F1500.0 E15 ; Draw the first line
G1 X0.4 Y200.0 Z0.3 F5000.0 ; Move to side a little
G1 X0.4 Y20 Z0.3 F1500.0 E30 ; Draw the second line
G92 E0 ; Reset Extruder
G1 Z2.0 F3000 ; Move Z Axis up little to prevent scratching of Heat Bed
G1 X5 Y20 Z0.3 F5000.0 ; Move over to prevent blob squish
G92 E0
G92 E0
G1 F1500 E-6.5
;LAYER_COUNT:125
;LAYER:0
M107
G0 F6000 X109.882 Y121.107 Z0.28
;TYPE:SKIRT
G1 F1500 E0
G1 F1200 X112.762 Y121.107 E0.1341
G1 X113.559 Y121.148 E0.17127
G1 X113.702 Y121.13 E0.17798
G1 X114.297 Y121.107 E0.2057
G1 X122.316 Y121.107 E0.5791
G1 X122.316 Y109.511 E1.11906
G1 X122.255 Y109.614 E1.12463
G1 X121.429 Y110.905 E1.196
G1 X121.138 Y111.329 E1.21995
G1 X120.224 Y112.569 E1.29168
G1 X119.898 Y112.981 E1.31614
G1 X118.909 Y114.149 E1.3874
G1 X118.559 Y114.535 E1.41167
G1 X117.488 Y115.641 E1.48336
G1 X117.119 Y115.998 E1.50726
G1 X115.993 Y117.017 E1.57798
G1 X115.592 Y117.356 E1.60243
G1 X114.381 Y118.312 E1.67427
G1 X113.967 Y118.617 E1.69821
G1 X112.706 Y119.484 E1.76947
G1 X112.263 Y119.768 E1.79397
G1 X110.938 Y120.553 E1.86569
G1 X110.486 Y120.801 E1.88969
G1 X109.882 Y121.107 E1.92122
G0 F6000 X110.305 Y120.444
G1 F1200 X108.848 Y121.182 E1.99727
G1 X108.197 Y121.507 E2.03115
G1 X112.762 Y121.507 E2.24372
G1 X113.53 Y121.547 E2.27953
G1 X113.566 Y121.553 E2.28123
G1 X113.872 Y121.519 E2.29556
G1 X114.297 Y121.507 E2.31536
G1 X122.716 Y121.507 E2.70739
G1 X122.716 Y107.979 E3.33731
G1 X122.172 Y108.97 E3.38995
G1 X121.918 Y109.398 E3.41312
G1 X121.092 Y110.689 E3.48449
G1 X120.816 Y111.092 E3.50723
G1 X119.902 Y112.332 E3.57896
G1 X119.592 Y112.723 E3.6022
G1 X118.603 Y113.891 E3.67346
G1 X118.272 Y114.257 E3.69644
G1 X117.201 Y115.363 E3.76813
G1 X116.85 Y115.702 E3.79085
G1 X115.724 Y116.721 E3.86156
G1 X115.344 Y117.042 E3.88473
G1 X114.133 Y117.998 E3.95657
G1 X113.741 Y118.288 E3.97928
G1 X112.48 Y119.155 E4.05053
G1 X112.059 Y119.424 E4.0738
G1 X110.734 Y120.209 E4.14551
G1 X110.305 Y120.444 E4.16829
G0 F6000 X110.124 Y120.087
G1 F1200 X108.669 Y120.824 E4.24423
G1 X107.372 Y121.472 E4.31174
G1 X106.615 Y121.907 E4.3524
G1 X112.762 Y121.907 E4.63863
G1 X113.509 Y121.947 E4.67346
G1 X113.58 Y121.958 E4.67681
G1 X114.297 Y121.907 E4.71028
G1 X123.116 Y121.907 E5.12093
G1 X123.116 Y106.273 E5.84891
G1 X122.768 Y107.021 E5.88733
G1 X122.559 Y107.435 E5.90892
G1 X121.822 Y108.778 E5.98025
G1 X121.581 Y109.183 E6.0022
G1 X120.755 Y110.474 E6.07357
G1 X120.494 Y110.854 E6.09503
G1 X119.58 Y112.094 E6.16676
G1 X119.287 Y112.464 E6.18874
G1 X118.298 Y113.632 E6.26
G1 X117.985 Y113.979 E6.28176
G1 X116.914 Y115.085 E6.35345
G1 X116.582 Y115.405 E6.37492
G1 X115.456 Y116.424 E6.44564
G1 X115.096 Y116.728 E6.46758
G1 X113.885 Y117.684 E6.53942
G1 X113.514 Y117.958 E6.5609
G1 X112.253 Y118.825 E6.63215
G1 X111.855 Y119.079 E6.65414
G1 X110.53 Y119.864 E6.72585
G1 X110.124 Y120.087 E6.74742
G0 F6000 X109.943 Y119.73
G1 F1200 X108.49 Y120.466 E6.82326
G1 X107.178 Y121.121 E6.89154
G1 X106.028 Y121.782 E6.95331
G1 X105.227 Y122.307 E6.9979
G1 X112.762 Y122.307 E7.34877
G1 X113.487 Y122.347 E7.38258
G1 X113.532 Y122.355 E7.3847
G1 X114.297 Y122.307 E7.4204
G1 X123.516 Y122.307 E7.84967
G1 X123.516 Y104.302 E8.68806
G1 X123.216 Y105.076 E8.72671
G1 X123.046 Y105.477 E8.74699
G1 X122.406 Y106.852 E8.81761
G1 X122.208 Y107.242 E8.83798
G1 X121.471 Y108.585 E8.90931
G1 X121.244 Y108.967 E8.93001
G1 X120.418 Y110.258 E9.00137
G1 X120.172 Y110.617 E9.02164
G1 X119.258 Y111.857 E9.09337
G1 X118.982 Y112.206 E9.11408
G1 X117.993 Y113.374 E9.18535
G1 X117.697 Y113.7 E9.20585
G1 X116.626 Y114.806 E9.27754
G1 X116.314 Y115.109 E9.29779
G1 X115.188 Y116.128 E9.36851
G1 X114.849 Y116.414 E9.38916
G1 X113.638 Y117.37 E9.461
G1 X113.287 Y117.629 E9.48131
G1 X112.026 Y118.496 E9.55257
G1 X111.651 Y118.735 E9.57328
G1 X110.326 Y119.52 E9.64499
G1 X109.943 Y119.73 E9.66533
G0 F6000 X109.763 Y119.373
G1 F1200 X108.312 Y120.108 E9.74107
G1 X106.986 Y120.77 E9.81008
G1 X105.807 Y121.448 E9.87341
G1 X104.67 Y122.193 E9.93671
G1 X103.969 Y122.71 E9.97726
G1 X104.02 Y122.707 E9.97964
G1 X112.762 Y122.707 E10.38671
G1 X113.465 Y122.747 E10.41949
G1 X113.655 Y122.74 E10.42835
G1 X114.297 Y122.707 E10.45828
G1 X123.916 Y122.707 E10.90618
G1 X123.916 Y101.89 E11.87551
G1 X123.54 Y103.095 E11.93429
G1 X123.402 Y103.489 E11.95373
G1 X122.843 Y104.932 E12.02578
G1 X122.683 Y105.308 E12.04481
G1 X122.043 Y106.683 E12.11543
G1 X121.857 Y107.05 E12.13459
G1 X121.12 Y108.393 E12.20592
G1 X120.908 Y108.751 E12.2253
G1 X120.082 Y110.042 E12.29666
G1 X119.85 Y110.38 E12.31575
G1 X118.936 Y111.62 E12.38748
G1 X118.677 Y111.947 E12.40691
G1 X117.688 Y113.115 E12.47817
G1 X117.41 Y113.422 E12.49746
G1 X116.339 Y114.528 E12.56915
G1 X116.045 Y114.812 E12.58818
G1 X114.919 Y115.831 E12.65889
G1 X114.601 Y116.1 E12.67829
G1 X113.39 Y117.056 E12.75013
G1 X113.061 Y117.299 E12.76918
G1 X111.8 Y118.166 E12.84043
G1 X111.447 Y118.391 E12.85993
G1 X110.122 Y119.176 E12.93164
G1 X109.763 Y119.373 E12.95071
G0 F6000 X109.582 Y119.016
G1 F1200 X108.133 Y119.75 E13.02634
G1 X106.801 Y120.415 E13.09566
G1 X105.594 Y121.109 E13.1605
G1 X104.447 Y121.86 E13.22433
G1 X103.315 Y122.696 E13.28986
G1 X102.593 Y123.295 E13.33354
G1 X102.879 Y123.22 E13.34731
G1 X103.553 Y123.126 E13.379
G1 X104.02 Y123.107 E13.40076
G1 X112.762 Y123.107 E13.80783
G1 X113.61 Y123.156 E13.84738
G1 X113.83 Y123.126 E13.85772
G1 X114.297 Y123.107 E13.87948
G1 X124.316 Y123.107 E14.34601
G1 X124.316 Y98.32 E15.5002
G1 X124.151 Y99.285 E15.54578
G1 X124.073 Y99.666 E15.56389
G1 X123.717 Y101.143 E15.63464
G1 X123.615 Y101.511 E15.65242
G1 X123.158 Y102.976 E15.72388
G1 X123.029 Y103.344 E15.74203
G1 X122.47 Y104.787 E15.81409
G1 X122.32 Y105.14 E15.83195
G1 X121.68 Y106.515 E15.90257
G1 X121.507 Y106.857 E15.92042
G1 X120.77 Y108.2 E15.99175
G1 X120.571 Y108.536 E16.00994
G1 X119.745 Y109.827 E16.0813
G1 X119.528 Y110.142 E16.09911
G1 X118.614 Y111.382 E16.17084
G1 X118.371 Y111.689 E16.18907
G1 X117.382 Y112.857 E16.26034
G1 X117.123 Y113.144 E16.27834
G1 X116.052 Y114.25 E16.35003
G1 X115.777 Y114.515 E16.36781
G1 X114.651 Y115.534 E16.43853
G1 X114.353 Y115.786 E16.4567
G1 X113.142 Y116.742 E16.52854
G1 X112.834 Y116.969 E16.54636
G1 X111.573 Y117.836 E16.61762
G1 X111.243 Y118.047 E16.63585
G1 X109.918 Y118.832 E16.70757
G1 X109.582 Y119.016 E16.7254
G0 F6000 X109.401 Y118.66
G1 F1200 X107.954 Y119.392 E16.80091
G1 X106.621 Y120.058 E16.8703
G1 X105.389 Y120.766 E16.93646
G1 X104.204 Y121.542 E17.00242
G1 X103.076 Y122.375 E17.06772
G1 X101.756 Y123.47 E17.14758
G1 X101.036 Y124.047 E17.19054
G1 X100.604 Y124.359 E17.21535
G1 X99.791 Y124.888 E17.26052
G1 X99.35 Y125.146 E17.28431
G1 X98.496 Y125.593 E17.32919
G1 X98.017 Y125.815 E17.35378
G1 X97.132 Y126.173 E17.39823
G1 X96.641 Y126.345 E17.42245
G1 X95.706 Y126.622 E17.46786
G1 X95.21 Y126.743 E17.49164
G1 X94.271 Y126.927 E17.53619
G1 X93.753 Y127.003 E17.56057
G1 X92.802 Y127.095 E17.60506
G1 X92.282 Y127.12 E17.6293
G1 X91.31 Y127.12 E17.67456
G1 X90.785 Y127.094 E17.69904
G1 X89.823 Y127 E17.74404
G1 X89.302 Y126.924 E17.76856
G1 X88.365 Y126.739 E17.81303
G1 X87.872 Y126.617 E17.83668
G1 X86.937 Y126.339 E17.8821
G1 X86.442 Y126.165 E17.90654
G1 X85.559 Y125.806 E17.95092
G1 X85.092 Y125.59 E17.97488
G1 X84.229 Y125.139 E18.02022
G1 X83.774 Y124.872 E18.04479
G1 X82.976 Y124.35 E18.08919
G1 X82.558 Y124.047 E18.11323
G1 X81.722 Y123.377 E18.16311
G1 X80.575 Y122.42 E18.23267
G1 X79.53 Y121.64 E18.29339
G1 X78.38 Y120.875 E18.35771
G1 X77.262 Y120.214 E18.41818
G1 X76.028 Y119.576 E18.48287
G1 X74.799 Y119.024 E18.5456
G1 X73.558 Y118.544 E18.60756
G1 X72.31 Y118.138 E18.66867
G1 X70.996 Y117.789 E18.73198
G1 X69.685 Y117.518 E18.79431
G1 X68.357 Y117.316 E18.85686
G1 X67.034 Y117.189 E18.91875
G1 X65.578 Y117.126 E18.98661
G1 X64.753 Y117.026 E19.02531
G1 X64.723 Y117.02 E19.02673
G1 X64.111 Y116.86 E19.05619
G1 X63.441 Y116.642 E19.089
G1 X63.145 Y116.536 E19.10364
G1 X62.627 Y116.334 E19.12953
G1 X62.258 Y116.311 E19.14674
G1 X61.612 Y116.192 E19.17733
G1 X60.985 Y115.995 E19.20793
G1 X60.387 Y115.723 E19.23852
G1 X59.826 Y115.381 E19.26912
G1 X59.096 Y114.769 E19.31347
G1 X58.979 Y114.652 E19.32118
G1 X58.543 Y114.16 E19.35179
G1 X58.171 Y113.619 E19.38236
G1 X57.867 Y113.037 E19.41293
G1 X57.636 Y112.422 E19.44352
G1 X57.481 Y111.783 E19.47414
G1 X57.397 Y110.834 E19.5185
G1 X57.397 Y76.406 E21.12162
G1 X57.437 Y75.75 E21.15222
G1 X57.556 Y75.104 E21.18281
G1 X57.753 Y74.477 E21.21341
G1 X58.025 Y73.879 E21.244
G1 X58.367 Y73.318 E21.27459
G1 X58.979 Y72.588 E21.31895
G1 X59.096 Y72.471 E21.32665
G1 X59.588 Y72.035 E21.35727
G1 X60.129 Y71.663 E21.38784
G1 X60.711 Y71.359 E21.41841
G1 X61.326 Y71.128 E21.449
G1 X61.965 Y70.973 E21.47962
G1 X62.544 Y70.922 E21.50668
G1 X63.023 Y70.728 E21.53075
G1 X63.646 Y70.521 E21.56132
G1 X64.042 Y70.431 E21.58023
G1 X64.693 Y70.345 E21.6108
G1 X65.076 Y70.331 E21.62865
G1 X65.508 Y70.331 E21.64877
G1 X66.947 Y70.291 E21.7158
G1 X68.307 Y70.179 E21.77934
G1 X69.675 Y69.986 E21.84367
G1 X70.968 Y69.731 E21.90504
G1 X72.329 Y69.386 E21.97042
G1 X73.665 Y68.965 E22.03564
G1 X74.929 Y68.485 E22.0986
G1 X76.193 Y67.924 E22.16299
G1 X77.407 Y67.302 E22.22651
G1 X78.565 Y66.624 E22.28899
G1 X79.72 Y65.86 E22.35348
G1 X80.804 Y65.054 E22.41638
G1 X82.002 Y64.056 E22.48898
G1 X82.818 Y63.404 E22.53762
G1 X83.234 Y63.103 E22.56152
G1 X84.032 Y62.582 E22.6059
G1 X84.483 Y62.318 E22.63024
G1 X85.344 Y61.868 E22.67547
G1 X85.82 Y61.648 E22.69989
G1 X86.705 Y61.29 E22.74434
G1 X87.196 Y61.118 E22.76857
G1 X88.131 Y60.841 E22.81398
G1 X88.621 Y60.721 E22.83747
G1 X89.56 Y60.536 E22.88203
G1 X90.09 Y60.459 E22.90697
G1 X91.041 Y60.368 E22.95145
G1 X91.555 Y60.343 E22.97542
G1 X92.527 Y60.343 E23.02068
G1 X93.047 Y60.368 E23.04492
G1 X94.008 Y60.461 E23.08988
G1 X94.533 Y60.538 E23.11458
G1 X95.471 Y60.723 E23.1591
G1 X95.966 Y60.845 E23.18284
G1 X96.9 Y61.123 E23.22822
G1 X97.388 Y61.294 E23.2523
G1 X98.264 Y61.649 E23.29631
G1 X98.739 Y61.869 E23.32068
G1 X99.607 Y62.323 E23.3663
G1 X100.06 Y62.589 E23.39076
G1 X100.858 Y63.111 E23.43516
G1 X101.278 Y63.415 E23.4593
G1 X102.16 Y64.123 E23.51197
G1 X103.294 Y65.067 E23.58067
G1 X104.414 Y65.897 E23.64558
G1 X105.576 Y66.661 E23.71034
G1 X106.784 Y67.361 E23.77535
G1 X108.227 Y68.092 E23.85067
G1 X109.534 Y68.762 E23.91906
G1 X109.849 Y68.937 E23.93584
G1 X111.174 Y69.732 E24.00779
G1 X111.477 Y69.927 E24.02457
G1 X112.728 Y70.796 E24.0955
G1 X113.016 Y71.011 E24.11223
G1 X114.21 Y71.964 E24.18337
G1 X114.484 Y72.198 E24.20015
G1 X115.625 Y73.241 E24.27213
G1 X115.883 Y73.493 E24.28892
G1 X116.938 Y74.595 E24.35996
G1 X117.177 Y74.862 E24.37665
G1 X118.157 Y76.032 E24.44771
G1 X118.38 Y76.317 E24.46456
G1 X119.291 Y77.566 E24.53655
G1 X119.494 Y77.866 E24.55341
G1 X120.312 Y79.162 E24.62478
G1 X120.491 Y79.466 E24.6412
G1 X121.217 Y80.802 E24.71201
G1 X121.38 Y81.127 E24.72894
G1 X122.024 Y82.53 E24.80082
G1 X122.163 Y82.862 E24.81758
G1 X122.708 Y84.294 E24.88892
G1 X122.825 Y84.635 E24.90571
G1 X123.27 Y86.089 E24.97652
G1 X123.362 Y86.432 E24.99305
G1 X123.716 Y87.936 E25.065
G1 X123.787 Y88.29 E25.08181
G1 X124.035 Y89.787 E25.15247
G1 X124.082 Y90.146 E25.16933
G1 X124.231 Y91.673 E25.24077
G1 X124.254 Y92.031 E25.25747
G1 X124.301 Y93.563 E25.32884
G1 X124.3 Y93.925 E25.3457
G1 X124.244 Y95.464 E25.41741
G1 X124.22 Y95.814 E25.43374
G1 X124.065 Y97.339 E25.50512
G1 X124.016 Y97.704 E25.52227
G1 X123.757 Y99.218 E25.59379
G1 X123.684 Y99.572 E25.61062
G1 X123.328 Y101.049 E25.68136
G1 X123.233 Y101.392 E25.69794
G1 X122.776 Y102.857 E25.7694
G1 X122.656 Y103.2 E25.78632
G1 X122.097 Y104.643 E25.85837
G1 X121.958 Y104.971 E25.87496
G1 X121.318 Y106.346 E25.94558
G1 X121.156 Y106.665 E25.96224
G1 X120.419 Y108.008 E26.03358
G1 X120.234 Y108.32 E26.05047
G1 X119.408 Y109.611 E26.12183
G1 X119.206 Y109.905 E26.13844
G1 X118.292 Y111.145 E26.21017
G1 X118.066 Y111.431 E26.22715
G1 X117.077 Y112.599 E26.29841
G1 X116.835 Y112.866 E26.31519
G1 X115.764 Y113.972 E26.38688
G1 X115.508 Y114.219 E26.40344
G1 X114.382 Y115.238 E26.47416
G1 X114.105 Y115.472 E26.49104
G1 X112.894 Y116.428 E26.56288
G1 X112.607 Y116.64 E26.5795
G1 X111.346 Y117.507 E26.65076
G1 X111.039 Y117.703 E26.66772
G1 X109.714 Y118.488 E26.73943
G1 X109.401 Y118.66 E26.75606
G0 F6000 X109.221 Y118.303
G1 F1200 X107.776 Y119.034 E26.83146
G1 X106.429 Y119.707 E26.90158
G1 X105.176 Y120.427 E26.96887
G1 X103.993 Y121.201 E27.0347
G1 X102.82 Y122.068 E27.10262
G1 X101.506 Y123.158 E27.18212
G1 X100.786 Y123.735 E27.22508
G1 X100.386 Y124.024 E27.24806
G1 X99.573 Y124.553 E27.29322
G1 X99.165 Y124.792 E27.31524
G1 X98.311 Y125.239 E27.36012
G1 X97.867 Y125.444 E27.3829
G1 X96.982 Y125.802 E27.42735
G1 X96.527 Y125.961 E27.44979
G1 X95.592 Y126.238 E27.4952
G1 X95.133 Y126.351 E27.51721
G1 X94.194 Y126.535 E27.56177
G1 X93.714 Y126.605 E27.58435
G1 X92.763 Y126.697 E27.62884
G1 X92.282 Y126.72 E27.65127
G1 X91.31 Y126.72 E27.69653
G1 X90.824 Y126.696 E27.71918
G1 X89.862 Y126.602 E27.76419
G1 X89.38 Y126.531 E27.78688
G1 X88.443 Y126.346 E27.83135
G1 X87.986 Y126.234 E27.85326
G1 X87.051 Y125.956 E27.89868
G1 X86.593 Y125.795 E27.92129
G1 X85.71 Y125.436 E27.96567
G1 X85.277 Y125.235 E27.9879
G1 X84.414 Y124.784 E28.03324
G1 X83.993 Y124.537 E28.05597
G1 X83.195 Y124.015 E28.10037
G1 X82.808 Y123.735 E28.12262
G1 X81.978 Y123.07 E28.17214
G1 X80.816 Y122.101 E28.24259
G1 X79.76 Y121.313 E28.30394
G1 X78.605 Y120.544 E28.36856
G1 X77.449 Y119.861 E28.43108
G1 X76.197 Y119.213 E28.49672
G1 X74.959 Y118.657 E28.55991
G1 X73.694 Y118.168 E28.62307
G1 X72.41 Y117.751 E28.68593
G1 X71.091 Y117.4 E28.74948
G1 X69.751 Y117.123 E28.8132
G1 X68.419 Y116.921 E28.87593
G1 X67.051 Y116.789 E28.93993
G1 X65.596 Y116.726 E29.00774
G1 X64.831 Y116.634 E29.04362
G1 X64.801 Y116.628 E29.04504
G1 X64.235 Y116.48 E29.07229
G1 X63.565 Y116.262 E29.10509
G1 X63.291 Y116.164 E29.11864
G1 X62.714 Y115.938 E29.1475
G1 X62.283 Y115.911 E29.16761
G1 X61.662 Y115.792 E29.19705
G1 X61.062 Y115.595 E29.22646
G1 X60.49 Y115.324 E29.25593
G1 X59.958 Y114.984 E29.28533
G1 X59.378 Y114.487 E29.32089
G1 X59.261 Y114.37 E29.3286
G1 X58.844 Y113.895 E29.35803
G1 X58.489 Y113.372 E29.38746
G1 X58.203 Y112.808 E29.41691
G1 X57.991 Y112.213 E29.44632
G1 X57.855 Y111.595 E29.47579
G1 X57.797 Y110.834 E29.51132
G1 X57.797 Y76.406 E31.11444
G1 X57.837 Y75.775 E31.14388
G1 X57.956 Y75.154 E31.17332
G1 X58.153 Y74.554 E31.20273
G1 X58.424 Y73.982 E31.2322
G1 X58.764 Y73.45 E31.2616
G1 X59.261 Y72.87 E31.29716
G1 X59.378 Y72.753 E31.30487
G1 X59.853 Y72.336 E31.3343
G1 X60.376 Y71.981 E31.36373
G1 X60.94 Y71.695 E31.39318
G1 X61.535 Y71.483 E31.42259
G1 X62.153 Y71.347 E31.45206
G1 X62.656 Y71.309 E31.47555
G1 X62.771 Y71.26 E31.48137
G1 X63.172 Y71.099 E31.50149
G1 X64.077 Y70.832 E31.54542
G1 X64.118 Y70.824 E31.54737
G1 X64.745 Y70.742 E31.57681
G1 X65.076 Y70.731 E31.59223
G1 X65.519 Y70.731 E31.61286
G1 X66.973 Y70.691 E31.68059
G1 X68.344 Y70.577 E31.74465
G1 X69.751 Y70.38 E31.81081
G1 X71.051 Y70.123 E31.87251
