;FLAVOR:Marlin
;TIME:17927
;Filament used: 17.0812m
;Layer height: 0.28
;MINX:67.2
;MINY:48.209
;MINZ:0.28
;MAXX:152.8
;MAXY:172.444
;MAXZ:14.84
;Generated with Cura_SteamEngine 4.8.0
M140 S60
M105
M190 S60
M104 S200
M105
M109 S200
M82 ;absolute extrusion mode
; Ender 3 Custom Start G-code
G92 E0 ; Reset Extruder
G28 ; Home all axes
G1 Z2.0 F3000 ; Move Z Axis up little to prevent scratching of Heat Bed
G1 X0.1 Y20 Z0.3 F5000.0 ; Move to start position
G1 X0.1 Y200.0 Z0.3 F1500.0 E15 ; Draw the first line
G1 X0.4 Y200.0 Z0.3 F5000.0 ; Move to side a little
G1 X0.4 Y20 Z0.3 F1500.0 E30 ; Draw the second line
G92 E0 ; Reset Extruder
G1 Z2.0 F3000 ; Move Z Axis up little to prevent scratching of Heat Bed
G1 X5 Y20 Z0.3 F5000.0 ; Move over to prevent blob squish
G92 E0
G92 E0
G1 F1500 E-6.5
;LAYER_COUNT:53
;LAYER:0
M107
G0 F6000 X68.597 Y51.672 Z0.28
;TYPE:SKIRT
G1 F1500 E0
G1 F1200 X69.08 Y51.048 E0.03674
G1 X69.485 Y50.611 E0.06449
G1 X69.602 Y50.494 E0.07219
G1 X70.188 Y49.964 E0.10898
G1 X70.824 Y49.497 E0.14572
G1 X71.504 Y49.096 E0.18248
G1 X72.222 Y48.766 E0.21928
G1 X72.969 Y48.511 E0.25603
G1 X73.738 Y48.332 E0.2928
G1 X74.522 Y48.232 E0.3296
G1 X75.117 Y48.209 E0.35733
G1 X144.883 Y48.209 E3.60592
G1 X145.672 Y48.249 E3.64271
G1 X146.452 Y48.368 E3.67945
G1 X147.217 Y48.566 E3.71625
G1 X147.957 Y48.84 E3.75299
G1 X148.666 Y49.188 E3.78977
G1 X149.337 Y49.606 E3.82658
G1 X149.961 Y50.089 E3.86332
G1 X150.398 Y50.494 E3.89106
G1 X150.515 Y50.611 E3.89877
G1 X151.045 Y51.197 E3.93556
G1 X151.512 Y51.833 E3.9723
G1 X151.913 Y52.513 E4.00906
G1 X152.243 Y53.231 E4.04586
G1 X152.498 Y53.978 E4.08261
G1 X152.677 Y54.747 E4.11938
G1 X152.777 Y55.531 E4.15618
G1 X152.8 Y56.126 E4.1839
G1 X152.8 Y56.767 E4.21375
G1 X152.78 Y57.164 E4.23226
G1 X152.8 Y57.684 E4.25649
G1 X152.8 Y68.195 E4.74593
G1 X152.779 Y68.605 E4.76504
G1 X152.79 Y68.71 E4.76996
G1 X152.8 Y69.112 E4.78869
G1 X152.8 Y69.753 E4.81853
G1 X152.76 Y70.542 E4.85532
G1 X152.641 Y71.322 E4.89206
G1 X152.443 Y72.087 E4.92885
G1 X152.169 Y72.827 E4.9656
G1 X151.821 Y73.536 E5.00237
G1 X151.403 Y74.207 E5.03919
G1 X150.92 Y74.831 E5.07593
G1 X150.515 Y75.268 E5.10367
G1 X150.398 Y75.385 E5.11138
G1 X149.812 Y75.915 E5.14817
G1 X149.176 Y76.382 E5.18491
G1 X148.496 Y76.783 E5.22167
G1 X147.778 Y77.113 E5.25846
G1 X147.031 Y77.368 E5.29522
G1 X146.262 Y77.547 E5.33198
G1 X145.478 Y77.647 E5.36879
G1 X144.883 Y77.67 E5.39651
G1 X75.117 Y77.67 E8.64511
G1 X74.328 Y77.63 E8.6819
G1 X73.548 Y77.511 E8.71864
G1 X72.783 Y77.313 E8.75543
G1 X72.043 Y77.039 E8.79218
G1 X71.334 Y76.691 E8.82895
G1 X70.663 Y76.273 E8.86576
G1 X70.039 Y75.79 E8.90251
G1 X69.602 Y75.385 E8.93025
G1 X69.485 Y75.268 E8.93795
G1 X68.955 Y74.682 E8.97475
G1 X68.488 Y74.046 E9.01149
G1 X68.087 Y73.366 E9.04825
G1 X67.757 Y72.648 E9.08504
G1 X67.502 Y71.901 E9.1218
G1 X67.323 Y71.132 E9.15856
G1 X67.223 Y70.348 E9.19536
G1 X67.2 Y69.753 E9.22309
G1 X67.2 Y69.112 E9.25294
G1 X67.22 Y68.71 E9.27168
G1 X67.2 Y68.195 E9.29568
G1 X67.2 Y57.684 E9.78511
G1 X67.221 Y57.274 E9.80423
G1 X67.21 Y57.169 E9.80915
G1 X67.2 Y56.767 E9.82787
G1 X67.2 Y56.126 E9.85772
G1 X67.24 Y55.337 E9.89451
G1 X67.359 Y54.557 E9.93125
G1 X67.557 Y53.792 E9.96804
G1 X67.831 Y53.052 E10.00478
G1 X68.179 Y52.343 E10.04156
G1 X68.597 Y51.672 E10.07837
G0 F6000 X68.994 Y51.803
G1 F1200 X69.475 Y51.203 E10.11418
G1 X69.767 Y50.893 E10.13401
G1 X69.884 Y50.776 E10.14171
G1 X70.456 Y50.262 E10.17752
G1 X71.078 Y49.809 E10.21335
G1 X71.743 Y49.423 E10.24916
G1 X72.445 Y49.108 E10.28499
G1 X73.176 Y48.868 E10.32081
G1 X73.927 Y48.705 E10.35659
G1 X74.692 Y48.621 E10.39243
G1 X75.117 Y48.609 E10.41223
G1 X144.883 Y48.609 E13.66083
G1 X145.651 Y48.649 E13.69664
G1 X146.411 Y48.768 E13.73246
G1 X147.154 Y48.966 E13.76826
G1 X147.873 Y49.24 E13.80409
G1 X148.559 Y49.587 E13.83989
G1 X149.206 Y50.003 E13.8757
G1 X149.806 Y50.484 E13.91151
G1 X150.116 Y50.776 E13.93134
G1 X150.233 Y50.893 E13.93905
G1 X150.747 Y51.465 E13.97485
G1 X151.2 Y52.087 E14.01068
G1 X151.586 Y52.752 E14.04649
G1 X151.901 Y53.454 E14.08232
G1 X152.141 Y54.185 E14.11814
G1 X152.304 Y54.936 E14.15393
G1 X152.388 Y55.701 E14.18976
G1 X152.4 Y56.126 E14.20956
G1 X152.4 Y56.767 E14.23941
G1 X152.379 Y57.175 E14.25843
G1 X152.388 Y57.259 E14.26236
G1 X152.4 Y57.684 E14.28216
G1 X152.4 Y68.195 E14.7716
G1 X152.375 Y68.677 E14.79407
G1 X152.4 Y69.112 E14.81436
G1 X152.4 Y69.753 E14.84421
G1 X152.36 Y70.521 E14.88002
G1 X152.241 Y71.281 E14.91584
G1 X152.043 Y72.024 E14.95164
G1 X151.769 Y72.743 E14.98747
G1 X151.422 Y73.429 E15.02327
G1 X151.006 Y74.076 E15.05908
G1 X150.525 Y74.676 E15.09489
G1 X150.233 Y74.986 E15.11472
G1 X150.116 Y75.103 E15.12243
G1 X149.544 Y75.617 E15.15824
G1 X148.922 Y76.07 E15.19407
G1 X148.257 Y76.456 E15.22987
G1 X147.555 Y76.771 E15.2657
G1 X146.824 Y77.011 E15.30152
G1 X146.073 Y77.174 E15.33731
G1 X145.308 Y77.258 E15.37314
G1 X144.883 Y77.27 E15.39294
G1 X75.117 Y77.27 E18.64154
G1 X74.349 Y77.23 E18.67735
G1 X73.589 Y77.111 E18.71317
G1 X72.846 Y76.913 E18.74897
G1 X72.127 Y76.639 E18.7848
G1 X71.441 Y76.292 E18.8206
G1 X70.794 Y75.876 E18.85641
G1 X70.194 Y75.395 E18.89222
G1 X69.884 Y75.103 E18.91205
G1 X69.767 Y74.986 E18.91976
G1 X69.253 Y74.414 E18.95557
G1 X68.8 Y73.792 E18.9914
G1 X68.414 Y73.127 E19.0272
G1 X68.099 Y72.425 E19.06303
G1 X67.859 Y71.694 E19.09885
G1 X67.696 Y70.943 E19.13464
G1 X67.612 Y70.178 E19.17047
G1 X67.6 Y69.753 E19.19027
G1 X67.6 Y69.112 E19.22012
G1 X67.621 Y68.704 E19.23914
G1 X67.612 Y68.62 E19.24308
G1 X67.6 Y68.195 E19.26287
G1 X67.6 Y57.684 E19.75231
G1 X67.625 Y57.202 E19.77478
G1 X67.6 Y56.767 E19.79507
G1 X67.6 Y56.126 E19.82492
G1 X67.64 Y55.358 E19.86073
G1 X67.759 Y54.598 E19.89655
G1 X67.957 Y53.855 E19.93235
G1 X68.231 Y53.136 E19.96818
G1 X68.578 Y52.45 E20.00398
G1 X68.994 Y51.803 E20.0398
G0 F6000 X69.392 Y51.937
G1 F1200 X70.05 Y51.176 E20.08664
G1 X70.167 Y51.059 E20.09435
G1 X70.724 Y50.559 E20.1292
G1 X71.33 Y50.122 E20.16399
G1 X71.98 Y49.751 E20.19884
G1 X72.666 Y49.452 E20.23368
G1 X73.38 Y49.228 E20.26853
G1 X74.113 Y49.081 E20.30334
G1 X75.117 Y49.009 E20.35021
G1 X144.883 Y49.009 E23.59881
G1 X145.63 Y49.049 E23.63364
G1 X146.368 Y49.168 E23.66845
G1 X147.09 Y49.366 E23.70331
G1 X147.786 Y49.639 E23.73812
G1 X148.449 Y49.986 E23.77297
G1 X149.072 Y50.401 E23.80782
G1 X149.833 Y51.059 E23.85467
G1 X149.95 Y51.176 E23.86237
G1 X150.45 Y51.733 E23.89723
G1 X150.887 Y52.339 E23.93202
G1 X151.258 Y52.989 E23.96687
G1 X151.557 Y53.675 E24.00171
G1 X151.781 Y54.389 E24.03656
G1 X151.928 Y55.122 E24.07137
G1 X152 Y56.126 E24.11824
G1 X152 Y56.767 E24.14808
G1 X151.972 Y57.292 E24.17257
G1 X152 Y57.684 E24.19087
G1 X152 Y68.195 E24.6803
G1 X151.979 Y68.582 E24.69835
G1 X151.981 Y68.595 E24.69896
G1 X152 Y69.112 E24.72305
G1 X152 Y69.753 E24.7529
G1 X151.96 Y70.5 E24.78773
G1 X151.841 Y71.238 E24.82254
G1 X151.643 Y71.96 E24.8574
G1 X151.37 Y72.656 E24.89221
G1 X151.023 Y73.319 E24.92706
G1 X150.608 Y73.942 E24.96191
G1 X149.95 Y74.703 E25.00876
G1 X149.833 Y74.82 E25.01646
G1 X149.276 Y75.32 E25.05132
G1 X148.67 Y75.757 E25.08611
G1 X148.02 Y76.128 E25.12096
G1 X147.334 Y76.427 E25.1558
G1 X146.62 Y76.651 E25.19065
G1 X145.887 Y76.798 E25.22546
G1 X144.883 Y76.87 E25.27233
G1 X75.117 Y76.87 E28.52093
G1 X74.37 Y76.83 E28.55576
G1 X73.632 Y76.711 E28.59057
G1 X72.91 Y76.513 E28.62543
G1 X72.214 Y76.24 E28.66024
G1 X71.551 Y75.893 E28.69508
G1 X70.928 Y75.478 E28.72994
G1 X70.167 Y74.82 E28.77679
G1 X70.05 Y74.703 E28.78449
G1 X69.55 Y74.146 E28.81934
G1 X69.113 Y73.54 E28.85413
G1 X68.742 Y72.89 E28.88898
G1 X68.443 Y72.204 E28.92383
G1 X68.219 Y71.49 E28.95867
G1 X68.072 Y70.757 E28.99348
G1 X68 Y69.753 E29.04035
G1 X68 Y69.112 E29.0702
G1 X68.028 Y68.587 E29.09468
G1 X68 Y68.195 E29.11298
G1 X68 Y57.684 E29.60242
G1 X68.021 Y57.297 E29.62047
G1 X68.019 Y57.284 E29.62108
G1 X68 Y56.767 E29.64517
G1 X68 Y56.126 E29.67502
G1 X68.04 Y55.379 E29.70985
G1 X68.159 Y54.641 E29.74466
G1 X68.357 Y53.919 E29.77952
G1 X68.63 Y53.223 E29.81433
G1 X68.977 Y52.56 E29.84918
G1 X69.392 Y51.937 E29.88403
G0 F6000 X69.789 Y52.076
G1 F1200 X70.333 Y51.459 E29.92233
G1 X70.45 Y51.342 E29.93004
G1 X70.991 Y50.858 E29.96384
G1 X71.582 Y50.435 E29.99768
G1 X72.216 Y50.081 E30.03149
G1 X72.885 Y49.798 E30.06532
G1 X73.581 Y49.59 E30.09914
G1 X74.296 Y49.46 E30.13298
G1 X75.117 Y49.409 E30.17129
G1 X144.883 Y49.409 E33.41988
G1 X145.608 Y49.449 E33.45369
G1 X146.325 Y49.568 E33.48754
G1 X147.024 Y49.766 E33.52137
G1 X147.697 Y50.039 E33.55518
G1 X148.336 Y50.384 E33.589
G1 X148.933 Y50.798 E33.62283
G1 X149.55 Y51.342 E33.66113
G1 X149.667 Y51.459 E33.66883
G1 X150.151 Y52 E33.70263
G1 X150.574 Y52.591 E33.73648
G1 X150.928 Y53.225 E33.77029
G1 X151.211 Y53.894 E33.80411
G1 X151.419 Y54.59 E33.83794
G1 X151.549 Y55.305 E33.87178
G1 X151.6 Y56.126 E33.91008
G1 X151.6 Y56.767 E33.93993
G1 X151.573 Y57.253 E33.96259
G1 X151.6 Y57.684 E33.9827
G1 X151.6 Y68.195 E34.47214
G1 X151.572 Y68.707 E34.49601
G1 X151.6 Y69.112 E34.51492
G1 X151.6 Y69.753 E34.54476
G1 X151.56 Y70.478 E34.57857
G1 X151.441 Y71.195 E34.61242
G1 X151.243 Y71.894 E34.64625
G1 X150.97 Y72.567 E34.68006
G1 X150.625 Y73.206 E34.71388
G1 X150.211 Y73.803 E34.74771
G1 X149.667 Y74.42 E34.78601
G1 X149.55 Y74.537 E34.79372
G1 X149.009 Y75.021 E34.82752
G1 X148.418 Y75.444 E34.86136
G1 X147.784 Y75.798 E34.89517
G1 X147.115 Y76.081 E34.92899
G1 X146.419 Y76.289 E34.96282
G1 X145.704 Y76.419 E34.99666
G1 X144.883 Y76.47 E35.03496
G1 X75.117 Y76.47 E38.28356
G1 X74.392 Y76.43 E38.31737
G1 X73.675 Y76.311 E38.35121
G1 X72.976 Y76.113 E38.38504
G1 X72.303 Y75.84 E38.41886
G1 X71.664 Y75.495 E38.45267
G1 X71.067 Y75.081 E38.4865
G1 X70.45 Y74.537 E38.5248
G1 X70.333 Y74.42 E38.53251
G1 X69.849 Y73.879 E38.56631
G1 X69.426 Y73.288 E38.60015
G1 X69.072 Y72.654 E38.63396
G1 X68.789 Y71.985 E38.66779
G1 X68.581 Y71.289 E38.70161
G1 X68.451 Y70.574 E38.73545
G1 X68.4 Y69.753 E38.77376
G1 X68.4 Y69.112 E38.8036
G1 X68.427 Y68.626 E38.82627
G1 X68.4 Y68.195 E38.84638
G1 X68.4 Y57.684 E39.33581
G1 X68.428 Y57.172 E39.35969
G1 X68.4 Y56.767 E39.37859
G1 X68.4 Y56.126 E39.40844
G1 X68.44 Y55.401 E39.44225
G1 X68.559 Y54.684 E39.47609
G1 X68.757 Y53.985 E39.50992
G1 X69.03 Y53.312 E39.54374
G1 X69.375 Y52.673 E39.57755
G1 X69.789 Y52.076 E39.61138
G0 F6000 X69.774 Y52.791
G1 F1200 X70.185 Y52.22 E39.64414
G1 X70.616 Y51.742 E39.67411
G1 X70.733 Y51.625 E39.68182
G1 X71.258 Y51.156 E39.7146
G1 X71.833 Y50.75 E39.74737
G1 X72.451 Y50.412 E39.78017
G1 X73.102 Y50.145 E39.81294
G1 X73.78 Y49.955 E39.84572
G1 X74.475 Y49.842 E39.87851
G1 X75.117 Y49.809 E39.90844
G1 X144.883 Y49.809 E43.15704
G1 X145.586 Y49.849 E43.18983
G1 X146.28 Y49.968 E43.22262
G1 X146.955 Y50.166 E43.25537
G1 X147.604 Y50.438 E43.28814
G1 X148.218 Y50.783 E43.32093
G1 X148.789 Y51.194 E43.35369
G1 X149.267 Y51.625 E43.38366
G1 X149.384 Y51.742 E43.39137
G1 X149.853 Y52.267 E43.42415
G1 X150.259 Y52.842 E43.45692
G1 X150.597 Y53.46 E43.48972
G1 X150.864 Y54.111 E43.52249
G1 X151.054 Y54.789 E43.55527
G1 X151.167 Y55.484 E43.58806
G1 X151.2 Y56.126 E43.61799
G1 X151.2 Y56.767 E43.64784
G1 X151.175 Y57.202 E43.66813
G1 X151.2 Y57.684 E43.6906
G1 X151.2 Y68.195 E44.18004
G1 X151.177 Y68.607 E44.19926
G1 X151.2 Y69.112 E44.22279
G1 X151.2 Y69.753 E44.25264
G1 X151.16 Y70.456 E44.28543
G1 X151.041 Y71.15 E44.31822
G1 X150.843 Y71.825 E44.35097
G1 X150.571 Y72.474 E44.38374
G1 X150.226 Y73.088 E44.41653
G1 X149.815 Y73.659 E44.44929
G1 X149.384 Y74.137 E44.47926
G1 X149.267 Y74.254 E44.48697
G1 X148.742 Y74.723 E44.51975
G1 X148.167 Y75.129 E44.55252
G1 X147.549 Y75.467 E44.58532
G1 X146.898 Y75.734 E44.61809
G1 X146.22 Y75.924 E44.65087
G1 X145.525 Y76.037 E44.68366
G1 X144.883 Y76.07 E44.71359
G1 X75.117 Y76.07 E47.96219
G1 X74.414 Y76.03 E47.99498
G1 X73.72 Y75.911 E48.02777
G1 X73.045 Y75.713 E48.06052
G1 X72.396 Y75.441 E48.09329
G1 X71.782 Y75.096 E48.12608
G1 X71.211 Y74.685 E48.15884
G1 X70.733 Y74.254 E48.18881
G1 X70.616 Y74.137 E48.19652
G1 X70.147 Y73.612 E48.2293
G1 X69.741 Y73.037 E48.26207
G1 X69.403 Y72.419 E48.29487
G1 X69.136 Y71.768 E48.32764
G1 X68.946 Y71.09 E48.36042
G1 X68.833 Y70.395 E48.39321
G1 X68.8 Y69.753 E48.42314
G1 X68.8 Y69.112 E48.45299
G1 X68.825 Y68.677 E48.47328
G1 X68.8 Y68.195 E48.49575
G1 X68.8 Y57.684 E48.98519
G1 X68.823 Y57.272 E49.0044
G1 X68.8 Y56.767 E49.02794
G1 X68.8 Y56.126 E49.05779
G1 X68.84 Y55.423 E49.09058
G1 X68.959 Y54.729 E49.12337
G1 X69.157 Y54.054 E49.15612
G1 X69.429 Y53.405 E49.18889
G1 X69.774 Y52.791 E49.22168
G0 F6000 X70.172 Y52.912
G1 F1200 X70.582 Y52.368 E49.2534
G1 X70.899 Y52.025 E49.27515
G1 X71.016 Y51.908 E49.28286
G1 X71.525 Y51.455 E49.31458
G1 X72.083 Y51.066 E49.34626
G1 X72.683 Y50.744 E49.37796
G1 X73.317 Y50.495 E49.40968
G1 X73.976 Y50.322 E49.44141
G1 X74.65 Y50.228 E49.47309
G1 X75.117 Y50.209 E49.49486
G1 X144.883 Y50.209 E52.74346
G1 X145.563 Y50.249 E52.77517
G1 X146.233 Y50.368 E52.80686
G1 X146.885 Y50.565 E52.83858
G1 X147.509 Y50.837 E52.87027
G1 X148.097 Y51.181 E52.90199
G1 X148.641 Y51.591 E52.93371
G1 X148.984 Y51.908 E52.95546
G1 X149.101 Y52.025 E52.96317
G1 X149.554 Y52.534 E52.99489
G1 X149.943 Y53.092 E53.02657
G1 X150.265 Y53.692 E53.05827
G1 X150.514 Y54.326 E53.08999
G1 X150.687 Y54.985 E53.12172
G1 X150.781 Y55.659 E53.15341
G1 X150.8 Y56.126 E53.17517
G1 X150.8 Y56.767 E53.20502
G1 X150.776 Y57.179 E53.22423
G1 X150.781 Y57.217 E53.22602
G1 X150.8 Y57.684 E53.24778
G1 X150.8 Y68.195 E53.73722
G1 X150.769 Y68.725 E53.76194
G1 X150.8 Y69.112 E53.78002
G1 X150.8 Y69.753 E53.80986
G1 X150.76 Y70.433 E53.84158
G1 X150.641 Y71.103 E53.87327
G1 X150.444 Y71.755 E53.90498
G1 X150.172 Y72.379 E53.93668
G1 X149.828 Y72.967 E53.9684
G1 X149.418 Y73.511 E54.00012
G1 X149.101 Y73.854 E54.02187
G1 X148.984 Y73.971 E54.02957
G1 X148.475 Y74.424 E54.0613
G1 X147.917 Y74.813 E54.09298
G1 X147.317 Y75.135 E54.12468
G1 X146.683 Y75.384 E54.1564
G1 X146.024 Y75.557 E54.18813
G1 X145.35 Y75.651 E54.21981
G1 X144.883 Y75.67 E54.24158
G1 X75.117 Y75.67 E57.49017
G1 X74.437 Y75.63 E57.52189
G1 X73.767 Y75.511 E57.55358
G1 X73.115 Y75.314 E57.5853
G1 X72.491 Y75.042 E57.61699
G1 X71.903 Y74.698 E57.64871
G1 X71.359 Y74.288 E57.68043
G1 X71.016 Y73.971 E57.70218
G1 X70.899 Y73.854 E57.70988
G1 X70.446 Y73.345 E57.74161
G1 X70.057 Y72.787 E57.77329
G1 X69.735 Y72.187 E57.80499
G1 X69.486 Y71.553 E57.83671
G1 X69.313 Y70.894 E57.86844
G1 X69.219 Y70.22 E57.90012
G1 X69.2 Y69.753 E57.92189
G1 X69.2 Y69.112 E57.95174
G1 X69.224 Y68.7 E57.97095
G1 X69.219 Y68.662 E57.97274
G1 X69.2 Y68.195 E57.9945
G1 X69.2 Y57.684 E58.48394
G1 X69.231 Y57.154 E58.50866
G1 X69.2 Y56.767 E58.52674
G1 X69.2 Y56.126 E58.55658
G1 X69.24 Y55.446 E58.5883
G1 X69.359 Y54.776 E58.61999
G1 X69.556 Y54.124 E58.6517
G1 X69.828 Y53.5 E58.6834
G1 X70.172 Y52.912 E58.71512
G0 F6000 X70.57 Y53.038
G1 F1200 X71.182 Y52.308 E58.75948
G1 X71.299 Y52.191 E58.76718
G1 X71.791 Y51.755 E58.79779
G1 X72.332 Y51.383 E58.82837
G1 X72.914 Y51.079 E58.85894
G1 X73.529 Y50.848 E58.88953
G1 X74.168 Y50.693 E58.92015
G1 X75.117 Y50.609 E58.96451
G1 X144.883 Y50.609 E62.21311
G1 X145.539 Y50.649 E62.24371
G1 X146.185 Y50.768 E62.2743
G1 X146.812 Y50.965 E62.3049
G1 X147.41 Y51.237 E62.33549
G1 X147.971 Y51.579 E62.36608
G1 X148.701 Y52.191 E62.41044
G1 X148.818 Y52.308 E62.41815
G1 X149.254 Y52.8 E62.44876
G1 X149.626 Y53.341 E62.47933
G1 X149.93 Y53.923 E62.5099
G1 X150.161 Y54.538 E62.54049
G1 X150.316 Y55.177 E62.57111
